anildalabanjan933/crypto_tradingsystem/output/trade_log_RenkoOptionsStrategy_BTCUSD_20260623_193254.csv
trade_number,entry_type,exit_type,entry_datetime,exit_datetime,direction,entry_price,exit_price,size_qty,actual_quantity,size_value,lot_notional_usd,gross_pnl,net_pnl,net_pnl_inr,net_pnl_pct,favorable_excursion,favorable_excursion_pct,adverse_excursion,adverse_excursion_pct,cumulative_pnl,cumulative_pnl_inr,cumulative_pnl_pct,margin_required,taker_fees_usd,slippage_usd,slippage_applied,funding_usd,insurance_usd,tax_usd,total_charges_usd,stop_loss
1,BUY_A,ST_FLIP_RED,2025-06-23T22:00:00,2025-06-25T14:00:00,long,104057.5,106857.5,100,0.1,10405.75,100.0,280,275.89,23174.76,0.28,2800,2.69,0,0.0,275.89,23174.76,0.28,1040.58,0.1,4,2.0,0.01,0,0.0,4.11,103657.5
2,SELL_A,ST_FLIP_GREEN,2025-06-26T12:00:00,2025-06-29T08:00:00,short,107257.5,107857.5,100,0.1,10725.75,100.0,-60,-64.11,-5385.24,-0.06,0,0.0,600,0.56,211.78,17789.52,0.21,1072.58,0.1,4,2.0,0.01,0,0.0,4.11,107657.5
3,SELL_A,ST_FLIP_GREEN,2025-06-30T06:00:00,2025-07-02T04:00:00,short,107657.5,106457.5,100,0.1,10765.75,100.0,120,115.89,9734.76,0.12,1200,1.11,0,0.0,327.67,27524.28,0.33,1076.58,0.1,4,2.0,0.01,0,0.0,4.11,108057.5
4,BUY_A,ST_FLIP_RED,2025-07-02T14:00:00,2025-07-03T14:00:00,long,108657.5,109057.5,100,0.1,10865.75,100.0,40,35.89,3014.76,0.04,400,0.37,0,0.0,363.56,30539.04,0.36,1086.58,0.1,4,2.0,0.01,0,0.0,4.11,108257.5
5,SELL_A,ST_FLIP_GREEN,2025-07-04T02:00:00,2025-07-06T12:00:00,short,109057.5,108457.5,100,0.1,10905.75,100.0,60,55.89,4694.76,0.06,600,0.55,0,0.0,419.45,35233.8,0.42,1090.58,0.1,4,2.0,0.01,0,0.0,4.11,109457.5
6,BUY_A,ST_FLIP_RED,2025-07-06T14:00:00,2025-07-07T16:00:00,long,108857.5,108257.5,100,0.1,10885.75,100.0,-60,-64.11,-5385.24,-0.06,0,0.0,600,0.55,355.34,29848.56,0.36,1088.58,0.1,4,2.0,0.01,0,0.0,4.11,108457.5
7,BUY_A,ST_FLIP_RED,2025-07-08T16:00:00,2025-07-09T20:00:00,long,108857.5,110657.5,100,0.1,10885.75,100.0,180,175.89,14774.76,0.18,1800,1.65,0,0.0,531.23,44623.32,0.53,1088.58,0.1,4,2.0,0.01,0,0.0,4.11,108457.5
8,SELL_A,ST_FLIP_GREEN,2025-07-10T12:00:00,2025-07-10T16:00:00,short,110857.5,111657.5,100,0.1,11085.75,100.0,-80,-84.11,-7065.24,-0.08,0,0.0,800,0.72,447.12,37558.08,0.45,1108.58,0.1,4,2.0,0.01,0,0.0,4.11,111257.5
9,BUY_A,ST_FLIP_RED,2025-07-12T08:00:00,2025-07-14T10:00:00,long,118057.5,121657.5,100,0.1,11805.75,100.0,360,355.89,29894.76,0.36,3600,3.05,0,0.0,803.01,67452.84,0.8,1180.58,0.1,4,2.0,0.01,0,0.0,4.11,117657.5
10,SELL_A,ST_FLIP_GREEN,2025-07-15T14:00:00,2025-07-15T16:00:00,short,116657.5,117257.5,100,0.1,11665.75,100.0,-60,-64.11,-5385.24,-0.06,0,0.0,600,0.51,738.9,62067.6,0.74,1166.58,0.1,4,2.0,0.01,0,0.0,4.11,117057.5
11,SELL_A,ST_FLIP_GREEN,2025-07-17T10:00:00,2025-07-17T16:00:00,short,118457.5,119057.5,100,0.1,11845.75,100.0,-60,-64.11,-5385.24,-0.06,0,0.0,600,0.51,674.79,56682.36,0.67,1184.58,0.1,4,2.0,0.01,0,0.0,4.11,118857.5
12,SELL_A,ST_FLIP_GREEN,2025-07-21T14:00:00,2025-07-22T06:00:00,short,118257.5,117857.5,100,0.1,11825.75,100.0,40,35.89,3014.76,0.04,400,0.34,0,0.0,710.68,59697.12,0.71,1182.58,0.1,4,2.0,0.01,0,0.0,4.11,118657.5
13,SELL_A,ST_FLIP_GREEN,2025-07-23T02:00:00,2025-07-23T14:00:00,short,118857.5,118257.5,100,0.1,11885.75,100.0,60,55.89,4694.76,0.06,600,0.5,0,0.0,766.57,64391.88,0.77,1188.58,0.1,4,2.0,0.01,0,0.0,4.11,119257.5
14,BUY_A,ST_FLIP_RED,2025-07-23T22:00:00,2025-07-24T04:00:00,long,118857.5,117857.5,100,0.1,11885.75,100.0,-100,-104.11,-8745.24,-0.1,0,0.0,1000,0.84,662.46,55646.64,0.66,1188.58,0.1,4,2.0,0.01,0,0.0,4.11,118457.5
15,SELL_A,ST_FLIP_GREEN,2025-07-25T02:00:00,2025-07-25T10:00:00,short,116857.5,116457.5,100,0.1,11685.75,100.0,40,35.89,3014.76,0.04,400,0.34,0,0.0,698.35,58661.4,0.7,1168.58,0.1,4,2.0,0.01,0,0.0,4.11,117257.5
16,BUY_A,ST_FLIP_RED,2025-07-25T18:00:00,2025-07-28T12:00:00,long,116057.5,118457.5,100,0.1,11605.75,100.0,240,235.89,19814.76,0.24,2400,2.07,0,0.0,934.24,78476.16,0.93,1160.58,0.1,4,2.0,0.01,0,0.0,4.11,115657.5
17,SELL_B,ST_FLIP_GREEN,2025-07-30T18:00:00,2025-07-31T02:00:00,short,117657.5,118057.5,100,0.1,11765.75,100.0,-40,-44.11,-3705.24,-0.04,0,0.0,400,0.34,890.13,74770.92,0.89,1176.58,0.1,4,2.0,0.01,0,0.0,4.11,118057.5
18,BUY_A,ST_FLIP_RED,2025-07-31T02:00:00,2025-07-31T18:00:00,long,118257.5,117457.5,100,0.1,11825.75,100.0,-80,-84.11,-7065.24,-0.08,0,0.0,800,0.68,806.02,67705.68,0.81,1182.58,0.1,4,2.0,0.01,0,0.0,4.11,117857.5
19,SELL_A,ST_FLIP_GREEN,2025-08-01T12:00:00,2025-08-01T14:00:00,short,114657.5,115457.5,100,0.1,11465.75,100.0,-80,-84.11,-7065.24,-0.08,0,0.0,800,0.7,721.91,60640.44,0.72,1146.58,0.1,4,2.0,0.01,0,0.0,4.11,115057.5
20,SELL_B,ST_FLIP_GREEN,2025-08-02T08:00:00,2025-08-03T02:00:00,short,113657.5,113257.5,100,0.1,11365.75,100.0,40,35.89,3014.76,0.04,400,0.35,0,0.0,757.8,63655.2,0.76,1136.58,0.1,4,2.0,0.01,0,0.0,4.11,114057.5
21,SELL_A,ST_FLIP_GREEN,2025-08-05T14:00:00,2025-08-05T22:00:00,short,114257.5,113857.5,100,0.1,11425.75,100.0,40,35.89,3014.76,0.04,400,0.35,0,0.0,793.69,66669.96,0.79,1142.58,0.1,4,2.0,0.01,0,0.0,4.11,114657.5
22,BUY_A,ST_FLIP_RED,2025-08-05T22:00:00,2025-08-08T14:00:00,long,114057.5,116257.5,100,0.1,11405.75,100.0,220,215.89,18134.76,0.22,2200,1.93,0,0.0,1009.58,84804.72,1.01,1140.58,0.1,4,2.0,0.01,0,0.0,4.11,113657.5
23,SELL_A,ST_FLIP_GREEN,2025-08-08T18:00:00,2025-08-09T08:00:00,short,116457.5,117257.5,100,0.1,11645.75,100.0,-80,-84.11,-7065.24,-0.08,0,0.0,800,0.69,925.47,77739.48,0.93,1164.58,0.1,4,2.0,0.01,0,0.0,4.11,116857.5
24,BUY_A,ST_FLIP_RED,2025-08-09T08:00:00,2025-08-09T22:00:00,long,117457.5,116457.5,100,0.1,11745.75,100.0,-100,-104.11,-8745.24,-0.1,0,0.0,1000,0.85,821.36,68994.24,0.82,1174.58,0.1,4,2.0,0.01,0,0.0,4.11,117057.5
25,BUY_A,ST_FLIP_RED,2025-08-11T00:00:00,2025-08-11T10:00:00,long,119457.5,120857.5,100,0.1,11945.75,100.0,140,135.89,11414.76,0.14,1400,1.17,0,0.0,957.25,80409.0,0.96,1194.58,0.1,4,2.0,0.01,0,0.0,4.11,119057.5
26,SELL_A,ST_FLIP_GREEN,2025-08-11T12:00:00,2025-08-12T14:00:00,short,120457.5,119457.5,100,0.1,12045.75,100.0,100,95.89,8054.76,0.1,1000,0.83,0,0.0,1053.14,88463.76,1.05,1204.58,0.1,4,2.0,0.01,0,0.0,4.11,120857.5
27,BUY_B,ST_FLIP_RED,2025-08-13T06:00:00,2025-08-14T04:00:00,long,119457.5,122257.5,100,0.1,11945.75,100.0,280,275.89,23174.76,0.28,2800,2.34,0,0.0,1329.03,111638.52,1.33,1194.58,0.1,4,2.0,0.01,0,0.0,4.11,119057.5
28,SELL_B,ST_FLIP_GREEN,2025-08-16T20:00:00,2025-08-17T04:00:00,short,117457.5,118057.5,100,0.1,11745.75,100.0,-60,-64.11,-5385.24,-0.06,0,0.0,600,0.51,1264.92,106253.28,1.26,1174.58,0.1,4,2.0,0.01,0,0.0,4.11,117857.5
29,BUY_A,ST_FLIP_RED,2025-08-17T04:00:00,2025-08-18T00:00:00,long,118057.5,117057.5,100,0.1,11805.75,100.0,-100,-104.11,-8745.24,-0.1,0,0.0,1000,0.85,1160.81,97508.04,1.16,1180.58,0.1,4,2.0,0.01,0,0.0,4.11,117657.5
30,SELL_A,ST_FLIP_GREEN,2025-08-18T00:00:00,2025-08-18T14:00:00,short,117057.5,115857.5,100,0.1,11705.75,100.0,120,115.89,9734.76,0.12,1200,1.03,0,0.0,1276.7,107242.8,1.28,1170.58,0.1,4,2.0,0.01,0,0.0,4.11,117457.5
31,SELL_A,ST_FLIP_GREEN,2025-08-19T14:00:00,2025-08-20T16:00:00,short,114657.5,113657.5,100,0.1,11465.75,100.0,100,95.89,8054.76,0.1,1000,0.87,0,0.0,1372.59,115297.56,1.37,1146.58,0.1,4,2.0,0.01,0,0.0,4.11,115057.5
32,SELL_A,ST_FLIP_GREEN,2025-08-24T02:00:00,2025-08-24T22:00:00,short,115057.5,113657.5,100,0.1,11505.75,100.0,140,135.89,11414.76,0.14,1400,1.22,0,0.0,1508.48,126712.32,1.51,1150.58,0.1,4,2.0,0.01,0,0.0,4.11,115457.5
33,BUY_A,ST_FLIP_RED,2025-08-25T14:00:00,2025-08-25T18:00:00,long,112257.5,111257.5,100,0.1,11225.75,100.0,-100,-104.11,-8745.24,-0.1,0,0.0,1000,0.89,1404.37,117967.08,1.4,1122.58,0.1,4,2.0,0.01,0,0.0,4.11,111857.5
34,SELL_A,ST_FLIP_GREEN,2025-08-26T14:00:00,2025-08-26T18:00:00,short,109657.5,110657.5,100,0.1,10965.75,100.0,-100,-104.11,-8745.24,-0.1,0,0.0,1000,0.91,1300.26,109221.84,1.3,1096.58,0.1,4,2.0,0.01,0,0.0,4.11,110057.5
35,BUY_A,ST_FLIP_RED,2025-08-26T18:00:00,2025-08-27T06:00:00,long,110857.5,110657.5,100,0.1,11085.75,100.0,-20,-24.11,-2025.24,-0.02,0,0.0,200,0.18,1276.15,107196.6,1.28,1108.58,0.1,4,2.0,0.01,0,0.0,4.11,110457.5
36,BUY_A,ST_FLIP_RED,2025-08-27T14:00:00,2025-08-27T22:00:00,long,111657.5,111257.5,100,0.1,11165.75,100.0,-40,-44.11,-3705.24,-0.04,0,0.0,400,0.36,1232.04,103491.36,1.23,1116.58,0.1,4,2.0,0.01,0,0.0,4.11,111257.5
37,SELL_A,ST_FLIP_GREEN,2025-08-27T22:00:00,2025-08-28T04:00:00,short,111257.5,112457.5,100,0.1,11125.75,100.0,-120,-124.11,-10425.24,-0.12,0,0.0,1200,1.08,1107.93,93066.12,1.11,1112.58,0.1,4,2.0,0.01,0,0.0,4.11,111657.5
38,BUY_A,ST_FLIP_RED,2025-08-28T06:00:00,2025-08-28T18:00:00,long,113057.5,112057.5,100,0.1,11305.75,100.0,-100,-104.11,-8745.24,-0.1,0,0.0,1000,0.88,1003.82,84320.88,1.0,1130.58,0.1,4,2.0,0.01,0,0.0,4.11,112657.5
39,SELL_A,ST_FLIP_GREEN,2025-08-29T00:00:00,2025-08-30T02:00:00,short,112057.5,108457.5,100,0.1,11205.75,100.0,360,355.89,29894.76,0.36,3600,3.21,0,0.0,1359.71,114215.64,1.36,1120.58,0.1,4,2.0,0.01,0,0.0,4.11,112457.5
40,BUY_A,ST_FLIP_RED,2025-08-31T00:00:00,2025-08-31T22:00:00,long,109257.5,108257.5,100,0.1,10925.75,100.0,-100,-104.11,-8745.24,-0.1,0,0.0,1000,0.92,1255.6,105470.4,1.26,1092.58,0.1,4,2.0,0.01,0,0.0,4.11,108857.5
41,BUY_A,ST_FLIP_RED,2025-09-01T06:00:00,2025-09-01T20:00:00,long,108857.5,108457.5,100,0.1,10885.75,100.0,-40,-44.11,-3705.24,-0.04,0,0.0,400,0.37,1211.49,101765.16,1.21,1088.58,0.1,4,2.0,0.01,0,0.0,4.11,108457.5
42,BUY_A,ST_FLIP_RED,2025-09-01T22:00:00,2025-09-04T04:00:00,long,108857.5,111057.5,100,0.1,10885.75,100.0,220,215.89,18134.76,0.22,2200,2.02,0,0.0,1427.38,119899.92,1.43,1088.58,0.1,4,2.0,0.01,0,0.0,4.11,108457.5
43,SELL_A,ST_FLIP_GREEN,2025-09-04T06:00:00,2025-09-04T22:00:00,short,110457.5,110657.5,100,0.1,11045.75,100.0,-20,-24.11,-2025.24,-0.02,0,0.0,200,0.18,1403.27,117874.68,1.4,1104.58,0.1,4,2.0,0.01,0,0.0,4.11,110857.5
44,BUY_A,ST_FLIP_RED,2025-09-05T12:00:00,2025-09-05T14:00:00,long,113057.5,111857.5,100,0.1,11305.75,100.0,-120,-124.11,-10425.24,-0.12,0,0.0,1200,1.06,1279.16,107449.44,1.28,1130.58,0.1,4,2.0,0.01,0,0.0,4.11,112657.5
45,SELL_A,ST_FLIP_GREEN,2025-09-06T14:00:00,2025-09-07T10:00:00,short,110257.5,111257.5,100,0.1,11025.75,100.0,-100,-104.11,-8745.24,-0.1,0,0.0,1000,0.91,1175.05,98704.2,1.18,1102.58,0.1,4,2.0,0.01,0,0.0,4.11,110657.5
46,BUY_A,ST_FLIP_RED,2025-09-08T08:00:00,2025-09-09T00:00:00,long,111457.5,111457.5,100,0.1,11145.75,100.0,0,-4.11,-345.24,-0.0,0,0.0,0,0.0,1170.94,98358.96,1.17,1114.58,0.1,4,2.0,0.01,0,0.0,4.11,111057.5
47,BUY_A,ST_FLIP_RED,2025-09-09T06:00:00,2025-09-09T14:00:00,long,112657.5,111857.5,100,0.1,11265.75,100.0,-80,-84.11,-7065.24,-0.08,0,0.0,800,0.71,1086.83,91293.72,1.09,1126.58,0.1,4,2.0,0.01,0,0.0,4.11,112257.5
48,SELL_A,ST_FLIP_GREEN,2025-09-14T22:00:00,2025-09-15T04:00:00,short,115257.5,116257.5,100,0.1,11525.75,100.0,-100,-104.11,-8745.24,-0.1,0,0.0,1000,0.87,982.72,82548.48,0.98,1152.58,0.1,4,2.0,0.01,0,0.0,4.11,115657.5
49,BUY_A,ST_FLIP_RED,2025-09-16T18:00:00,2025-09-17T14:00:00,long,116457.5,116057.5,100,0.1,11645.75,100.0,-40,-44.11,-3705.24,-0.04,0,0.0,400,0.34,938.61,78843.24,0.94,1164.58,0.1,4,2.0,0.01,0,0.0,4.11,116057.5
50,SELL_A,ST_FLIP_GREEN,2025-09-17T14:00:00,2025-09-18T00:00:00,short,115857.5,116457.5,100,0.1,11585.75,100.0,-60,-64.11,-5385.24,-0.06,0,0.0,600,0.52,874.5,73458.0,0.87,1158.58,0.1,4,2.0,0.01,0,0.0,4.11,116257.5
51,SELL_A,ST_FLIP_GREEN,2025-09-22T00:00:00,2025-09-24T04:00:00,short,115057.5,112657.5,100,0.1,11505.75,100.0,240,235.89,19814.76,0.24,2400,2.09,0,0.0,1110.39,93272.76,1.11,1150.58,0.1,4,2.0,0.01,0,0.0,4.11,115457.5
52,SELL_A,ST_FLIP_GREEN,2025-09-25T16:00:00,2025-09-26T00:00:00,short,110857.5,109657.5,100,0.1,11085.75,100.0,120,115.89,9734.76,0.12,1200,1.08,0,0.0,1226.28,103007.52,1.23,1108.58,0.1,4,2.0,0.01,0,0.0,4.11,111257.5
53,BUY_A,ST_FLIP_RED,2025-09-26T16:00:00,2025-09-30T08:00:00,long,109857.5,113457.5,100,0.1,10985.75,100.0,360,355.89,29894.76,0.36,3600,3.28,0,0.0,1582.17,132902.28,1.58,1098.58,0.1,4,2.0,0.01,0,0.0,4.11,109457.5
54,BUY_A,ST_FLIP_RED,2025-10-01T22:00:00,2025-10-03T00:00:00,long,118257.5,119657.5,100,0.1,11825.75,100.0,140,135.89,11414.76,0.14,1400,1.18,0,0.0,1718.06,144317.04,1.72,1182.58,0.1,4,2.0,0.01,0,0.0,4.11,117857.5
55,BUY_B,ST_FLIP_RED,2025-10-04T20:00:00,2025-10-05T08:00:00,long,122057.5,124057.5,100,0.1,12205.75,100.0,200,195.89,16454.76,0.2,2000,1.64,0,0.0,1913.95,160771.8,1.91,1220.58,0.1,4,2.0,0.01,0,0.0,4.11,121657.5
56,SELL_A,ST_FLIP_GREEN,2025-10-05T14:00:00,2025-10-06T00:00:00,short,122857.5,123857.5,100,0.1,12285.75,100.0,-100,-104.11,-8745.24,-0.1,0,0.0,1000,0.81,1809.84,152026.56,1.81,1228.58,0.1,4,2.0,0.01,0,0.0,4.11,123257.5
57,BUY_A,ST_FLIP_RED,2025-10-06T12:00:00,2025-10-07T06:00:00,long,124257.5,124257.5,100,0.1,12425.75,100.0,0,-4.11,-345.24,-0.0,0,0.0,0,0.0,1805.73,151681.32,1.81,1242.58,0.1,4,2.0,0.01,0,0.0,4.11,123857.5
58,SELL_A,ST_FLIP_GREEN,2025-10-07T06:00:00,2025-10-08T08:00:00,short,124257.5,122257.5,100,0.1,12425.75,100.0,200,195.89,16454.76,0.2,2000,1.61,0,0.0,2001.62,168136.08,2.0,1242.58,0.1,4,2.0,0.01,0,0.0,4.11,124657.5
59,BUY_A,ST_FLIP_RED,2025-10-08T08:00:00,2025-10-09T00:00:00,long,122257.5,123057.5,100,0.1,12225.75,100.0,80,75.89,6374.76,0.08,800,0.65,0,0.0,2077.51,174510.84,2.08,1222.58,0.1,4,2.0,0.01,0,0.0,4.11,121857.5
60,SELL_A,ST_FLIP_GREEN,2025-10-09T00:00:00,2025-10-09T10:00:00,short,123057.5,122857.5,100,0.1,12305.75,100.0,20,15.89,1334.76,0.02,200,0.16,0,0.0,2093.4,175845.6,2.09,1230.58,0.1,4,2.0,0.01,0,0.0,4.11,123457.5
61,SELL_A,ST_FLIP_GREEN,2025-10-09T14:00:00,2025-10-11T02:00:00,short,121657.5,112257.5,100,0.1,12165.75,100.0,940,935.89,78614.76,0.94,9400,7.73,0,0.0,3029.29,254460.36,3.03,1216.58,0.1,4,2.0,0.01,0,0.0,4.11,122057.5
62,BUY_A,ST_FLIP_RED,2025-10-12T14:00:00,2025-10-13T10:00:00,long,111657.5,114457.5,100,0.1,11165.75,100.0,280,275.89,23174.76,0.28,2800,2.51,0,0.0,3305.18,277635.12,3.31,1116.58,0.1,4,2.0,0.01,0,0.0,4.11,111257.5
63,BUY_A,ST_FLIP_RED,2025-10-13T18:00:00,2025-10-14T00:00:00,long,115657.5,114657.5,100,0.1,11565.75,100.0,-100,-104.11,-8745.24,-0.1,0,0.0,1000,0.86,3201.07,268889.88,3.2,1156.58,0.1,4,2.0,0.01,0,0.0,4.11,115257.5
64,SELL_A,ST_FLIP_GREEN,2025-10-14T00:00:00,2025-10-14T14:00:00,short,114257.5,112057.5,100,0.1,11425.75,100.0,220,215.89,18134.76,0.22,2200,1.93,0,0.0,3416.96,287024.64,3.42,1142.58,0.1,4,2.0,0.01,0,0.0,4.11,114657.5
65,SELL_A,ST_FLIP_GREEN,2025-10-15T10:00:00,2025-10-17T10:00:00,short,111857.5,105657.5,100,0.1,11185.75,100.0,620,615.89,51734.76,0.62,6200,5.54,0,0.0,4032.85,338759.4,4.03,1118.58,0.1,4,2.0,0.01,0,0.0,4.11,112257.5
66,BUY_A,ST_FLIP_RED,2025-10-17T14:00:00,2025-10-20T00:00:00,long,105857.5,108057.5,100,0.1,10585.75,100.0,220,215.89,18134.76,0.22,2200,2.08,0,0.0,4248.74,356894.16,4.25,1058.58,0.1,4,2.0,0.01,0,0.0,4.11,105457.5
67,SELL_A,ST_FLIP_GREEN,2025-10-21T00:00:00,2025-10-21T10:00:00,short,110457.5,108657.5,100,0.1,11045.75,100.0,180,175.89,14774.76,0.18,1800,1.63,0,0.0,4424.63,371668.92,4.42,1104.58,0.1,4,2.0,0.01,0,0.0,4.11,110857.5
68,BUY_A,ST_FLIP_RED,2025-10-21T14:00:00,2025-10-21T16:00:00,long,110257.5,112257.5,100,0.1,11025.75,100.0,200,195.89,16454.76,0.2,2000,1.81,0,0.0,4620.52,388123.68,4.62,1102.58,0.1,4,2.0,0.01,0,0.0,4.11,109857.5
69,SELL_A,ST_FLIP_GREEN,2025-10-22T20:00:00,2025-10-23T00:00:00,short,107457.5,108257.5,100,0.1,10745.75,100.0,-80,-84.11,-7065.24,-0.08,0,0.0,800,0.74,4536.41,381058.44,4.54,1074.58,0.1,4,2.0,0.01,0,0.0,4.11,107857.5
70,BUY_A,ST_FLIP_RED,2025-10-26T06:00:00,2025-10-27T20:00:00,long,111657.5,114657.5,100,0.1,11165.75,100.0,300,295.89,24854.76,0.3,3000,2.69,0,0.0,4832.3,405913.2,4.83,1116.58,0.1,4,2.0,0.01,0,0.0,4.11,111257.5
71,BUY_A,ST_FLIP_RED,2025-10-28T16:00:00,2025-10-28T18:00:00,long,115457.5,114257.5,100,0.1,11545.75,100.0,-120,-124.11,-10425.24,-0.12,0,0.0,1200,1.04,4708.19,395487.96,4.71,1154.58,0.1,4,2.0,0.01,0,0.0,4.11,115057.5
72,BUY_A,ST_FLIP_RED,2025-10-29T20:00:00,2025-10-29T22:00:00,long,111657.5,110657.5,100,0.1,11165.75,100.0,-100,-104.11,-8745.24,-0.1,0,0.0,1000,0.9,4604.08,386742.72,4.6,1116.58,0.1,4,2.0,0.01,0,0.0,4.11,111257.5
73,SELL_A,ST_FLIP_GREEN,2025-10-30T08:00:00,2025-10-30T20:00:00,short,110257.5,107657.5,100,0.1,11025.75,100.0,260,255.89,21494.76,0.26,2600,2.36,0,0.0,4859.97,408237.48,4.86,1102.58,0.1,4,2.0,0.01,0,0.0,4.11,110657.5
74,BUY_A,ST_FLIP_RED,2025-10-31T08:00:00,2025-11-03T00:00:00,long,109857.5,109857.5,100,0.1,10985.75,100.0,0,-4.11,-345.24,-0.0,0,0.0,0,0.0,4855.86,407892.24,4.86,1098.58,0.1,4,2.0,0.01,0,0.0,4.11,109457.5
75,BUY_A,ST_FLIP_RED,2025-11-04T22:00:00,2025-11-06T08:00:00,long,101457.5,102857.5,100,0.1,10145.75,100.0,140,135.89,11414.76,0.14,1400,1.38,0,0.0,4991.75,419307.0,4.99,1014.58,0.1,4,2.0,0.01,0,0.0,4.11,101057.5
76,SELL_A,ST_FLIP_GREEN,2025-11-06T14:00:00,2025-11-07T04:00:00,short,103057.5,102257.5,100,0.1,10305.75,100.0,80,75.89,6374.76,0.08,800,0.78,0,0.0,5067.64,425681.76,5.07,1030.58,0.1,4,2.0,0.01,0,0.0,4.11,103457.5
77,BUY_A,ST_FLIP_RED,2025-11-07T16:00:00,2025-11-08T02:00:00,long,101457.5,102657.5,100,0.1,10145.75,100.0,120,115.89,9734.76,0.12,1200,1.18,0,0.0,5183.53,435416.52,5.18,1014.58,0.1,4,2.0,0.01,0,0.0,4.11,101057.5
78,SELL_A,ST_FLIP_GREEN,2025-11-09T00:00:00,2025-11-09T12:00:00,short,101857.5,102857.5,100,0.1,10185.75,100.0,-100,-104.11,-8745.24,-0.1,0,0.0,1000,0.98,5079.42,426671.28,5.08,1018.58,0.1,4,2.0,0.01,0,0.0,4.11,102257.5
79,BUY_A,ST_FLIP_RED,2025-11-10T22:00:00,2025-11-11T04:00:00,long,106057.5,105057.5,100,0.1,10605.75,100.0,-100,-104.11,-8745.24,-0.1,0,0.0,1000,0.94,4975.31,417926.04,4.98,1060.58,0.1,4,2.0,0.01,0,0.0,4.11,105657.5
80,SELL_A,ST_FLIP_GREEN,2025-11-11T12:00:00,2025-11-12T08:00:00,short,104257.5,103657.5,100,0.1,10425.75,100.0,60,55.89,4694.76,0.06,600,0.58,0,0.0,5031.2,422620.8,5.03,1042.58,0.1,4,2.0,0.01,0,0.0,4.11,104657.5
81,BUY_A,ST_FLIP_RED,2025-11-12T08:00:00,2025-11-12T14:00:00,long,103857.5,103857.5,100,0.1,10385.75,100.0,0,-4.11,-345.24,-0.0,0,0.0,0,0.0,5027.09,422275.56,5.03,1038.58,0.1,4,2.0,0.01,0,0.0,4.11,103457.5
82,SELL_A,ST_FLIP_GREEN,2025-11-13T14:00:00,2025-11-13T22:00:00,short,101857.5,99657.5,100,0.1,10185.75,100.0,220,215.89,18134.76,0.22,2200,2.16,0,0.0,5242.98,440410.32,5.24,1018.58,0.1,4,2.0,0.01,0,0.0,4.11,102257.5
83,SELL_A,ST_FLIP_GREEN,2025-11-14T08:00:00,2025-11-14T14:00:00,short,96857.5,96257.5,100,0.1,9685.75,100.0,60,55.89,4694.76,0.06,600,0.62,0,0.0,5298.87,445105.08,5.3,968.58,0.1,4,2.0,0.01,0,0.0,4.11,97257.5
84,BUY_A,ST_FLIP_RED,2025-11-14T14:00:00,2025-11-14T16:00:00,long,96657.5,95857.5,100,0.1,9665.75,100.0,-80,-84.11,-7065.24,-0.08,0,0.0,800,0.83,5214.76,438039.84,5.21,966.58,0.1,4,2.0,0.01,0,0.0,4.11,96257.5
85,BUY_A,ST_FLIP_RED,2025-11-15T00:00:00,2025-11-15T20:00:00,long,95657.5,95257.5,100,0.1,9565.75,100.0,-40,-44.11,-3705.24,-0.04,0,0.0,400,0.42,5170.65,434334.6,5.17,956.58,0.1,4,2.0,0.01,0,0.0,4.11,95257.5
86,SELL_A,ST_FLIP_GREEN,2025-11-16T16:00:00,2025-11-17T00:00:00,short,94457.5,94657.5,100,0.1,9445.75,100.0,-20,-24.11,-2025.24,-0.02,0,0.0,200,0.21,5146.54,432309.36,5.15,944.58,0.1,4,2.0,0.01,0,0.0,4.11,94857.5
87,SELL_A,ST_FLIP_GREEN,2025-11-18T02:00:00,2025-11-18T08:00:00,short,91057.5,91257.5,100,0.1,9105.75,100.0,-20,-24.11,-2025.24,-0.02,0,0.0,200,0.22,5122.43,430284.12,5.12,910.58,0.1,4,2.0,0.01,0,0.0,4.11,91457.5
88,BUY_A,ST_FLIP_RED,2025-11-18T22:00:00,2025-11-19T02:00:00,long,93057.5,92057.5,100,0.1,9305.75,100.0,-100,-104.11,-8745.24,-0.1,0,0.0,1000,1.07,5018.32,421538.88,5.02,930.58,0.1,4,2.0,0.01,0,0.0,4.11,92657.5
89,BUY_A,ST_FLIP_RED,2025-11-19T20:00:00,2025-11-20T14:00:00,long,90657.5,91457.5,100,0.1,9065.75,100.0,80,75.89,6374.76,0.08,800,0.88,0,0.0,5094.21,427913.64,5.09,906.58,0.1,4,2.0,0.01,0,0.0,4.11,90257.5
90,BUY_A,ST_FLIP_RED,2025-11-21T20:00:00,2025-11-22T08:00:00,long,85257.5,84057.5,100,0.1,8525.75,100.0,-120,-124.11,-10425.24,-0.12,0,0.0,1200,1.41,4970.1,417488.4,4.97,852.58,0.1,4,2.0,0.01,0,0.0,4.11,84857.5
91,BUY_A,ST_FLIP_RED,2025-11-23T02:00:00,2025-11-23T22:00:00,long,86057.5,86857.5,100,0.1,8605.75,100.0,80,75.89,6374.76,0.08,800,0.93,0,0.0,5045.99,423863.16,5.05,860.58,0.1,4,2.0,0.01,0,0.0,4.11,85657.5
92,SELL_A,ST_FLIP_GREEN,2025-11-24T06:00:00,2025-11-24T16:00:00,short,86857.5,87057.5,100,0.1,8685.75,100.0,-20,-24.11,-2025.24,-0.02,0,0.0,200,0.23,5021.88,421837.92,5.02,868.58,0.1,4,2.0,0.01,0,0.0,4.11,87257.5
93,BUY_A,ST_FLIP_RED,2025-11-24T16:00:00,2025-11-25T06:00:00,long,87057.5,87657.5,100,0.1,8705.75,100.0,60,55.89,4694.76,0.06,600,0.69,0,0.0,5077.77,426532.68,5.08,870.58,0.1,4,2.0,0.01,0,0.0,4.11,86657.5
94,SELL_A,ST_FLIP_GREEN,2025-11-25T18:00:00,2025-11-26T00:00:00,short,87057.5,87857.5,100,0.1,8705.75,100.0,-80,-84.11,-7065.24,-0.08,0,0.0,800,0.92,4993.66,419467.44,4.99,870.58,0.1,4,2.0,0.01,0,0.0,4.11,87457.5
95,BUY_A,ST_FLIP_RED,2025-11-26T16:00:00,2025-11-28T16:00:00,long,88057.5,91057.5,100,0.1,8805.75,100.0,300,295.89,24854.76,0.3,3000,3.41,0,0.0,5289.55,444322.2,5.29,880.58,0.1,4,2.0,0.01,0,0.0,4.11,87657.5
96,SELL_A,ST_FLIP_GREEN,2025-11-28T16:00:00,2025-11-30T12:00:00,short,91057.5,91457.5,100,0.1,9105.75,100.0,-40,-44.11,-3705.24,-0.04,0,0.0,400,0.44,5245.44,440616.96,5.25,910.58,0.1,4,2.0,0.01,0,0.0,4.11,91457.5
97,SELL_A,ST_FLIP_GREEN,2025-12-01T00:00:00,2025-12-01T20:00:00,short,90257.5,85857.5,100,0.1,9025.75,100.0,440,435.89,36614.76,0.44,4400,4.87,0,0.0,5681.33,477231.72,5.68,902.58,0.1,4,2.0,0.01,0,0.0,4.11,90657.5
98,BUY_A,ST_FLIP_RED,2025-12-03T04:00:00,2025-12-03T14:00:00,long,93257.5,92457.5,100,0.1,9325.75,100.0,-80,-84.11,-7065.24,-0.08,0,0.0,800,0.86,5597.22,470166.48,5.6,932.58,0.1,4,2.0,0.01,0,0.0,4.11,92857.5
99,SELL_A,ST_FLIP_GREEN,2025-12-07T12:00:00,2025-12-07T16:00:00,short,89057.5,90257.5,100,0.1,8905.75,100.0,-120,-124.11,-10425.24,-0.12,0,0.0,1200,1.35,5473.11,459741.24,5.47,890.58,0.1,4,2.0,0.01,0,0.0,4.11,89457.5
100,SELL_A,ST_FLIP_GREEN,2025-12-08T14:00:00,2025-12-08T20:00:00,short,90657.5,91057.5,100,0.1,9065.75,100.0,-40,-44.11,-3705.24,-0.04,0,0.0,400,0.44,5429.0,456036.0,5.43,906.58,0.1,4,2.0,0.01,0,0.0,4.11,91057.5
101,BUY_A,ST_FLIP_RED,2025-12-09T14:00:00,2025-12-09T20:00:00,long,91257.5,92857.5,100,0.1,9125.75,100.0,160,155.89,13094.76,0.16,1600,1.75,0,0.0,5584.89,469130.76,5.58,912.58,0.1,4,2.0,0.01,0,0.0,4.11,90857.5
102,SELL_A,ST_FLIP_GREEN,2025-12-10T10:00:00,2025-12-11T18:00:00,short,92657.5,90857.5,100,0.1,9265.75,100.0,180,175.89,14774.76,0.18,1800,1.94,0,0.0,5760.78,483905.52,5.76,926.58,0.1,4,2.0,0.01,0,0.0,4.11,93057.5
103,SELL_A,ST_FLIP_GREEN,2025-12-14T10:00:00,2025-12-15T00:00:00,short,89657.5,89257.5,100,0.1,8965.75,100.0,40,35.89,3014.76,0.04,400,0.45,0,0.0,5796.67,486920.28,5.8,896.58,0.1,4,2.0,0.01,0,0.0,4.11,90057.5
104,BUY_A,ST_FLIP_RED,2025-12-16T14:00:00,2025-12-16T16:00:00,long,88057.5,87057.5,100,0.1,8805.75,100.0,-100,-104.11,-8745.24,-0.1,0,0.0,1000,1.14,5692.56,478175.04,5.69,880.58,0.1,4,2.0,0.01,0,0.0,4.11,87657.5
105,SELL_A,ST_FLIP_GREEN,2025-12-17T02:00:00,2025-12-18T08:00:00,short,87057.5,87057.5,100,0.1,8705.75,100.0,0,-4.11,-345.24,-0.0,0,0.0,0,0.0,5688.45,477829.8,5.69,870.58,0.1,4,2.0,0.01,0,0.0,4.11,87457.5
106,BUY_A,ST_FLIP_RED,2025-12-18T12:00:00,2025-12-18T16:00:00,long,87257.5,87657.5,100,0.1,8725.75,100.0,40,35.89,3014.76,0.04,400,0.46,0,0.0,5724.34,480844.56,5.72,872.58,0.1,4,2.0,0.01,0,0.0,4.11,86857.5
107,SELL_A,ST_FLIP_GREEN,2025-12-18T18:00:00,2025-12-18T20:00:00,short,84657.5,85457.5,100,0.1,8465.75,100.0,-80,-84.11,-7065.24,-0.08,0,0.0,800,0.94,5640.23,473779.32,5.64,846.58,0.1,4,2.0,0.01,0,0.0,4.11,85057.5
108,BUY_A,ST_FLIP_RED,2025-12-19T22:00:00,2025-12-21T12:00:00,long,88057.5,87857.5,100,0.1,8805.75,100.0,-20,-24.11,-2025.24,-0.02,0,0.0,200,0.23,5616.12,471754.08,5.62,880.58,0.1,4,2.0,0.01,0,0.0,4.11,87657.5
109,BUY_A,ST_FLIP_RED,2025-12-22T10:00:00,2025-12-22T18:00:00,long,89857.5,88857.5,100,0.1,8985.75,100.0,-100,-104.11,-8745.24,-0.1,0,0.0,1000,1.11,5512.01,463008.84,5.51,898.58,0.1,4,2.0,0.01,0,0.0,4.11,89457.5
110,SELL_A,ST_FLIP_GREEN,2025-12-22T18:00:00,2025-12-25T14:00:00,short,88057.5,88057.5,100,0.1,8805.75,100.0,0,-4.11,-345.24,-0.0,0,0.0,0,0.0,5507.9,462663.6,5.51,880.58,0.1,4,2.0,0.01,0,0.0,4.11,88457.5
111,BUY_A,ST_FLIP_RED,2025-12-29T02:00:00,2025-12-29T08:00:00,long,89057.5,89057.5,100,0.1,8905.75,100.0,0,-4.11,-345.24,-0.0,0,0.0,0,0.0,5503.79,462318.36,5.5,890.58,0.1,4,2.0,0.01,0,0.0,4.11,88657.5
112,BUY_A,ST_FLIP_RED,2025-12-31T10:00:00,2025-12-31T14:00:00,long,88857.5,87857.5,100,0.1,8885.75,100.0,-100,-104.11,-8745.24,-0.1,0,0.0,1000,1.13,5399.68,453573.12,5.4,888.58,0.1,4,2.0,0.01,0,0.0,4.11,88457.5
113,BUY_A,ST_FLIP_RED,2026-01-02T16:00:00,2026-01-06T06:00:00,long,89857.5,93257.5,100,0.1,8985.75,100.0,340,335.89,28214.76,0.34,3400,3.78,0,0.0,5735.57,481787.88,5.74,898.58,0.1,4,2.0,0.01,0,0.0,4.11,89457.5
114,SELL_A,ST_FLIP_GREEN,2026-01-06T16:00:00,2026-01-06T20:00:00,short,93457.5,92457.5,100,0.1,9345.75,100.0,100,95.89,8054.76,0.1,1000,1.07,0,0.0,5831.46,489842.64,5.83,934.58,0.1,4,2.0,0.01,0,0.0,4.11,93857.5
115,BUY_A,ST_FLIP_RED,2026-01-06T20:00:00,2026-01-07T00:00:00,long,92857.5,92657.5,100,0.1,9285.75,100.0,-20,-24.11,-2025.24,-0.02,0,0.0,200,0.22,5807.35,487817.4,5.81,928.58,0.1,4,2.0,0.01,0,0.0,4.11,92457.5
116,SELL_A,ST_FLIP_GREEN,2026-01-07T08:00:00,2026-01-08T16:00:00,short,92257.5,91057.5,100,0.1,9225.75,100.0,120,115.89,9734.76,0.12,1200,1.3,0,0.0,5923.24,497552.16,5.92,922.58,0.1,4,2.0,0.01,0,0.0,4.11,92657.5
117,BUY_A,ST_FLIP_RED,2026-01-08T16:00:00,2026-01-09T18:00:00,long,91257.5,90257.5,100,0.1,9125.75,100.0,-100,-104.11,-8745.24,-0.1,0,0.0,1000,1.1,5819.13,488806.92,5.82,912.58,0.1,4,2.0,0.01,0,0.0,4.11,90857.5
118,BUY_A,ST_FLIP_RED,2026-01-12T02:00:00,2026-01-12T08:00:00,long,91457.5,91057.5,100,0.1,9145.75,100.0,-40,-44.11,-3705.24,-0.04,0,0.0,400,0.44,5775.02,485101.68,5.78,914.58,0.1,4,2.0,0.01,0,0.0,4.11,91057.5
119,BUY_A,ST_FLIP_RED,2026-01-13T04:00:00,2026-01-15T00:00:00,long,91657.5,96457.5,100,0.1,9165.75,100.0,480,475.89,39974.76,0.48,4800,5.24,0,0.0,6250.91,525076.44,6.25,916.58,0.1,4,2.0,0.01,0,0.0,4.11,91257.5
120,SELL_A,ST_FLIP_GREEN,2026-01-15T18:00:00,2026-01-16T20:00:00,short,96257.5,95657.5,100,0.1,9625.75,100.0,60,55.89,4694.76,0.06,600,0.62,0,0.0,6306.8,529771.2,6.31,962.58,0.1,4,2.0,0.01,0,0.0,4.11,96657.5
121,BUY_A,ST_FLIP_RED,2026-01-17T14:00:00,2026-01-18T22:00:00,long,95457.5,94657.5,100,0.1,9545.75,100.0,-80,-84.11,-7065.24,-0.08,0,0.0,800,0.84,6222.69,522705.96,6.22,954.58,0.1,4,2.0,0.01,0,0.0,4.11,95057.5
122,SELL_A,ST_FLIP_GREEN,2026-01-20T16:00:00,2026-01-21T04:00:00,short,90057.5,89457.5,100,0.1,9005.75,100.0,60,55.89,4694.76,0.06,600,0.67,0,0.0,6278.58,527400.72,6.28,900.58,0.1,4,2.0,0.01,0,0.0,4.11,90457.5
123,BUY_A,ST_FLIP_RED,2026-01-21T04:00:00,2026-01-21T10:00:00,long,89457.5,88857.5,100,0.1,8945.75,100.0,-60,-64.11,-5385.24,-0.06,0,0.0,600,0.67,6214.47,522015.48,6.21,894.58,0.1,4,2.0,0.01,0,0.0,4.11,89057.5
124,SELL_A,ST_FLIP_GREEN,2026-01-21T16:00:00,2026-01-21T18:00:00,short,88857.5,88857.5,100,0.1,8885.75,100.0,0,-4.11,-345.24,-0.0,0,0.0,0,0.0,6210.36,521670.24,6.21,888.58,0.1,4,2.0,0.01,0,0.0,4.11,89257.5
125,SELL_A,ST_FLIP_GREEN,2026-01-23T08:00:00,2026-01-23T16:00:00,short,88857.5,90057.5,100,0.1,8885.75,100.0,-120,-124.11,-10425.24,-0.12,0,0.0,1200,1.35,6086.25,511245.0,6.09,888.58,0.1,4,2.0,0.01,0,0.0,4.11,89257.5
126,BUY_A,ST_FLIP_RED,2026-01-23T16:00:00,2026-01-23T20:00:00,long,90457.5,89457.5,100,0.1,9045.75,100.0,-100,-104.11,-8745.24,-0.1,0,0.0,1000,1.11,5982.14,502499.76,5.98,904.58,0.1,4,2.0,0.01,0,0.0,4.11,90057.5
127,SELL_A,ST_FLIP_GREEN,2026-01-25T14:00:00,2026-01-26T00:00:00,short,88257.5,87657.5,100,0.1,8825.75,100.0,60,55.89,4694.76,0.06,600,0.68,0,0.0,6038.03,507194.52,6.04,882.58,0.1,4,2.0,0.01,0,0.0,4.11,88657.5
128,BUY_A,ST_FLIP_RED,2026-01-26T04:00:00,2026-01-27T16:00:00,long,87657.5,87657.5,100,0.1,8765.75,100.0,0,-4.11,-345.24,-0.0,0,0.0,0,0.0,6033.92,506849.28,6.03,876.58,0.1,4,2.0,0.01,0,0.0,4.11,87257.5
129,BUY_A,ST_FLIP_RED,2026-01-28T10:00:00,2026-01-29T00:00:00,long,89857.5,89057.5,100,0.1,8985.75,100.0,-80,-84.11,-7065.24,-0.08,0,0.0,800,0.89,5949.81,499784.04,5.95,898.58,0.1,4,2.0,0.01,0,0.0,4.11,89457.5
130,BUY_A,ST_FLIP_RED,2026-01-30T18:00:00,2026-01-31T08:00:00,long,83457.5,83257.5,100,0.1,8345.75,100.0,-20,-24.11,-2025.24,-0.02,0,0.0,200,0.24,5925.7,497758.8,5.93,834.58,0.1,4,2.0,0.01,0,0.0,4.11,83057.5
131,SELL_A,ST_FLIP_GREEN,2026-01-31T08:00:00,2026-02-01T08:00:00,short,83257.5,78857.5,100,0.1,8325.75,100.0,440,435.89,36614.76,0.44,4400,5.28,0,0.0,6361.59,534373.56,6.36,832.58,0.1,4,2.0,0.01,0,0.0,4.11,83657.5
132,BUY_A,ST_FLIP_RED,2026-02-02T06:00:00,2026-02-03T16:00:00,long,76657.5,77857.5,100,0.1,7665.75,100.0,120,115.89,9734.76,0.12,1200,1.57,0,0.0,6477.48,544108.32,6.48,766.58,0.1,4,2.0,0.01,0,0.0,4.11,76257.5
133,SELL_A,ST_FLIP_GREEN,2026-02-03T16:00:00,2026-02-03T20:00:00,short,77657.5,76057.5,100,0.1,7765.75,100.0,160,155.89,13094.76,0.16,1600,2.06,0,0.0,6633.37,557203.08,6.63,776.58,0.1,4,2.0,0.01,0,0.0,4.11,78057.5
134,BUY_A,ST_FLIP_RED,2026-02-04T00:00:00,2026-02-04T12:00:00,long,76057.5,75457.5,100,0.1,7605.75,100.0,-60,-64.11,-5385.24,-0.06,0,0.0,600,0.79,6569.26,551817.84,6.57,760.58,0.1,4,2.0,0.01,0,0.0,4.11,75657.5
135,SELL_A,ST_FLIP_GREEN,2026-02-05T00:00:00,2026-02-06T00:00:00,short,72457.5,64057.5,100,0.1,7245.75,100.0,840,835.89,70214.76,0.84,8400,11.59,0,0.0,7405.15,622032.6,7.41,724.58,0.1,4,2.0,0.01,0,0.0,4.11,72857.5
136,SELL_A,ST_FLIP_GREEN,2026-02-06T06:00:00,2026-02-06T08:00:00,short,64857.5,65657.5,100,0.1,6485.75,100.0,-80,-84.11,-7065.24,-0.08,0,0.0,800,1.23,7321.04,614967.36,7.32,648.58,0.1,4,2.0,0.01,0,0.0,4.11,65257.5
137,BUY_A,ST_FLIP_RED,2026-02-06T12:00:00,2026-02-07T06:00:00,long,67257.5,69857.5,100,0.1,6725.75,100.0,260,255.89,21494.76,0.26,2600,3.87,0,0.0,7576.93,636462.12,7.58,672.58,0.1,4,2.0,0.01,0,0.0,4.11,66857.5
138,SELL_A,ST_FLIP_GREEN,2026-02-09T08:00:00,2026-02-09T14:00:00,short,70057.5,69657.5,100,0.1,7005.75,100.0,40,35.89,3014.76,0.04,400,0.57,0,0.0,7612.82,639476.88,7.61,700.58,0.1,4,2.0,0.01,0,0.0,4.11,70457.5
139,SELL_A,ST_FLIP_GREEN,2026-02-11T02:00:00,2026-02-11T18:00:00,short,68457.5,67657.5,100,0.1,6845.75,100.0,80,75.89,6374.76,0.08,800,1.17,0,0.0,7688.71,645851.64,7.69,684.58,0.1,4,2.0,0.01,0,0.0,4.11,68857.5
140,BUY_A,ST_FLIP_RED,2026-02-12T00:00:00,2026-02-12T14:00:00,long,67857.5,67057.5,100,0.1,6785.75,100.0,-80,-84.11,-7065.24,-0.08,0,0.0,800,1.18,7604.6,638786.4,7.6,678.58,0.1,4,2.0,0.01,0,0.0,4.11,67457.5
141,SELL_A,ST_FLIP_GREEN,2026-02-12T16:00:00,2026-02-13T02:00:00,short,66857.5,66457.5,100,0.1,6685.75,100.0,40,35.89,3014.76,0.04,400,0.6,0,0.0,7640.49,641801.16,7.64,668.58,0.1,4,2.0,0.01,0,0.0,4.11,67257.5
142,BUY_A,ST_FLIP_RED,2026-02-14T10:00:00,2026-02-14T12:00:00,long,70057.5,69457.5,100,0.1,7005.75,100.0,-60,-64.11,-5385.24,-0.06,0,0.0,600,0.86,7576.38,636415.92,7.58,700.58,0.1,4,2.0,0.01,0,0.0,4.11,69657.5
143,SELL_A,ST_FLIP_GREEN,2026-02-16T14:00:00,2026-02-16T20:00:00,short,68057.5,68657.5,100,0.1,6805.75,100.0,-60,-64.11,-5385.24,-0.06,0,0.0,600,0.88,7512.27,631030.68,7.51,680.58,0.1,4,2.0,0.01,0,0.0,4.11,68457.5
144,SELL_A,ST_FLIP_GREEN,2026-02-18T00:00:00,2026-02-20T02:00:00,short,67057.5,67257.5,100,0.1,6705.75,100.0,-20,-24.11,-2025.24,-0.02,0,0.0,200,0.3,7488.16,629005.44,7.49,670.58,0.1,4,2.0,0.01,0,0.0,4.11,67457.5
145,SELL_A,ST_FLIP_GREEN,2026-02-22T16:00:00,2026-02-23T06:00:00,short,67457.5,65457.5,100,0.1,6745.75,100.0,200,195.89,16454.76,0.2,2000,2.96,0,0.0,7684.05,645460.2,7.68,674.58,0.1,4,2.0,0.01,0,0.0,4.11,67857.5
146,BUY_A,ST_FLIP_RED,2026-02-25T00:00:00,2026-02-25T04:00:00,long,64657.5,64857.5,100,0.1,6465.75,100.0,20,15.89,1334.76,0.02,200,0.31,0,0.0,7699.94,646794.96,7.7,646.58,0.1,4,2.0,0.01,0,0.0,4.11,64257.5
147,BUY_A,ST_FLIP_RED,2026-02-25T12:00:00,2026-02-25T22:00:00,long,65857.5,67857.5,100,0.1,6585.75,100.0,200,195.89,16454.76,0.2,2000,3.04,0,0.0,7895.83,663249.72,7.9,658.58,0.1,4,2.0,0.01,0,0.0,4.11,65457.5
148,SELL_A,ST_FLIP_GREEN,2026-02-26T06:00:00,2026-02-28T12:00:00,short,68057.5,64657.5,100,0.1,6805.75,100.0,340,335.89,28214.76,0.34,3400,5.0,0,0.0,8231.72,691464.48,8.23,680.58,0.1,4,2.0,0.01,0,0.0,4.11,68457.5
149,BUY_A,ST_FLIP_RED,2026-02-28T16:00:00,2026-03-01T08:00:00,long,65057.5,66457.5,100,0.1,6505.75,100.0,140,135.89,11414.76,0.14,1400,2.15,0,0.0,8367.61,702879.24,8.37,650.58,0.1,4,2.0,0.01,0,0.0,4.11,64657.5
150,SELL_A,ST_FLIP_GREEN,2026-03-01T08:00:00,2026-03-02T00:00:00,short,66457.5,66657.5,100,0.1,6645.75,100.0,-20,-24.11,-2025.24,-0.02,0,0.0,200,0.3,8343.5,700854.0,8.34,664.58,0.1,4,2.0,0.01,0,0.0,4.11,66857.5
151,BUY_A,ST_FLIP_RED,2026-03-02T00:00:00,2026-03-02T12:00:00,long,66657.5,65457.5,100,0.1,6665.75,100.0,-120,-124.11,-10425.24,-0.12,0,0.0,1200,1.8,8219.39,690428.76,8.22,666.58,0.1,4,2.0,0.01,0,0.0,4.11,66257.5
152,BUY_A,ST_FLIP_RED,2026-03-04T04:00:00,2026-03-04T22:00:00,long,68257.5,72457.5,100,0.1,6825.75,100.0,420,415.89,34934.76,0.42,4200,6.15,0,0.0,8635.28,725363.52,8.64,682.58,0.1,4,2.0,0.01,0,0.0,4.11,67857.5
153,SELL_A,ST_FLIP_GREEN,2026-03-05T12:00:00,2026-03-09T02:00:00,short,72457.5,67057.5,100,0.1,7245.75,100.0,540,535.89,45014.76,0.54,5400,7.45,0,0.0,9171.17,770378.28,9.17,724.58,0.1,4,2.0,0.01,0,0.0,4.11,72857.5
154,BUY_A,ST_FLIP_RED,2026-03-10T00:00:00,2026-03-10T12:00:00,long,69257.5,69857.5,100,0.1,6925.75,100.0,60,55.89,4694.76,0.06,600,0.87,0,0.0,9227.06,775073.04,9.23,692.58,0.1,4,2.0,0.01,0,0.0,4.11,68857.5
155,BUY_A,ST_FLIP_RED,2026-03-12T22:00:00,2026-03-13T14:00:00,long,70457.5,72257.5,100,0.1,7045.75,100.0,180,175.89,14774.76,0.18,1800,2.55,0,0.0,9402.95,789847.8,9.4,704.58,0.1,4,2.0,0.01,0,0.0,4.11,70057.5
156,BUY_A,ST_FLIP_RED,2026-03-16T22:00:00,2026-03-17T02:00:00,long,74657.5,74457.5,100,0.1,7465.75,100.0,-20,-24.11,-2025.24,-0.02,0,0.0,200,0.27,9378.84,787822.56,9.38,746.58,0.1,4,2.0,0.01,0,0.0,4.11,74257.5
157,BUY_A,ST_FLIP_RED,2026-03-18T02:00:00,2026-03-18T10:00:00,long,74457.5,73657.5,100,0.1,7445.75,100.0,-80,-84.11,-7065.24,-0.08,0,0.0,800,1.07,9294.73,780757.32,9.29,744.58,0.1,4,2.0,0.01,0,0.0,4.11,74057.5
158,SELL_A,ST_FLIP_GREEN,2026-03-21T22:00:00,2026-03-23T04:00:00,short,69657.5,69057.5,100,0.1,6965.75,100.0,60,55.89,4694.76,0.06,600,0.86,0,0.0,9350.62,785452.08,9.35,696.58,0.1,4,2.0,0.01,0,0.0,4.11,70057.5
159,BUY_A,ST_FLIP_RED,2026-03-23T10:00:00,2026-03-23T14:00:00,long,69257.5,70257.5,100,0.1,6925.75,100.0,100,95.89,8054.76,0.1,1000,1.44,0,0.0,9446.51,793506.84,9.45,692.58,0.1,4,2.0,0.01,0,0.0,4.11,68857.5
160,BUY_A,ST_FLIP_RED,2026-03-24T06:00:00,2026-03-24T12:00:00,long,71457.5,70257.5,100,0.1,7145.75,100.0,-120,-124.11,-10425.24,-0.12,0,0.0,1200,1.68,9322.4,783081.6,9.32,714.58,0.1,4,2.0,0.01,0,0.0,4.11,71057.5
161,SELL_A,ST_FLIP_GREEN,2026-03-24T12:00:00,2026-03-24T20:00:00,short,70257.5,70257.5,100,0.1,7025.75,100.0,0,-4.11,-345.24,-0.0,0,0.0,0,0.0,9318.29,782736.36,9.32,702.58,0.1,4,2.0,0.01,0,0.0,4.11,70657.5
162,BUY_A,ST_FLIP_RED,2026-03-29T02:00:00,2026-03-30T16:00:00,long,66657.5,66657.5,100,0.1,6665.75,100.0,0,-4.11,-345.24,-0.0,0,0.0,0,0.0,9314.18,782391.12,9.31,666.58,0.1,4,2.0,0.01,0,0.0,4.11,66257.5
163,SELL_A,ST_FLIP_GREEN,2026-03-31T08:00:00,2026-03-31T12:00:00,short,67057.5,67257.5,100,0.1,6705.75,100.0,-20,-24.11,-2025.24,-0.02,0,0.0,200,0.3,9290.07,780365.88,9.29,670.58,0.1,4,2.0,0.01,0,0.0,4.11,67457.5
164,BUY_A,ST_FLIP_RED,2026-03-31T16:00:00,2026-04-02T00:00:00,long,67257.5,67857.5,100,0.1,6725.75,100.0,60,55.89,4694.76,0.06,600,0.89,0,0.0,9345.96,785060.64,9.35,672.58,0.1,4,2.0,0.01,0,0.0,4.11,66857.5
165,BUY_A,ST_FLIP_RED,2026-04-05T14:00:00,2026-04-06T22:00:00,long,67057.5,68857.5,100,0.1,6705.75,100.0,180,175.89,14774.76,0.18,1800,2.68,0,0.0,9521.85,799835.4,9.52,670.58,0.1,4,2.0,0.01,0,0.0,4.11,66657.5
166,SELL_A,ST_FLIP_GREEN,2026-04-07T10:00:00,2026-04-07T20:00:00,short,68657.5,69457.5,100,0.1,6865.75,100.0,-80,-84.11,-7065.24,-0.08,0,0.0,800,1.17,9437.74,792770.16,9.44,686.58,0.1,4,2.0,0.01,0,0.0,4.11,69057.5
167,BUY_B,ST_FLIP_RED,2026-04-10T04:00:00,2026-04-12T00:00:00,long,72057.5,72257.5,100,0.1,7205.75,100.0,20,15.89,1334.76,0.02,200,0.28,0,0.0,9453.63,794104.92,9.45,720.58,0.1,4,2.0,0.01,0,0.0,4.11,71657.5
168,BUY_A,ST_FLIP_RED,2026-04-16T02:00:00,2026-04-16T12:00:00,long,75057.5,74057.5,100,0.1,7505.75,100.0,-100,-104.11,-8745.24,-0.1,0,0.0,1000,1.33,9349.52,785359.68,9.35,750.58,0.1,4,2.0,0.01,0,0.0,4.11,74657.5
169,BUY_A,ST_FLIP_RED,2026-04-17T12:00:00,2026-04-18T08:00:00,long,76457.5,76657.5,100,0.1,7645.75,100.0,20,15.89,1334.76,0.02,200,0.26,0,0.0,9365.41,786694.44,9.37,764.58,0.1,4,2.0,0.01,0,0.0,4.11,76057.5
170,SELL_A,ST_FLIP_GREEN,2026-04-18T18:00:00,2026-04-20T06:00:00,short,75657.5,74857.5,100,0.1,7565.75,100.0,80,75.89,6374.76,0.08,800,1.06,0,0.0,9441.3,793069.2,9.44,756.58,0.1,4,2.0,0.01,0,0.0,4.11,76057.5
171,SELL_A,ST_FLIP_GREEN,2026-04-23T16:00:00,2026-04-26T22:00:00,short,78057.5,78457.5,100,0.1,7805.75,100.0,-40,-44.11,-3705.24,-0.04,0,0.0,400,0.51,9397.19,789363.96,9.4,780.58,0.1,4,2.0,0.01,0,0.0,4.11,78457.5
172,BUY_A,ST_FLIP_RED,2026-04-26T22:00:00,2026-04-27T04:00:00,long,78457.5,78057.5,100,0.1,7845.75,100.0,-40,-44.11,-3705.24,-0.04,0,0.0,400,0.51,9353.08,785658.72,9.35,784.58,0.1,4,2.0,0.01,0,0.0,4.11,78057.5
173,SELL_A,ST_FLIP_GREEN,2026-04-28T08:00:00,2026-04-29T04:00:00,short,76657.5,77057.5,100,0.1,7665.75,100.0,-40,-44.11,-3705.24,-0.04,0,0.0,400,0.52,9308.97,781953.48,9.31,766.58,0.1,4,2.0,0.01,0,0.0,4.11,77057.5
174,SELL_A,ST_FLIP_GREEN,2026-04-30T04:00:00,2026-05-01T02:00:00,short,75457.5,76657.5,100,0.1,7545.75,100.0,-120,-124.11,-10425.24,-0.12,0,0.0,1200,1.59,9184.86,771528.24,9.18,754.58,0.1,4,2.0,0.01,0,0.0,4.11,75857.5
175,BUY_A,ST_FLIP_RED,2026-05-04T00:00:00,2026-05-04T10:00:00,long,79257.5,79257.5,100,0.1,7925.75,100.0,0,-4.11,-345.24,-0.0,0,0.0,0,0.0,9180.75,771183.0,9.18,792.58,0.1,4,2.0,0.01,0,0.0,4.11,78857.5
176,BUY_A,ST_FLIP_RED,2026-05-05T00:00:00,2026-05-06T12:00:00,long,80457.5,81457.5,100,0.1,8045.75,100.0,100,95.89,8054.76,0.1,1000,1.24,0,0.0,9276.64,779237.76,9.28,804.58,0.1,4,2.0,0.01,0,0.0,4.11,80057.5
177,SELL_A,ST_FLIP_GREEN,2026-05-07T12:00:00,2026-05-09T16:00:00,short,80657.5,80657.5,100,0.1,8065.75,100.0,0,-4.11,-345.24,-0.0,0,0.0,0,0.0,9272.53,778892.52,9.27,806.58,0.1,4,2.0,0.01,0,0.0,4.11,81057.5
178,BUY_A,ST_FLIP_RED,2026-05-10T22:00:00,2026-05-11T02:00:00,long,82057.5,81257.5,100,0.1,8205.75,100.0,-80,-84.11,-7065.24,-0.08,0,0.0,800,0.97,9188.42,771827.28,9.19,820.58,0.1,4,2.0,0.01,0,0.0,4.11,81657.5
179,SELL_A,ST_FLIP_GREEN,2026-05-13T12:00:00,2026-05-14T04:00:00,short,80057.5,79857.5,100,0.1,8005.75,100.0,20,15.89,1334.76,0.02,200,0.25,0,0.0,9204.31,773162.04,9.2,800.58,0.1,4,2.0,0.01,0,0.0,4.11,80457.5
180,BUY_A,ST_FLIP_RED,2026-05-14T14:00:00,2026-05-15T04:00:00,long,80257.5,80457.5,100,0.1,8025.75,100.0,20,15.89,1334.76,0.02,200,0.25,0,0.0,9220.2,774496.8,9.22,802.58,0.1,4,2.0,0.01,0,0.0,4.11,79857.5
181,SELL_A,ST_FLIP_GREEN,2026-05-15T12:00:00,2026-05-20T16:00:00,short,79457.5,77457.5,100,0.1,7945.75,100.0,200,195.89,16454.76,0.2,2000,2.52,0,0.0,9416.09,790951.56,9.42,794.58,0.1,4,2.0,0.01,0,0.0,4.11,79857.5
182,BUY_A,ST_FLIP_RED,2026-05-25T04:00:00,2026-05-26T14:00:00,long,77257.5,76457.5,100,0.1,7725.75,100.0,-80,-84.11,-7065.24,-0.08,0,0.0,800,1.04,9331.98,783886.32,9.33,772.58,0.1,4,2.0,0.01,0,0.0,4.11,76857.5
183,BUY_B,ST_FLIP_RED,2026-06-01T02:00:00,2026-06-01T06:00:00,long,73657.5,72857.5,100,0.1,7365.75,100.0,-80,-84.11,-7065.24,-0.08,0,0.0,800,1.09,9247.87,776821.08,9.25,736.58,0.1,4,2.0,0.01,0,0.0,4.11,73257.5
184,SELL_A,ST_FLIP_GREEN,2026-06-01T06:00:00,2026-06-03T04:00:00,short,72857.5,66857.5,100,0.1,7285.75,100.0,600,595.89,50054.76,0.6,6000,8.24,0,0.0,9843.76,826875.84,9.84,728.58,0.1,4,2.0,0.01,0,0.0,4.11,73257.5
185,BUY_A,ST_FLIP_RED,2026-06-04T02:00:00,2026-06-04T08:00:00,long,63457.5,63457.5,100,0.1,6345.75,100.0,0,-4.11,-345.24,-0.0,0,0.0,0,0.0,9839.65,826530.6,9.84,634.58,0.1,4,2.0,0.01,0,0.0,4.11,63057.5
186,BUY_A,ST_FLIP_RED,2026-06-04T12:00:00,2026-06-04T20:00:00,long,63657.5,63257.5,100,0.1,6365.75,100.0,-40,-44.11,-3705.24,-0.04,0,0.0,400,0.63,9795.54,822825.36,9.8,636.58,0.1,4,2.0,0.01,0,0.0,4.11,63257.5
187,SELL_A,ST_FLIP_GREEN,2026-06-05T00:00:00,2026-06-05T20:00:00,short,63457.5,61457.5,100,0.1,6345.75,100.0,200,195.89,16454.76,0.2,2000,3.15,0,0.0,9991.43,839280.12,9.99,634.58,0.1,4,2.0,0.01,0,0.0,4.11,63857.5
