anildalabanjan933/crypto_tradingsystem/output/trade_log_PnFBearishVariant4BV3_BTCUSD_20260612_041301.csv
trade_number,entry_type,exit_type,entry_datetime,exit_datetime,direction,entry_price,exit_price,size_qty,actual_quantity,size_value,lot_notional_usd,gross_pnl,net_pnl,net_pnl_inr,net_pnl_pct,favorable_excursion,favorable_excursion_pct,adverse_excursion,adverse_excursion_pct,cumulative_pnl,cumulative_pnl_inr,cumulative_pnl_pct,margin_required,taker_fees_usd,slippage_usd,funding_usd,insurance_usd,tax_usd,total_charges_usd,stop_loss
1,FIRST_ENTRY,DOUBLE_TOP,2025-06-17 16:00:00,2025-06-18 21:00:00,short,103585.5,105051.0,1,0,103.59,100.0,-1.47,-6.6,-554.55,-0.01,0.0,0.0,1465.5,1.41,-6.6,-554.55,-0.01,10.36,0.1,5,0.04,0,0.0,5.14,105535.24
2,RE_ENTRY,SL_HIT_SUPERTREND,2025-06-19 15:00:00,2025-06-20 07:00:00,short,104066.0,105777.5,1,0,104.07,100.0,-1.71,-6.83,-573.85,-0.01,0.0,0.0,1711.5,1.64,-13.43,-1128.39,-0.01,10.41,0.1,5,0.02,0,0.0,5.12,105427.91
3,RE_ENTRY,DOUBLE_TOP,2025-06-20 22:00:00,2025-06-22 00:00:00,short,103067.0,102806.0,1,0,103.07,100.0,0.26,-4.87,-409.21,-0.0,261.0,0.25,0.0,0.0,-18.3,-1537.6,-0.02,10.31,0.1,5,0.03,0,0.0,5.13,105076.28
4,RE_ENTRY,SL_HIT_SUPERTREND,2025-06-22 09:00:00,2025-06-23 05:00:00,short,102169.0,101799.0,1,0,102.17,100.0,0.37,-4.75,-399.42,-0.0,370.0,0.36,0.0,0.0,-23.06,-1937.02,-0.02,10.22,0.1,5,0.03,0,0.0,5.12,103740.75
5,RE_ENTRY,SL_HIT_SUPERTREND,2025-06-23 16:00:00,2025-06-23 17:00:00,short,100652.5,102672.0,1,0,100.65,100.0,-2.02,-7.12,-598.14,-0.01,0.0,0.0,2019.5,2.01,-30.18,-2535.16,-0.03,10.07,0.1,5,0.0,0,0.0,5.1,101737.79
6,RE_ENTRY,SL_HIT_SUPERTREND,2025-07-21 19:00:00,2025-07-21 19:00:00,short,116736.0,117498.0,1,0,116.74,100.0,-0.76,-5.86,-492.41,-0.01,0.0,0.0,762.0,0.65,-36.04,-3027.57,-0.04,11.67,0.1,5,0.0,0,0.0,5.1,101737.79
7,RE_ENTRY,SL_HIT_SUPERTREND,2025-07-29 15:00:00,2025-07-29 15:00:00,short,117358.0,117935.5,1,0,117.36,100.0,-0.58,-5.68,-476.91,-0.01,0.0,0.0,577.5,0.49,-41.72,-3504.48,-0.04,11.74,0.1,5,0.0,0,0.0,5.1,101737.79
8,RE_ENTRY,SL_HIT_SUPERTREND,2025-08-05 07:00:00,2025-08-05 07:00:00,short,113935.5,114371.5,1,0,113.94,100.0,-0.44,-5.54,-465.02,-0.01,0.0,0.0,436.0,0.38,-47.26,-3969.5,-0.05,11.39,0.1,5,0.0,0,0.0,5.1,101737.79
9,RE_ENTRY,SL_HIT_SUPERTREND,2025-08-21 19:00:00,2025-08-21 19:00:00,short,112170.0,112700.0,1,0,112.17,100.0,-0.53,-5.63,-472.92,-0.01,0.0,0.0,530.0,0.47,-52.89,-4442.42,-0.05,11.22,0.1,5,0.0,0,0.0,5.1,101737.79
10,RE_ENTRY,SL_HIT_SUPERTREND,2025-08-24 19:00:00,2025-08-24 19:00:00,short,112575.0,114792.5,1,0,112.58,100.0,-2.22,-7.32,-614.67,-0.01,0.0,0.0,2217.5,1.97,-60.2,-5057.09,-0.06,11.26,0.1,5,0.0,0,0.0,5.1,101737.79
11,RE_ENTRY,SL_HIT_SUPERTREND,2025-09-01 04:00:00,2025-09-01 04:00:00,short,107380.5,107732.5,1,0,107.38,100.0,-0.35,-5.45,-457.97,-0.01,0.0,0.0,352.0,0.33,-65.66,-5515.06,-0.07,10.74,0.1,5,0.0,0,0.0,5.1,101737.79
12,RE_ENTRY,SL_HIT_SUPERTREND,2025-09-01 21:00:00,2025-09-01 21:00:00,short,107756.0,108911.0,1,0,107.76,100.0,-1.16,-6.25,-525.42,-0.01,0.0,0.0,1155.0,1.07,-71.91,-6040.48,-0.07,10.78,0.1,5,0.0,0,0.0,5.1,101737.79
13,RE_ENTRY,SL_HIT_SUPERTREND,2025-10-11 01:00:00,2025-10-11 01:00:00,short,111072.0,112500.0,1,0,111.07,100.0,-1.43,-6.53,-548.35,-0.01,0.0,0.0,1428.0,1.29,-78.44,-6588.83,-0.08,11.11,0.1,5,0.0,0,0.0,5.1,101737.79
14,RE_ENTRY,SL_HIT_SUPERTREND,2025-10-11 07:00:00,2025-10-11 07:00:00,short,110350.5,112061.5,1,0,110.35,100.0,-1.71,-6.81,-572.12,-0.01,0.0,0.0,1711.0,1.55,-85.25,-7160.96,-0.09,11.04,0.1,5,0.0,0,0.0,5.1,101737.79
15,RE_ENTRY,SL_HIT_SUPERTREND,2025-10-13 11:00:00,2025-10-13 11:00:00,short,114139.0,114765.5,1,0,114.14,100.0,-0.63,-5.73,-481.03,-0.01,0.0,0.0,626.5,0.55,-90.98,-7641.98,-0.09,11.41,0.1,5,0.0,0,0.0,5.1,101737.79
16,RE_ENTRY,SL_HIT_SUPERTREND,2025-10-16 07:00:00,2025-10-16 07:00:00,short,110529.0,111723.0,1,0,110.53,100.0,-1.19,-6.29,-528.7,-0.01,0.0,0.0,1194.0,1.08,-97.27,-8170.68,-0.1,11.05,0.1,5,0.0,0,0.0,5.1,101737.79
17,RE_ENTRY,SL_HIT_SUPERTREND,2025-10-18 04:00:00,2025-10-18 04:00:00,short,106416.0,107036.0,1,0,106.42,100.0,-0.62,-5.72,-480.48,-0.01,0.0,0.0,620.0,0.58,-102.99,-8651.16,-0.1,10.64,0.1,5,0.0,0,0.0,5.1,101737.79
18,RE_ENTRY,SL_HIT_SUPERTREND,2025-10-19 08:00:00,2025-10-19 08:00:00,short,106411.5,107184.0,1,0,106.41,100.0,-0.77,-5.87,-493.29,-0.01,0.0,0.0,772.5,0.73,-108.86,-9144.45,-0.11,10.64,0.1,5,0.0,0,0.0,5.1,101737.79
19,RE_ENTRY,SL_HIT_SUPERTREND,2025-10-31 16:00:00,2025-10-31 16:00:00,short,108824.0,110285.0,1,0,108.82,100.0,-1.46,-6.56,-551.12,-0.01,0.0,0.0,1461.0,1.34,-115.42,-9695.57,-0.12,10.88,0.1,5,0.0,0,0.0,5.1,101737.79
20,RE_ENTRY,SL_HIT_SUPERTREND,2025-11-04 02:00:00,2025-11-04 02:00:00,short,106449.5,107203.5,1,0,106.45,100.0,-0.75,-5.85,-491.74,-0.01,0.0,0.0,754.0,0.71,-121.28,-10187.31,-0.12,10.64,0.1,5,0.0,0,0.0,5.1,101737.79
21,RE_ENTRY,SL_HIT_SUPERTREND,2025-11-04 21:00:00,2025-11-04 22:00:00,short,100284.0,101865.5,1,0,100.28,100.0,-1.58,-6.68,-561.35,-0.01,0.0,0.0,1581.5,1.58,-127.96,-10748.66,-0.13,10.03,0.1,5,0.0,0,0.0,5.1,101737.79
22,RE_ENTRY,SL_HIT_SUPERTREND,2025-11-06 12:00:00,2025-11-06 12:00:00,short,102517.0,103298.5,1,0,102.52,100.0,-0.78,-5.88,-494.05,-0.01,0.0,0.0,781.5,0.76,-133.84,-11242.71,-0.13,10.25,0.1,5,0.0,0,0.0,5.1,101737.79
23,RE_ENTRY,SL_HIT_SUPERTREND,2025-11-07 12:00:00,2025-11-07 17:00:00,short,99618.0,102698.5,1,0,99.62,100.0,-3.08,-8.19,-687.69,-0.01,0.0,0.0,3080.5,3.09,-142.03,-11930.39,-0.14,9.96,0.1,5,0.01,0,0.0,5.11,101737.79
24,RE_ENTRY,SL_HIT_SUPERTREND,2025-11-09 02:00:00,2025-11-09 02:00:00,short,101599.5,102006.0,1,0,101.6,100.0,-0.41,-5.51,-462.55,-0.01,0.0,0.0,406.5,0.4,-147.53,-12392.94,-0.15,10.16,0.1,5,0.0,0,0.0,5.1,101737.79
25,RE_ENTRY,DOUBLE_TOP,2025-11-13 20:00:00,2025-11-15 02:00:00,short,98136.0,96462.5,1,0,98.14,100.0,1.67,-3.46,-290.98,-0.0,1673.5,1.71,0.0,0.0,-151.0,-12683.92,-0.15,9.81,0.1,5,0.04,0,0.0,5.14,101737.79
26,RE_ENTRY,DOUBLE_TOP,2025-11-15 20:00:00,2025-11-16 09:00:00,short,95259.5,96608.0,1,0,95.26,100.0,-1.35,-6.46,-543.04,-0.01,0.0,0.0,1348.5,1.42,-157.46,-13226.95,-0.16,9.53,0.1,5,0.02,0,0.0,5.12,97150.21
27,RE_ENTRY,SL_HIT_SUPERTREND,2025-11-17 13:00:00,2025-11-18 15:00:00,short,93923.5,93000.0,1,0,93.92,100.0,0.92,-4.21,-353.56,-0.0,923.5,0.98,0.0,0.0,-161.67,-13580.51,-0.16,9.39,0.1,5,0.03,0,0.0,5.13,96241.76
28,RE_ENTRY,SL_HIT_SUPERTREND,2025-11-19 05:00:00,2025-11-20 00:00:00,short,90424.5,92282.5,1,0,90.42,100.0,-1.86,-6.98,-586.47,-0.01,0.0,0.0,1858.0,2.05,-168.65,-14166.98,-0.17,9.04,0.1,5,0.02,0,0.0,5.12,92769.72
29,RE_ENTRY,DOUBLE_TOP,2025-11-21 02:00:00,2025-11-21 14:00:00,short,85408.5,84808.5,1,0,85.41,100.0,0.6,-4.51,-379.26,-0.0,600.0,0.7,0.0,0.0,-173.17,-14546.24,-0.17,8.54,0.1,5,0.01,0,0.0,5.11,89782.87
30,RE_ENTRY,SL_HIT_SUPERTREND,2025-11-22 04:00:00,2025-11-23 01:00:00,short,84214.5,86137.0,1,0,84.21,100.0,-1.92,-7.05,-592.1,-0.01,0.0,0.0,1922.5,2.28,-180.22,-15138.33,-0.18,8.42,0.1,5,0.03,0,0.0,5.13,86775.41
31,FIRST_ENTRY,SL_HIT_SUPERTREND,2025-11-28 17:00:00,2025-11-28 17:00:00,short,90631.0,91172.5,1,0,90.63,100.0,-0.54,-5.64,-473.89,-0.01,0.0,0.0,541.5,0.6,-185.86,-15612.22,-0.19,9.06,0.1,5,0.0,0,0.0,5.1,85738.68
32,FIRST_ENTRY,SL_HIT_SUPERTREND,2025-12-04 05:00:00,2025-12-04 05:00:00,short,92942.0,93349.5,1,0,92.94,100.0,-0.41,-5.51,-462.63,-0.01,0.0,0.0,407.5,0.44,-191.37,-16074.85,-0.19,9.29,0.1,5,0.0,0,0.0,5.1,85738.68
33,FIRST_ENTRY,SL_HIT_SUPERTREND,2025-12-05 16:00:00,2025-12-05 16:00:00,short,88766.0,90469.0,1,0,88.77,100.0,-1.7,-6.8,-571.45,-0.01,0.0,0.0,1703.0,1.92,-198.17,-16646.3,-0.2,8.88,0.1,5,0.0,0,0.0,5.1,85738.68
34,FIRST_ENTRY,SL_HIT_SUPERTREND,2025-12-07 14:00:00,2025-12-07 14:00:00,short,88199.5,89079.5,1,0,88.2,100.0,-0.88,-5.98,-502.32,-0.01,0.0,0.0,880.0,1.0,-204.15,-17148.62,-0.2,8.82,0.1,5,0.0,0,0.0,5.1,85738.68
35,RE_ENTRY,SL_HIT_SUPERTREND,2025-12-17 08:00:00,2025-12-17 08:00:00,short,86374.5,87018.5,1,0,86.37,100.0,-0.64,-5.74,-482.5,-0.01,0.0,0.0,644.0,0.75,-209.89,-17631.12,-0.21,8.64,0.1,5,0.0,0,0.0,5.1,85738.68
36,RE_ENTRY,SL_HIT_SUPERTREND,2026-01-20 22:00:00,2026-01-20 22:00:00,short,88477.0,89627.0,1,0,88.48,100.0,-1.15,-6.25,-525.0,-0.01,0.0,0.0,1150.0,1.3,-216.14,-18156.12,-0.22,8.85,0.1,5,0.0,0,0.0,5.1,85738.68
37,RE_ENTRY,SL_HIT_SUPERTREND,2026-01-21 16:00:00,2026-01-21 16:00:00,short,87570.5,90333.5,1,0,87.57,100.0,-2.76,-7.86,-660.49,-0.01,0.0,0.0,2763.0,3.16,-224.01,-18816.61,-0.22,8.76,0.1,5,0.0,0,0.0,5.1,85738.68
38,RE_ENTRY,SL_HIT_SUPERTREND,2026-01-22 14:00:00,2026-01-22 14:00:00,short,89064.5,89717.0,1,0,89.06,100.0,-0.65,-5.75,-483.21,-0.01,0.0,0.0,652.5,0.73,-229.76,-19299.82,-0.23,8.91,0.1,5,0.0,0,0.0,5.1,85738.68
39,RE_ENTRY,SL_HIT_SUPERTREND,2026-01-23 09:00:00,2026-01-23 09:00:00,short,88949.0,89359.0,1,0,88.95,100.0,-0.41,-5.51,-462.84,-0.01,0.0,0.0,410.0,0.46,-235.27,-19762.66,-0.24,8.89,0.1,5,0.0,0,0.0,5.1,85738.68
40,RE_ENTRY,SL_HIT_SUPERTREND,2026-01-25 08:00:00,2026-01-25 08:00:00,short,88263.0,88736.5,1,0,88.26,100.0,-0.47,-5.57,-468.17,-0.01,0.0,0.0,473.5,0.54,-240.84,-20230.83,-0.24,8.83,0.1,5,0.0,0,0.0,5.1,85738.68
41,RE_ENTRY,SL_HIT_SUPERTREND,2026-01-26 20:00:00,2026-01-26 20:00:00,short,87605.0,88097.0,1,0,87.61,100.0,-0.49,-5.59,-469.73,-0.01,0.0,0.0,492.0,0.56,-246.44,-20700.56,-0.25,8.76,0.1,5,0.0,0,0.0,5.1,85738.68
42,RE_ENTRY,SL_HIT_SUPERTREND,2026-01-27 17:00:00,2026-01-27 17:00:00,short,87518.5,88670.0,1,0,87.52,100.0,-1.15,-6.25,-525.13,-0.01,0.0,0.0,1151.5,1.32,-252.69,-21225.69,-0.25,8.75,0.1,5,0.0,0,0.0,5.1,85738.68
43,RE_ENTRY,DOUBLE_TOP,2026-01-31 19:00:00,2026-02-01 09:00:00,short,77715.0,79005.0,1,0,77.72,100.0,-1.29,-6.41,-538.23,-0.01,0.0,0.0,1290.0,1.66,-259.09,-21763.92,-0.26,7.77,0.1,5,0.02,0,0.0,5.12,82366.49
44,RE_ENTRY,DOUBLE_TOP,2026-02-03 02:00:00,2026-02-03 07:00:00,short,77782.0,78757.0,1,0,77.78,100.0,-0.97,-6.08,-510.82,-0.01,0.0,0.0,975.0,1.25,-265.18,-22274.74,-0.27,7.78,0.1,5,0.01,0,0.0,5.11,79314.68
45,RE_ENTRY,DOUBLE_TOP,2026-02-04 17:00:00,2026-02-06 01:00:00,short,72551.0,65672.0,1,0,72.55,100.0,6.88,1.74,146.08,0.0,6879.0,9.48,0.0,0.0,-263.44,-22128.67,-0.26,7.26,0.1,5,0.04,0,0.0,5.14,76378.22
46,RE_ENTRY,SL_HIT_SUPERTREND,2026-02-07 00:00:00,2026-02-07 00:00:00,short,69924.5,70569.0,1,0,69.92,100.0,-0.64,-5.74,-482.54,-0.01,0.0,0.0,644.5,0.92,-269.18,-22611.2,-0.27,6.99,0.1,5,0.0,0,0.0,5.1,68766.23
47,FIRST_ENTRY,SL_HIT_SUPERTREND,2026-02-14 05:00:00,2026-02-14 05:00:00,short,68745.5,68885.5,1,0,68.75,100.0,-0.14,-5.24,-440.16,-0.01,0.0,0.0,140.0,0.2,-274.42,-23051.36,-0.27,6.87,0.1,5,0.0,0,0.0,5.1,67635.39
48,FIRST_ENTRY,SL_HIT_SUPERTREND,2026-02-15 19:00:00,2026-02-15 19:00:00,short,68270.0,68550.0,1,0,68.27,100.0,-0.28,-5.38,-451.92,-0.01,0.0,0.0,280.0,0.41,-279.8,-23503.28,-0.28,6.83,0.1,5,0.0,0,0.0,5.1,67635.39
49,FIRST_ENTRY,SL_HIT_SUPERTREND,2026-02-16 15:00:00,2026-02-16 15:00:00,short,67513.0,68573.0,1,0,67.51,100.0,-1.06,-6.16,-517.44,-0.01,0.0,0.0,1060.0,1.57,-285.96,-24020.72,-0.29,6.75,0.1,5,0.0,0,0.0,5.1,67635.39
50,FIRST_ENTRY,SL_HIT_SUPERTREND,2026-02-26 07:00:00,2026-02-26 07:00:00,short,67806.0,68273.0,1,0,67.81,100.0,-0.47,-5.57,-467.63,-0.01,0.0,0.0,467.0,0.69,-291.53,-24488.35,-0.29,6.78,0.1,5,0.0,0,0.0,5.1,64233.41
51,FIRST_ENTRY,SL_HIT_SUPERTREND,2026-02-27 12:00:00,2026-02-27 12:00:00,short,65913.0,66201.5,1,0,65.91,100.0,-0.29,-5.39,-452.63,-0.01,0.0,0.0,288.5,0.44,-296.92,-24940.99,-0.3,6.59,0.1,5,0.0,0,0.0,5.1,64233.41
52,FIRST_ENTRY,SL_HIT_SUPERTREND,2026-03-05 17:00:00,2026-03-05 17:00:00,short,70678.0,71545.0,1,0,70.68,100.0,-0.87,-5.97,-501.23,-0.01,0.0,0.0,867.0,1.23,-302.88,-25442.21,-0.3,7.07,0.1,5,0.0,0,0.0,5.1,64233.41
53,FIRST_ENTRY,SL_HIT_SUPERTREND,2026-03-06 05:00:00,2026-03-06 05:00:00,short,70403.0,70636.5,1,0,70.4,100.0,-0.23,-5.33,-448.01,-0.01,0.0,0.0,233.5,0.33,-308.22,-25890.23,-0.31,7.04,0.1,5,0.0,0,0.0,5.1,64233.41
54,FIRST_ENTRY,SL_HIT_SUPERTREND,2026-03-10 21:00:00,2026-03-10 21:00:00,short,69718.5,70382.5,1,0,69.72,100.0,-0.66,-5.76,-484.18,-0.01,0.0,0.0,664.0,0.95,-313.98,-26374.4,-0.31,6.97,0.1,5,0.0,0,0.0,5.1,64233.41
55,FIRST_ENTRY,SL_HIT_SUPERTREND,2026-03-12 02:00:00,2026-03-12 02:00:00,short,69250.0,69852.0,1,0,69.25,100.0,-0.6,-5.7,-478.97,-0.01,0.0,0.0,602.0,0.87,-319.68,-26853.37,-0.32,6.92,0.1,5,0.0,0,0.0,5.1,64233.41
56,FIRST_ENTRY,SL_HIT_SUPERTREND,2026-03-14 00:00:00,2026-03-14 00:00:00,short,70607.0,70927.5,1,0,70.61,100.0,-0.32,-5.42,-455.32,-0.01,0.0,0.0,320.5,0.45,-325.1,-27308.69,-0.33,7.06,0.1,5,0.0,0,0.0,5.1,64233.41
57,FIRST_ENTRY,SL_HIT_SUPERTREND,2026-03-15 18:00:00,2026-03-15 18:00:00,short,71353.5,71863.5,1,0,71.35,100.0,-0.51,-5.61,-471.24,-0.01,0.0,0.0,510.0,0.71,-330.71,-27779.93,-0.33,7.14,0.1,5,0.0,0,0.0,5.1,64233.41
58,FIRST_ENTRY,SL_HIT_SUPERTREND,2026-03-17 23:00:00,2026-03-17 23:00:00,short,73879.0,74364.5,1,0,73.88,100.0,-0.49,-5.59,-469.18,-0.01,0.0,0.0,485.5,0.66,-336.3,-28249.12,-0.34,7.39,0.1,5,0.0,0,0.0,5.1,64233.41
59,FIRST_ENTRY,SL_HIT_SUPERTREND,2026-03-20 14:00:00,2026-03-20 14:00:00,short,69712.0,70243.5,1,0,69.71,100.0,-0.53,-5.63,-473.05,-0.01,0.0,0.0,531.5,0.76,-341.93,-28722.16,-0.34,6.97,0.1,5,0.0,0,0.0,5.1,64233.41
60,RE_ENTRY,SL_HIT_SUPERTREND,2026-03-29 17:00:00,2026-03-29 17:00:00,short,66364.0,66526.0,1,0,66.36,100.0,-0.16,-5.26,-442.01,-0.01,0.0,0.0,162.0,0.24,-347.19,-29164.17,-0.35,6.64,0.1,5,0.0,0,0.0,5.1,64233.41
61,RE_ENTRY,SL_HIT_SUPERTREND,2026-03-30 19:00:00,2026-03-30 19:00:00,short,66524.5,66647.5,1,0,66.52,100.0,-0.12,-5.22,-438.73,-0.01,0.0,0.0,123.0,0.18,-352.42,-29602.9,-0.35,6.65,0.1,5,0.0,0,0.0,5.1,64233.41
62,FIRST_ENTRY,SL_HIT_SUPERTREND,2026-04-01 18:00:00,2026-04-01 18:00:00,short,68061.5,68298.0,1,0,68.06,100.0,-0.24,-5.34,-448.27,-0.01,0.0,0.0,236.5,0.35,-357.75,-30051.17,-0.36,6.81,0.1,5,0.0,0,0.0,5.1,64233.41
63,FIRST_ENTRY,SL_HIT_SUPERTREND,2026-04-07 01:00:00,2026-04-07 01:00:00,short,68370.0,68885.5,1,0,68.37,100.0,-0.52,-5.62,-471.7,-0.01,0.0,0.0,515.5,0.75,-363.37,-30522.87,-0.36,6.84,0.1,5,0.0,0,0.0,5.1,64233.41
64,FIRST_ENTRY,SL_HIT_SUPERTREND,2026-04-08 14:00:00,2026-04-08 14:00:00,short,70895.5,71734.0,1,0,70.9,100.0,-0.84,-5.94,-498.83,-0.01,0.0,0.0,838.5,1.18,-369.31,-31021.7,-0.37,7.09,0.1,5,0.0,0,0.0,5.1,64233.41
65,FIRST_ENTRY,SL_HIT_SUPERTREND,2026-04-09 00:00:00,2026-04-09 00:00:00,short,70788.5,71114.5,1,0,70.79,100.0,-0.33,-5.43,-455.78,-0.01,0.0,0.0,326.0,0.46,-374.73,-31477.49,-0.37,7.08,0.1,5,0.0,0,0.0,5.1,64233.41
66,FIRST_ENTRY,SL_HIT_SUPERTREND,2026-04-09 23:00:00,2026-04-09 23:00:00,short,71770.0,72006.5,1,0,71.77,100.0,-0.24,-5.34,-448.27,-0.01,0.0,0.0,236.5,0.33,-380.07,-31925.75,-0.38,7.18,0.1,5,0.0,0,0.0,5.1,64233.41
67,FIRST_ENTRY,SL_HIT_SUPERTREND,2026-04-12 14:00:00,2026-04-12 14:00:00,short,70722.0,71071.5,1,0,70.72,100.0,-0.35,-5.45,-457.76,-0.01,0.0,0.0,349.5,0.49,-385.52,-32383.51,-0.39,7.07,0.1,5,0.0,0,0.0,5.1,64233.41
68,FIRST_ENTRY,SL_HIT_SUPERTREND,2026-04-14 18:00:00,2026-04-14 18:00:00,short,74056.5,74772.5,1,0,74.06,100.0,-0.72,-5.82,-488.54,-0.01,0.0,0.0,716.0,0.97,-391.33,-32872.06,-0.39,7.41,0.1,5,0.0,0,0.0,5.1,64233.41
69,FIRST_ENTRY,SL_HIT_SUPERTREND,2026-04-16 13:00:00,2026-04-16 13:00:00,short,73762.5,74989.0,1,0,73.76,100.0,-1.23,-6.33,-531.43,-0.01,0.0,0.0,1226.5,1.66,-397.66,-33403.48,-0.4,7.38,0.1,5,0.0,0,0.0,5.1,64233.41
70,FIRST_ENTRY,SL_HIT_SUPERTREND,2026-04-19 09:00:00,2026-04-19 09:00:00,short,74975.0,75231.5,1,0,74.98,100.0,-0.26,-5.36,-449.95,-0.01,0.0,0.0,256.5,0.34,-403.02,-33853.43,-0.4,7.5,0.1,5,0.0,0,0.0,5.1,64233.41
71,FIRST_ENTRY,SL_HIT_SUPERTREND,2026-04-21 19:00:00,2026-04-21 19:00:00,short,74988.0,75882.0,1,0,74.99,100.0,-0.89,-5.99,-503.5,-0.01,0.0,0.0,894.0,1.19,-409.01,-34356.92,-0.41,7.5,0.1,5,0.0,0,0.0,5.1,64233.41
72,FIRST_ENTRY,SL_HIT_SUPERTREND,2026-04-23 10:00:00,2026-04-23 10:00:00,short,77362.5,77678.5,1,0,77.36,100.0,-0.32,-5.42,-454.94,-0.01,0.0,0.0,316.0,0.41,-414.43,-34811.87,-0.41,7.74,0.1,5,0.0,0,0.0,5.1,64233.41
73,FIRST_ENTRY,SL_HIT_SUPERTREND,2026-04-24 09:00:00,2026-04-24 09:00:00,short,77497.5,77765.0,1,0,77.5,100.0,-0.27,-5.37,-450.87,-0.01,0.0,0.0,267.5,0.35,-419.79,-35262.74,-0.42,7.75,0.1,5,0.0,0,0.0,5.1,64233.41
74,FIRST_ENTRY,SL_HIT_SUPERTREND,2026-05-07 03:00:00,2026-05-07 03:00:00,short,80797.5,81076.5,1,0,80.8,100.0,-0.28,-5.38,-451.84,-0.01,0.0,0.0,279.0,0.35,-425.17,-35714.57,-0.43,8.08,0.1,5,0.0,0,0.0,5.1,64233.41
75,FIRST_ENTRY,SL_HIT_SUPERTREND,2026-05-12 16:00:00,2026-05-12 16:00:00,short,79967.5,80401.0,1,0,79.97,100.0,-0.43,-5.53,-464.81,-0.01,0.0,0.0,433.5,0.54,-430.71,-36179.39,-0.43,8.0,0.1,5,0.0,0,0.0,5.1,64233.41
76,FIRST_ENTRY,SL_HIT_SUPERTREND,2026-05-15 05:00:00,2026-05-15 05:00:00,short,80321.5,80847.0,1,0,80.32,100.0,-0.53,-5.63,-472.54,-0.01,0.0,0.0,525.5,0.65,-436.33,-36651.93,-0.44,8.03,0.1,5,0.0,0,0.0,5.1,64233.41
77,RE_ENTRY,SL_HIT_SUPERTREND,2026-05-18 02:00:00,2026-05-18 02:00:00,short,76806.5,77191.0,1,0,76.81,100.0,-0.38,-5.48,-460.7,-0.01,0.0,0.0,384.5,0.5,-441.82,-37112.63,-0.44,7.68,0.1,5,0.0,0,0.0,5.1,64233.41
78,RE_ENTRY,SL_HIT_SUPERTREND,2026-05-19 14:00:00,2026-05-19 14:00:00,short,76366.0,76982.5,1,0,76.37,100.0,-0.62,-5.72,-480.19,-0.01,0.0,0.0,616.5,0.81,-447.53,-37592.81,-0.45,7.64,0.1,5,0.0,0,0.0,5.1,64233.41
79,RE_ENTRY,SL_HIT_SUPERTREND,2026-05-21 14:00:00,2026-05-21 14:00:00,short,76944.0,77216.5,1,0,76.94,100.0,-0.27,-5.37,-451.29,-0.01,0.0,0.0,272.5,0.35,-452.91,-38044.1,-0.45,7.69,0.1,5,0.0,0,0.0,5.1,64233.41
80,RE_ENTRY,SL_HIT_SUPERTREND,2026-05-23 07:00:00,2026-05-23 07:00:00,short,74573.5,75409.0,1,0,74.57,100.0,-0.84,-5.94,-498.58,-0.01,0.0,0.0,835.5,1.12,-458.84,-38542.69,-0.46,7.46,0.1,5,0.0,0,0.0,5.1,64233.41
81,RE_ENTRY,SL_HIT_SUPERTREND,2026-05-24 21:00:00,2026-05-24 21:00:00,short,76106.0,76721.0,1,0,76.11,100.0,-0.61,-5.71,-480.06,-0.01,0.0,0.0,615.0,0.81,-464.56,-39022.75,-0.46,7.61,0.1,5,0.0,0,0.0,5.1,64233.41
82,RE_ENTRY,SL_HIT_SUPERTREND,2026-05-27 04:00:00,2026-05-27 04:00:00,short,75543.0,75681.5,1,0,75.54,100.0,-0.14,-5.24,-440.03,-0.01,0.0,0.0,138.5,0.18,-469.8,-39462.78,-0.47,7.55,0.1,5,0.0,0,0.0,5.1,64233.41
83,RE_ENTRY,SL_HIT_SUPERTREND,2026-05-29 13:00:00,2026-05-29 13:00:00,short,73122.5,73328.0,1,0,73.12,100.0,-0.21,-5.31,-445.66,-0.01,0.0,0.0,205.5,0.28,-475.1,-39908.44,-0.48,7.31,0.1,5,0.0,0,0.0,5.1,64233.41
84,RE_ENTRY,SL_HIT_SUPERTREND,2026-06-01 01:00:00,2026-06-01 01:00:00,short,73264.5,73897.5,1,0,73.26,100.0,-0.63,-5.73,-481.57,-0.01,0.0,0.0,633.0,0.86,-480.83,-40390.01,-0.48,7.33,0.1,5,0.0,0,0.0,5.1,64233.41
85,RE_ENTRY,SL_HIT_SUPERTREND,2026-06-03 20:00:00,2026-06-03 20:00:00,short,64979.5,65585.0,1,0,64.98,100.0,-0.61,-5.71,-479.26,-0.01,0.0,0.0,605.5,0.93,-486.54,-40869.28,-0.49,6.5,0.1,5,0.0,0,0.0,5.1,64233.41
86,RE_ENTRY,DOUBLE_TOP,2026-06-05 02:00:00,2026-06-05 20:00:00,short,62588.5,61600.0,1,0,62.59,100.0,0.99,-4.13,-347.26,-0.0,988.5,1.58,0.0,0.0,-490.67,-41216.53,-0.49,6.26,0.1,5,0.02,0,0.0,5.12,64233.41
