anildalabanjan933/crypto_tradingsystem/output/trade_log_RenkoReversalStrategy_BTCUSD_20260625_114356.csv
trade_number,entry_type,exit_type,entry_datetime,exit_datetime,direction,entry_price,exit_price,size_qty,actual_quantity,size_value,lot_notional_usd,gross_pnl,net_pnl,net_pnl_inr,net_pnl_pct,favorable_excursion,favorable_excursion_pct,adverse_excursion,adverse_excursion_pct,cumulative_pnl,cumulative_pnl_inr,cumulative_pnl_pct,margin_required,taker_fees_usd,slippage_usd,slippage_applied,funding_usd,insurance_usd,tax_usd,total_charges_usd,stop_loss
1,SELL,ST_FLIP_GREEN,2025-06-27T06:00:00,2025-06-29T10:00:00,short,106737.5,107937.5,100,0.1,10673.75,100.0,-120,-124.11,-10425.24,-0.12,0,0.0,1200,1.12,-124.11,-10425.24,-0.12,1067.38,0.1,4,2.0,0.01,0,0.0,4.11,107137.5
2,BUY,ST_FLIP_RED,2025-07-02T04:00:00,2025-07-03T14:00:00,long,106537.5,109137.5,100,0.1,10653.75,100.0,260,255.89,21494.76,0.26,2600,2.44,0,0.0,131.78,11069.52,0.13,1065.38,0.1,4,2.0,0.01,0,0.0,4.11,106137.5
3,SELL,ST_FLIP_GREEN,2025-07-03T14:00:00,2025-07-06T12:00:00,short,109137.5,108537.5,100,0.1,10913.75,100.0,60,55.89,4694.76,0.06,600,0.55,0,0.0,187.67,15764.28,0.19,1091.38,0.1,4,2.0,0.01,0,0.0,4.11,109537.5
4,BUY,ST_FLIP_RED,2025-07-06T12:00:00,2025-07-07T14:00:00,long,108537.5,108337.5,100,0.1,10853.75,100.0,-20,-24.11,-2025.24,-0.02,0,0.0,200,0.18,163.56,13739.04,0.16,1085.38,0.1,4,2.0,0.01,0,0.0,4.11,108137.5
5,SELL,ST_FLIP_GREEN,2025-07-07T14:00:00,2025-07-08T12:00:00,short,108337.5,108737.5,100,0.1,10833.75,100.0,-40,-44.11,-3705.24,-0.04,0,0.0,400,0.37,119.45,10033.8,0.12,1083.38,0.1,4,2.0,0.01,0,0.0,4.11,108737.5
6,BUY,ST_FLIP_RED,2025-07-08T12:00:00,2025-07-11T14:00:00,long,108737.5,117337.5,100,0.1,10873.75,100.0,860,855.89,71894.76,0.86,8600,7.91,0,0.0,975.34,81928.56,0.98,1087.38,0.1,4,2.0,0.01,0,0.0,4.11,108337.5
7,SELL,ST_FLIP_GREEN,2025-07-11T14:00:00,2025-07-11T18:00:00,short,117337.5,117937.5,100,0.1,11733.75,100.0,-60,-64.11,-5385.24,-0.06,0,0.0,600,0.51,911.23,76543.32,0.91,1173.38,0.1,4,2.0,0.01,0,0.0,4.11,117737.5
8,BUY,ST_FLIP_RED,2025-07-11T18:00:00,2025-07-14T10:00:00,long,117937.5,121737.5,100,0.1,11793.75,100.0,380,375.89,31574.76,0.38,3800,3.22,0,0.0,1287.12,108118.08,1.29,1179.38,0.1,4,2.0,0.01,0,0.0,4.11,117537.5
9,SELL,ST_FLIP_GREEN,2025-07-14T10:00:00,2025-07-15T12:00:00,short,121737.5,117937.5,100,0.1,12173.75,100.0,380,375.89,31574.76,0.38,3800,3.12,0,0.0,1663.01,139692.84,1.66,1217.38,0.1,4,2.0,0.01,0,0.0,4.11,122137.5
10,BUY,ST_FLIP_RED,2025-07-15T12:00:00,2025-07-15T14:00:00,long,117937.5,117137.5,100,0.1,11793.75,100.0,-80,-84.11,-7065.24,-0.08,0,0.0,800,0.68,1578.9,132627.6,1.58,1179.38,0.1,4,2.0,0.01,0,0.0,4.11,117537.5
11,SELL,ST_FLIP_GREEN,2025-07-15T14:00:00,2025-07-15T16:00:00,short,117137.5,117337.5,100,0.1,11713.75,100.0,-20,-24.11,-2025.24,-0.02,0,0.0,200,0.17,1554.79,130602.36,1.55,1171.38,0.1,4,2.0,0.01,0,0.0,4.11,117537.5
12,BUY,ST_FLIP_RED,2025-07-15T16:00:00,2025-07-15T18:00:00,long,117337.5,116537.5,100,0.1,11733.75,100.0,-80,-84.11,-7065.24,-0.08,0,0.0,800,0.68,1470.68,123537.12,1.47,1173.38,0.1,4,2.0,0.01,0,0.0,4.11,116937.5
13,SELL,ST_FLIP_GREEN,2025-07-15T18:00:00,2025-07-15T20:00:00,short,116537.5,117337.5,100,0.1,11653.75,100.0,-80,-84.11,-7065.24,-0.08,0,0.0,800,0.69,1386.57,116471.88,1.39,1165.38,0.1,4,2.0,0.01,0,0.0,4.11,116937.5
14,BUY,ST_FLIP_RED,2025-07-15T20:00:00,2025-07-17T00:00:00,long,117337.5,118137.5,100,0.1,11733.75,100.0,80,75.89,6374.76,0.08,800,0.68,0,0.0,1462.46,122846.64,1.46,1173.38,0.1,4,2.0,0.01,0,0.0,4.11,116937.5
15,SELL,ST_FLIP_GREEN,2025-07-17T00:00:00,2025-07-17T16:00:00,short,118137.5,119137.5,100,0.1,11813.75,100.0,-100,-104.11,-8745.24,-0.1,0,0.0,1000,0.85,1358.35,114101.4,1.36,1181.38,0.1,4,2.0,0.01,0,0.0,4.11,118537.5
16,SELL,ST_FLIP_GREEN,2025-07-17T22:00:00,2025-07-18T00:00:00,short,119137.5,120137.5,100,0.1,11913.75,100.0,-100,-104.11,-8745.24,-0.1,0,0.0,1000,0.84,1254.24,105356.16,1.25,1191.38,0.1,4,2.0,0.01,0,0.0,4.11,119537.5
17,BUY,ST_FLIP_RED,2025-07-18T00:00:00,2025-07-18T06:00:00,long,120137.5,119537.5,100,0.1,12013.75,100.0,-60,-64.11,-5385.24,-0.06,0,0.0,600,0.5,1190.13,99970.92,1.19,1201.38,0.1,4,2.0,0.01,0,0.0,4.11,119737.5
18,SELL,ST_FLIP_GREEN,2025-07-18T06:00:00,2025-07-20T14:00:00,short,119537.5,118537.5,100,0.1,11953.75,100.0,100,95.89,8054.76,0.1,1000,0.84,0,0.0,1286.02,108025.68,1.29,1195.38,0.1,4,2.0,0.01,0,0.0,4.11,119937.5
19,BUY,ST_FLIP_RED,2025-07-20T14:00:00,2025-07-20T22:00:00,long,118537.5,117337.5,100,0.1,11853.75,100.0,-120,-124.11,-10425.24,-0.12,0,0.0,1200,1.01,1161.91,97600.44,1.16,1185.38,0.1,4,2.0,0.01,0,0.0,4.11,118137.5
20,SELL,ST_FLIP_GREEN,2025-07-21T10:00:00,2025-07-22T06:00:00,short,118337.5,117737.5,100,0.1,11833.75,100.0,60,55.89,4694.76,0.06,600,0.51,0,0.0,1217.8,102295.2,1.22,1183.38,0.1,4,2.0,0.01,0,0.0,4.11,118737.5
21,BUY,ST_FLIP_RED,2025-07-22T06:00:00,2025-07-22T12:00:00,long,117737.5,118137.5,100,0.1,11773.75,100.0,40,35.89,3014.76,0.04,400,0.34,0,0.0,1253.69,105309.96,1.25,1177.38,0.1,4,2.0,0.01,0,0.0,4.11,117337.5
22,SELL,ST_FLIP_GREEN,2025-07-22T12:00:00,2025-07-22T16:00:00,short,118137.5,119137.5,100,0.1,11813.75,100.0,-100,-104.11,-8745.24,-0.1,0,0.0,1000,0.85,1149.58,96564.72,1.15,1181.38,0.1,4,2.0,0.01,0,0.0,4.11,118537.5
23,BUY,ST_FLIP_RED,2025-07-22T16:00:00,2025-07-23T02:00:00,long,119137.5,118937.5,100,0.1,11913.75,100.0,-20,-24.11,-2025.24,-0.02,0,0.0,200,0.17,1125.47,94539.48,1.13,1191.38,0.1,4,2.0,0.01,0,0.0,4.11,118737.5
24,SELL,ST_FLIP_GREEN,2025-07-23T02:00:00,2025-07-23T14:00:00,short,118937.5,118537.5,100,0.1,11893.75,100.0,40,35.89,3014.76,0.04,400,0.34,0,0.0,1161.36,97554.24,1.16,1189.38,0.1,4,2.0,0.01,0,0.0,4.11,119337.5
25,BUY,ST_FLIP_RED,2025-07-23T14:00:00,2025-07-24T04:00:00,long,118537.5,117737.5,100,0.1,11853.75,100.0,-80,-84.11,-7065.24,-0.08,0,0.0,800,0.67,1077.25,90489.0,1.08,1185.38,0.1,4,2.0,0.01,0,0.0,4.11,118137.5
26,BUY,ST_FLIP_RED,2025-07-25T10:00:00,2025-07-28T14:00:00,long,116337.5,118337.5,100,0.1,11633.75,100.0,200,195.89,16454.76,0.2,2000,1.72,0,0.0,1273.14,106943.76,1.27,1163.38,0.1,4,2.0,0.01,0,0.0,4.11,115937.5
27,SELL,ST_FLIP_GREEN,2025-07-28T14:00:00,2025-07-29T02:00:00,short,118337.5,118737.5,100,0.1,11833.75,100.0,-40,-44.11,-3705.24,-0.04,0,0.0,400,0.34,1229.03,103238.52,1.23,1183.38,0.1,4,2.0,0.01,0,0.0,4.11,118737.5
28,BUY,ST_FLIP_RED,2025-07-29T02:00:00,2025-07-29T14:00:00,long,118737.5,117937.5,100,0.1,11873.75,100.0,-80,-84.11,-7065.24,-0.08,0,0.0,800,0.67,1144.92,96173.28,1.14,1187.38,0.1,4,2.0,0.01,0,0.0,4.11,118337.5
29,SELL,ST_FLIP_GREEN,2025-07-29T14:00:00,2025-07-31T00:00:00,short,117937.5,117937.5,100,0.1,11793.75,100.0,0,-4.11,-345.24,-0.0,0,0.0,0,0.0,1140.81,95828.04,1.14,1179.38,0.1,4,2.0,0.01,0,0.0,4.11,118337.5
30,SELL,ST_FLIP_GREEN,2025-07-31T16:00:00,2025-08-01T14:00:00,short,117537.5,115337.5,100,0.1,11753.75,100.0,220,215.89,18134.76,0.22,2200,1.87,0,0.0,1356.7,113962.8,1.36,1175.38,0.1,4,2.0,0.01,0,0.0,4.11,117937.5
31,BUY,ST_FLIP_RED,2025-08-01T14:00:00,2025-08-01T16:00:00,long,115337.5,114337.5,100,0.1,11533.75,100.0,-100,-104.11,-8745.24,-0.1,0,0.0,1000,0.87,1252.59,105217.56,1.25,1153.38,0.1,4,2.0,0.01,0,0.0,4.11,114937.5
32,SELL,ST_FLIP_GREEN,2025-08-01T16:00:00,2025-08-03T02:00:00,short,114337.5,113337.5,100,0.1,11433.75,100.0,100,95.89,8054.76,0.1,1000,0.87,0,0.0,1348.48,113272.32,1.35,1143.38,0.1,4,2.0,0.01,0,0.0,4.11,114737.5
33,BUY,ST_FLIP_RED,2025-08-03T02:00:00,2025-08-05T06:00:00,long,113337.5,114137.5,100,0.1,11333.75,100.0,80,75.89,6374.76,0.08,800,0.71,0,0.0,1424.37,119647.08,1.42,1133.38,0.1,4,2.0,0.01,0,0.0,4.11,112937.5
34,SELL,ST_FLIP_GREEN,2025-08-05T06:00:00,2025-08-05T22:00:00,short,114137.5,113937.5,100,0.1,11413.75,100.0,20,15.89,1334.76,0.02,200,0.18,0,0.0,1440.26,120981.84,1.44,1141.38,0.1,4,2.0,0.01,0,0.0,4.11,114537.5
35,BUY,ST_FLIP_RED,2025-08-05T22:00:00,2025-08-08T14:00:00,long,113937.5,116337.5,100,0.1,11393.75,100.0,240,235.89,19814.76,0.24,2400,2.11,0,0.0,1676.15,140796.6,1.68,1139.38,0.1,4,2.0,0.01,0,0.0,4.11,113537.5
36,SELL,ST_FLIP_GREEN,2025-08-08T14:00:00,2025-08-09T08:00:00,short,116337.5,117337.5,100,0.1,11633.75,100.0,-100,-104.11,-8745.24,-0.1,0,0.0,1000,0.86,1572.04,132051.36,1.57,1163.38,0.1,4,2.0,0.01,0,0.0,4.11,116737.5
37,BUY,ST_FLIP_RED,2025-08-09T08:00:00,2025-08-11T10:00:00,long,117337.5,120937.5,100,0.1,11733.75,100.0,360,355.89,29894.76,0.36,3600,3.07,0,0.0,1927.93,161946.12,1.93,1173.38,0.1,4,2.0,0.01,0,0.0,4.11,116937.5
38,SELL,ST_FLIP_GREEN,2025-08-11T10:00:00,2025-08-12T14:00:00,short,120937.5,119537.5,100,0.1,12093.75,100.0,140,135.89,11414.76,0.14,1400,1.16,0,0.0,2063.82,173360.88,2.06,1209.38,0.1,4,2.0,0.01,0,0.0,4.11,121337.5
39,BUY,ST_FLIP_RED,2025-08-12T14:00:00,2025-08-13T14:00:00,long,119537.5,120737.5,100,0.1,11953.75,100.0,120,115.89,9734.76,0.12,1200,1.0,0,0.0,2179.71,183095.64,2.18,1195.38,0.1,4,2.0,0.01,0,0.0,4.11,119137.5
40,SELL,ST_FLIP_GREEN,2025-08-13T14:00:00,2025-08-13T16:00:00,short,120737.5,121737.5,100,0.1,12073.75,100.0,-100,-104.11,-8745.24,-0.1,0,0.0,1000,0.83,2075.6,174350.4,2.08,1207.38,0.1,4,2.0,0.01,0,0.0,4.11,121137.5
41,BUY,ST_FLIP_RED,2025-08-13T16:00:00,2025-08-14T04:00:00,long,121737.5,122337.5,100,0.1,12173.75,100.0,60,55.89,4694.76,0.06,600,0.49,0,0.0,2131.49,179045.16,2.13,1217.38,0.1,4,2.0,0.01,0,0.0,4.11,121337.5
42,SELL,ST_FLIP_GREEN,2025-08-14T04:00:00,2025-08-15T04:00:00,short,122337.5,118937.5,100,0.1,12233.75,100.0,340,335.89,28214.76,0.34,3400,2.78,0,0.0,2467.38,207259.92,2.47,1223.38,0.1,4,2.0,0.01,0,0.0,4.11,122737.5
43,BUY,ST_FLIP_RED,2025-08-15T04:00:00,2025-08-15T12:00:00,long,118937.5,117937.5,100,0.1,11893.75,100.0,-100,-104.11,-8745.24,-0.1,0,0.0,1000,0.84,2363.27,198514.68,2.36,1189.38,0.1,4,2.0,0.01,0,0.0,4.11,118537.5
44,SELL,ST_FLIP_GREEN,2025-08-15T12:00:00,2025-08-16T00:00:00,short,117937.5,117937.5,100,0.1,11793.75,100.0,0,-4.11,-345.24,-0.0,0,0.0,0,0.0,2359.16,198169.44,2.36,1179.38,0.1,4,2.0,0.01,0,0.0,4.11,118337.5
45,BUY,ST_FLIP_RED,2025-08-16T00:00:00,2025-08-18T00:00:00,long,117937.5,117137.5,100,0.1,11793.75,100.0,-80,-84.11,-7065.24,-0.08,0,0.0,800,0.68,2275.05,191104.2,2.28,1179.38,0.1,4,2.0,0.01,0,0.0,4.11,117537.5
46,BUY,ST_FLIP_RED,2025-08-18T14:00:00,2025-08-19T02:00:00,long,115937.5,115537.5,100,0.1,11593.75,100.0,-40,-44.11,-3705.24,-0.04,0,0.0,400,0.35,2230.94,187398.96,2.23,1159.38,0.1,4,2.0,0.01,0,0.0,4.11,115537.5
47,SELL,ST_FLIP_GREEN,2025-08-19T02:00:00,2025-08-20T16:00:00,short,115537.5,113737.5,100,0.1,11553.75,100.0,180,175.89,14774.76,0.18,1800,1.56,0,0.0,2406.83,202173.72,2.41,1155.38,0.1,4,2.0,0.01,0,0.0,4.11,115937.5
48,SELL,ST_FLIP_GREEN,2025-08-21T08:00:00,2025-08-22T14:00:00,short,113537.5,113337.5,100,0.1,11353.75,100.0,20,15.89,1334.76,0.02,200,0.18,0,0.0,2422.72,203508.48,2.42,1135.38,0.1,4,2.0,0.01,0,0.0,4.11,113937.5
49,SELL,ST_FLIP_GREEN,2025-08-23T02:00:00,2025-08-25T14:00:00,short,115937.5,112337.5,100,0.1,11593.75,100.0,360,355.89,29894.76,0.36,3600,3.11,0,0.0,2778.61,233403.24,2.78,1159.38,0.1,4,2.0,0.01,0,0.0,4.11,116337.5
50,BUY,ST_FLIP_RED,2025-08-25T14:00:00,2025-08-25T18:00:00,long,112337.5,111337.5,100,0.1,11233.75,100.0,-100,-104.11,-8745.24,-0.1,0,0.0,1000,0.89,2674.5,224658.0,2.67,1123.38,0.1,4,2.0,0.01,0,0.0,4.11,111937.5
51,SELL,ST_FLIP_GREEN,2025-08-25T18:00:00,2025-08-26T18:00:00,short,111337.5,110737.5,100,0.1,11133.75,100.0,60,55.89,4694.76,0.06,600,0.54,0,0.0,2730.39,229352.76,2.73,1113.38,0.1,4,2.0,0.01,0,0.0,4.11,111737.5
52,BUY,ST_FLIP_RED,2025-08-26T18:00:00,2025-08-27T06:00:00,long,110737.5,110537.5,100,0.1,11073.75,100.0,-20,-24.11,-2025.24,-0.02,0,0.0,200,0.18,2706.28,227327.52,2.71,1107.38,0.1,4,2.0,0.01,0,0.0,4.11,110337.5
53,SELL,ST_FLIP_GREEN,2025-08-27T06:00:00,2025-08-27T14:00:00,short,110537.5,111537.5,100,0.1,11053.75,100.0,-100,-104.11,-8745.24,-0.1,0,0.0,1000,0.9,2602.17,218582.28,2.6,1105.38,0.1,4,2.0,0.01,0,0.0,4.11,110937.5
54,BUY,ST_FLIP_RED,2025-08-27T14:00:00,2025-08-28T18:00:00,long,111537.5,111937.5,100,0.1,11153.75,100.0,40,35.89,3014.76,0.04,400,0.36,0,0.0,2638.06,221597.04,2.64,1115.38,0.1,4,2.0,0.01,0,0.0,4.11,111137.5
55,SELL,ST_FLIP_GREEN,2025-08-28T18:00:00,2025-08-30T02:00:00,short,111937.5,108537.5,100,0.1,11193.75,100.0,340,335.89,28214.76,0.34,3400,3.04,0,0.0,2973.95,249811.8,2.97,1119.38,0.1,4,2.0,0.01,0,0.0,4.11,112337.5
56,BUY,ST_FLIP_RED,2025-08-30T02:00:00,2025-08-31T22:00:00,long,108537.5,108337.5,100,0.1,10853.75,100.0,-20,-24.11,-2025.24,-0.02,0,0.0,200,0.18,2949.84,247786.56,2.95,1085.38,0.1,4,2.0,0.01,0,0.0,4.11,108137.5
57,SELL,ST_FLIP_GREEN,2025-08-31T22:00:00,2025-09-01T06:00:00,short,108337.5,108937.5,100,0.1,10833.75,100.0,-60,-64.11,-5385.24,-0.06,0,0.0,600,0.55,2885.73,242401.32,2.89,1083.38,0.1,4,2.0,0.01,0,0.0,4.11,108737.5
58,SELL,ST_FLIP_GREEN,2025-09-01T20:00:00,2025-09-01T22:00:00,short,108537.5,108737.5,100,0.1,10853.75,100.0,-20,-24.11,-2025.24,-0.02,0,0.0,200,0.18,2861.62,240376.08,2.86,1085.38,0.1,4,2.0,0.01,0,0.0,4.11,108937.5
59,BUY,ST_FLIP_RED,2025-09-01T22:00:00,2025-09-04T02:00:00,long,108737.5,111137.5,100,0.1,10873.75,100.0,240,235.89,19814.76,0.24,2400,2.21,0,0.0,3097.51,260190.84,3.1,1087.38,0.1,4,2.0,0.01,0,0.0,4.11,108337.5
60,SELL,ST_FLIP_GREEN,2025-09-04T02:00:00,2025-09-04T20:00:00,short,111137.5,110537.5,100,0.1,11113.75,100.0,60,55.89,4694.76,0.06,600,0.54,0,0.0,3153.4,264885.6,3.15,1111.38,0.1,4,2.0,0.01,0,0.0,4.11,111537.5
61,BUY,ST_FLIP_RED,2025-09-04T20:00:00,2025-09-05T14:00:00,long,110537.5,111937.5,100,0.1,11053.75,100.0,140,135.89,11414.76,0.14,1400,1.27,0,0.0,3289.29,276300.36,3.29,1105.38,0.1,4,2.0,0.01,0,0.0,4.11,110137.5
62,BUY,ST_FLIP_RED,2025-09-05T18:00:00,2025-09-05T20:00:00,long,111537.5,110737.5,100,0.1,11153.75,100.0,-80,-84.11,-7065.24,-0.08,0,0.0,800,0.72,3205.18,269235.12,3.21,1115.38,0.1,4,2.0,0.01,0,0.0,4.11,111137.5
63,SELL,ST_FLIP_GREEN,2025-09-05T20:00:00,2025-09-08T08:00:00,short,110737.5,111337.5,100,0.1,11073.75,100.0,-60,-64.11,-5385.24,-0.06,0,0.0,600,0.54,3141.07,263849.88,3.14,1107.38,0.1,4,2.0,0.01,0,0.0,4.11,111137.5
64,SELL,ST_FLIP_GREEN,2025-09-09T00:00:00,2025-09-09T04:00:00,short,111537.5,112337.5,100,0.1,11153.75,100.0,-80,-84.11,-7065.24,-0.08,0,0.0,800,0.72,3056.96,256784.64,3.06,1115.38,0.1,4,2.0,0.01,0,0.0,4.11,111937.5
65,BUY,ST_FLIP_RED,2025-09-09T04:00:00,2025-09-09T14:00:00,long,112337.5,111937.5,100,0.1,11233.75,100.0,-40,-44.11,-3705.24,-0.04,0,0.0,400,0.36,3012.85,253079.4,3.01,1123.38,0.1,4,2.0,0.01,0,0.0,4.11,111937.5
66,SELL,ST_FLIP_GREEN,2025-09-09T14:00:00,2025-09-10T06:00:00,short,111937.5,111937.5,100,0.1,11193.75,100.0,0,-4.11,-345.24,-0.0,0,0.0,0,0.0,3008.74,252734.16,3.01,1119.38,0.1,4,2.0,0.01,0,0.0,4.11,112337.5
67,BUY,ST_FLIP_RED,2025-09-10T06:00:00,2025-09-13T16:00:00,long,111937.5,115537.5,100,0.1,11193.75,100.0,360,355.89,29894.76,0.36,3600,3.22,0,0.0,3364.63,282628.92,3.36,1119.38,0.1,4,2.0,0.01,0,0.0,4.11,111537.5
68,SELL,ST_FLIP_GREEN,2025-09-13T16:00:00,2025-09-15T04:00:00,short,115537.5,116337.5,100,0.1,11553.75,100.0,-80,-84.11,-7065.24,-0.08,0,0.0,800,0.69,3280.52,275563.68,3.28,1155.38,0.1,4,2.0,0.01,0,0.0,4.11,115937.5
69,BUY,ST_FLIP_RED,2025-09-16T04:00:00,2025-09-17T14:00:00,long,115737.5,115937.5,100,0.1,11573.75,100.0,20,15.89,1334.76,0.02,200,0.17,0,0.0,3296.41,276898.44,3.3,1157.38,0.1,4,2.0,0.01,0,0.0,4.11,115337.5
70,BUY,ST_FLIP_RED,2025-09-18T00:00:00,2025-09-19T08:00:00,long,116537.5,116537.5,100,0.1,11653.75,100.0,0,-4.11,-345.24,-0.0,0,0.0,0,0.0,3292.3,276553.2,3.29,1165.38,0.1,4,2.0,0.01,0,0.0,4.11,116137.5
71,SELL,ST_FLIP_GREEN,2025-09-19T08:00:00,2025-09-24T04:00:00,short,116537.5,112737.5,100,0.1,11653.75,100.0,380,375.89,31574.76,0.38,3800,3.26,0,0.0,3668.19,308127.96,3.67,1165.38,0.1,4,2.0,0.01,0,0.0,4.11,116937.5
72,SELL,ST_FLIP_GREEN,2025-09-25T00:00:00,2025-09-26T12:00:00,short,112537.5,109737.5,100,0.1,11253.75,100.0,280,275.89,23174.76,0.28,2800,2.49,0,0.0,3944.08,331302.72,3.94,1125.38,0.1,4,2.0,0.01,0,0.0,4.11,112937.5
73,BUY,ST_FLIP_RED,2025-09-26T12:00:00,2025-09-30T08:00:00,long,109737.5,113337.5,100,0.1,10973.75,100.0,360,355.89,29894.76,0.36,3600,3.28,0,0.0,4299.97,361197.48,4.3,1097.38,0.1,4,2.0,0.01,0,0.0,4.11,109337.5
74,SELL,ST_FLIP_GREEN,2025-09-30T08:00:00,2025-09-30T18:00:00,short,113337.5,113937.5,100,0.1,11333.75,100.0,-60,-64.11,-5385.24,-0.06,0,0.0,600,0.53,4235.86,355812.24,4.24,1133.38,0.1,4,2.0,0.01,0,0.0,4.11,113737.5
75,BUY,ST_FLIP_RED,2025-09-30T18:00:00,2025-10-03T00:00:00,long,113937.5,119737.5,100,0.1,11393.75,100.0,580,575.89,48374.76,0.58,5800,5.09,0,0.0,4811.75,404187.0,4.81,1139.38,0.1,4,2.0,0.01,0,0.0,4.11,113537.5
76,SELL,ST_FLIP_GREEN,2025-10-03T00:00:00,2025-10-03T14:00:00,short,119737.5,120937.5,100,0.1,11973.75,100.0,-120,-124.11,-10425.24,-0.12,0,0.0,1200,1.0,4687.64,393761.76,4.69,1197.38,0.1,4,2.0,0.01,0,0.0,4.11,120137.5
77,SELL,ST_FLIP_GREEN,2025-10-05T08:00:00,2025-10-06T00:00:00,short,123937.5,123937.5,100,0.1,12393.75,100.0,0,-4.11,-345.24,-0.0,0,0.0,0,0.0,4683.53,393416.52,4.68,1239.38,0.1,4,2.0,0.01,0,0.0,4.11,124337.5
78,SELL,ST_FLIP_GREEN,2025-10-07T02:00:00,2025-10-08T08:00:00,short,124337.5,122137.5,100,0.1,12433.75,100.0,220,215.89,18134.76,0.22,2200,1.77,0,0.0,4899.42,411551.28,4.9,1243.38,0.1,4,2.0,0.01,0,0.0,4.11,124737.5
79,BUY,ST_FLIP_RED,2025-10-08T08:00:00,2025-10-09T00:00:00,long,122137.5,123137.5,100,0.1,12213.75,100.0,100,95.89,8054.76,0.1,1000,0.82,0,0.0,4995.31,419606.04,5.0,1221.38,0.1,4,2.0,0.01,0,0.0,4.11,121737.5
80,SELL,ST_FLIP_GREEN,2025-10-09T00:00:00,2025-10-11T02:00:00,short,123137.5,112137.5,100,0.1,12313.75,100.0,1100,1095.89,92054.76,1.1,11000,8.93,0,0.0,6091.2,511660.8,6.09,1231.38,0.1,4,2.0,0.01,0,0.0,4.11,123537.5
81,BUY,ST_FLIP_RED,2025-10-11T02:00:00,2025-10-11T06:00:00,long,112137.5,111337.5,100,0.1,11213.75,100.0,-80,-84.11,-7065.24,-0.08,0,0.0,800,0.71,6007.09,504595.56,6.01,1121.38,0.1,4,2.0,0.01,0,0.0,4.11,111737.5
82,SELL,ST_FLIP_GREEN,2025-10-11T06:00:00,2025-10-11T08:00:00,short,111337.5,111337.5,100,0.1,11133.75,100.0,0,-4.11,-345.24,-0.0,0,0.0,0,0.0,6002.98,504250.32,6.0,1113.38,0.1,4,2.0,0.01,0,0.0,4.11,111737.5
83,BUY,ST_FLIP_RED,2025-10-11T08:00:00,2025-10-11T20:00:00,long,111337.5,111137.5,100,0.1,11133.75,100.0,-20,-24.11,-2025.24,-0.02,0,0.0,200,0.18,5978.87,502225.08,5.98,1113.38,0.1,4,2.0,0.01,0,0.0,4.11,110937.5
84,SELL,ST_FLIP_GREEN,2025-10-11T20:00:00,2025-10-12T04:00:00,short,111137.5,111137.5,100,0.1,11113.75,100.0,0,-4.11,-345.24,-0.0,0,0.0,0,0.0,5974.76,501879.84,5.97,1111.38,0.1,4,2.0,0.01,0,0.0,4.11,111537.5
85,BUY,ST_FLIP_RED,2025-10-12T04:00:00,2025-10-13T10:00:00,long,111137.5,114537.5,100,0.1,11113.75,100.0,340,335.89,28214.76,0.34,3400,3.06,0,0.0,6310.65,530094.6,6.31,1111.38,0.1,4,2.0,0.01,0,0.0,4.11,110737.5
86,SELL,ST_FLIP_GREEN,2025-10-13T10:00:00,2025-10-13T18:00:00,short,114537.5,115337.5,100,0.1,11453.75,100.0,-80,-84.11,-7065.24,-0.08,0,0.0,800,0.7,6226.54,523029.36,6.23,1145.38,0.1,4,2.0,0.01,0,0.0,4.11,114937.5
87,SELL,ST_FLIP_GREEN,2025-10-14T00:00:00,2025-10-14T14:00:00,short,114737.5,112137.5,100,0.1,11473.75,100.0,260,255.89,21494.76,0.26,2600,2.27,0,0.0,6482.43,544524.12,6.48,1147.38,0.1,4,2.0,0.01,0,0.0,4.11,115137.5
88,BUY,ST_FLIP_RED,2025-10-14T14:00:00,2025-10-15T02:00:00,long,112137.5,111937.5,100,0.1,11213.75,100.0,-20,-24.11,-2025.24,-0.02,0,0.0,200,0.18,6458.32,542498.88,6.46,1121.38,0.1,4,2.0,0.01,0,0.0,4.11,111737.5
89,SELL,ST_FLIP_GREEN,2025-10-15T02:00:00,2025-10-17T10:00:00,short,111937.5,105537.5,100,0.1,11193.75,100.0,640,635.89,53414.76,0.64,6400,5.72,0,0.0,7094.21,595913.64,7.09,1119.38,0.1,4,2.0,0.01,0,0.0,4.11,112337.5
90,BUY,ST_FLIP_RED,2025-10-17T10:00:00,2025-10-20T00:00:00,long,105537.5,107937.5,100,0.1,10553.75,100.0,240,235.89,19814.76,0.24,2400,2.27,0,0.0,7330.1,615728.4,7.33,1055.38,0.1,4,2.0,0.01,0,0.0,4.11,105137.5
91,SELL,ST_FLIP_GREEN,2025-10-20T00:00:00,2025-10-20T02:00:00,short,107937.5,109137.5,100,0.1,10793.75,100.0,-120,-124.11,-10425.24,-0.12,0,0.0,1200,1.11,7205.99,605303.16,7.21,1079.38,0.1,4,2.0,0.01,0,0.0,4.11,108337.5
92,BUY,ST_FLIP_RED,2025-10-20T02:00:00,2025-10-21T00:00:00,long,109137.5,109937.5,100,0.1,10913.75,100.0,80,75.89,6374.76,0.08,800,0.73,0,0.0,7281.88,611677.92,7.28,1091.38,0.1,4,2.0,0.01,0,0.0,4.11,108737.5
93,SELL,ST_FLIP_GREEN,2025-10-21T00:00:00,2025-10-21T10:00:00,short,109937.5,108537.5,100,0.1,10993.75,100.0,140,135.89,11414.76,0.14,1400,1.27,0,0.0,7417.77,623092.68,7.42,1099.38,0.1,4,2.0,0.01,0,0.0,4.11,110337.5
94,BUY,ST_FLIP_RED,2025-10-21T10:00:00,2025-10-21T16:00:00,long,108537.5,112337.5,100,0.1,10853.75,100.0,380,375.89,31574.76,0.38,3800,3.5,0,0.0,7793.66,654667.44,7.79,1085.38,0.1,4,2.0,0.01,0,0.0,4.11,108137.5
95,SELL,ST_FLIP_GREEN,2025-10-21T16:00:00,2025-10-22T12:00:00,short,112337.5,108537.5,100,0.1,11233.75,100.0,380,375.89,31574.76,0.38,3800,3.38,0,0.0,8169.55,686242.2,8.17,1123.38,0.1,4,2.0,0.01,0,0.0,4.11,112737.5
96,BUY,ST_FLIP_RED,2025-10-22T12:00:00,2025-10-22T16:00:00,long,108537.5,107937.5,100,0.1,10853.75,100.0,-60,-64.11,-5385.24,-0.06,0,0.0,600,0.55,8105.44,680856.96,8.11,1085.38,0.1,4,2.0,0.01,0,0.0,4.11,108137.5
97,SELL,ST_FLIP_GREEN,2025-10-22T16:00:00,2025-10-23T04:00:00,short,107937.5,108337.5,100,0.1,10793.75,100.0,-40,-44.11,-3705.24,-0.04,0,0.0,400,0.37,8061.33,677151.72,8.06,1079.38,0.1,4,2.0,0.01,0,0.0,4.11,108337.5
98,BUY,ST_FLIP_RED,2025-10-23T04:00:00,2025-10-23T18:00:00,long,108337.5,110137.5,100,0.1,10833.75,100.0,180,175.89,14774.76,0.18,1800,1.66,0,0.0,8237.22,691926.48,8.24,1083.38,0.1,4,2.0,0.01,0,0.0,4.11,107937.5
99,SELL,ST_FLIP_GREEN,2025-10-23T18:00:00,2025-10-24T00:00:00,short,110137.5,110537.5,100,0.1,11013.75,100.0,-40,-44.11,-3705.24,-0.04,0,0.0,400,0.36,8193.11,688221.24,8.19,1101.38,0.1,4,2.0,0.01,0,0.0,4.11,110537.5
100,BUY,ST_FLIP_RED,2025-10-24T00:00:00,2025-10-24T14:00:00,long,110537.5,110137.5,100,0.1,11053.75,100.0,-40,-44.11,-3705.24,-0.04,0,0.0,400,0.36,8149.0,684516.0,8.15,1105.38,0.1,4,2.0,0.01,0,0.0,4.11,110137.5
101,SELL,ST_FLIP_GREEN,2025-10-24T14:00:00,2025-10-24T20:00:00,short,110137.5,110937.5,100,0.1,11013.75,100.0,-80,-84.11,-7065.24,-0.08,0,0.0,800,0.73,8064.89,677450.76,8.06,1101.38,0.1,4,2.0,0.01,0,0.0,4.11,110537.5
102,BUY,ST_FLIP_RED,2025-10-24T20:00:00,2025-10-27T20:00:00,long,110937.5,114537.5,100,0.1,11093.75,100.0,360,355.89,29894.76,0.36,3600,3.25,0,0.0,8420.78,707345.52,8.42,1109.38,0.1,4,2.0,0.01,0,0.0,4.11,110537.5
103,BUY,ST_FLIP_RED,2025-10-28T12:00:00,2025-10-28T18:00:00,long,114737.5,114337.5,100,0.1,11473.75,100.0,-40,-44.11,-3705.24,-0.04,0,0.0,400,0.35,8376.67,703640.28,8.38,1147.38,0.1,4,2.0,0.01,0,0.0,4.11,114337.5
104,SELL,ST_FLIP_GREEN,2025-10-28T18:00:00,2025-10-29T20:00:00,short,114337.5,111737.5,100,0.1,11433.75,100.0,260,255.89,21494.76,0.26,2600,2.27,0,0.0,8632.56,725135.04,8.63,1143.38,0.1,4,2.0,0.01,0,0.0,4.11,114737.5
105,BUY,ST_FLIP_RED,2025-10-29T20:00:00,2025-10-29T22:00:00,long,111737.5,110737.5,100,0.1,11173.75,100.0,-100,-104.11,-8745.24,-0.1,0,0.0,1000,0.89,8528.45,716389.8,8.53,1117.38,0.1,4,2.0,0.01,0,0.0,4.11,111337.5
106,SELL,ST_FLIP_GREEN,2025-10-29T22:00:00,2025-10-30T06:00:00,short,110737.5,110937.5,100,0.1,11073.75,100.0,-20,-24.11,-2025.24,-0.02,0,0.0,200,0.18,8504.34,714364.56,8.5,1107.38,0.1,4,2.0,0.01,0,0.0,4.11,111137.5
107,BUY,ST_FLIP_RED,2025-10-30T06:00:00,2025-10-30T08:00:00,long,110937.5,110137.5,100,0.1,11093.75,100.0,-80,-84.11,-7065.24,-0.08,0,0.0,800,0.72,8420.23,707299.32,8.42,1109.38,0.1,4,2.0,0.01,0,0.0,4.11,110537.5
108,SELL,ST_FLIP_GREEN,2025-10-30T08:00:00,2025-10-30T20:00:00,short,110137.5,107537.5,100,0.1,11013.75,100.0,260,255.89,21494.76,0.26,2600,2.36,0,0.0,8676.12,728794.08,8.68,1101.38,0.1,4,2.0,0.01,0,0.0,4.11,110537.5
109,BUY,ST_FLIP_RED,2025-10-30T20:00:00,2025-10-31T16:00:00,long,107537.5,109337.5,100,0.1,10753.75,100.0,180,175.89,14774.76,0.18,1800,1.67,0,0.0,8852.01,743568.84,8.85,1075.38,0.1,4,2.0,0.01,0,0.0,4.11,107137.5
110,SELL,ST_FLIP_GREEN,2025-10-31T16:00:00,2025-11-01T02:00:00,short,109337.5,110137.5,100,0.1,10933.75,100.0,-80,-84.11,-7065.24,-0.08,0,0.0,800,0.73,8767.9,736503.6,8.77,1093.38,0.1,4,2.0,0.01,0,0.0,4.11,109737.5
111,BUY,ST_FLIP_RED,2025-11-01T02:00:00,2025-11-02T14:00:00,long,110137.5,110137.5,100,0.1,11013.75,100.0,0,-4.11,-345.24,-0.0,0,0.0,0,0.0,8763.79,736158.36,8.76,1101.38,0.1,4,2.0,0.01,0,0.0,4.11,109737.5
112,SELL,ST_FLIP_GREEN,2025-11-02T14:00:00,2025-11-03T16:00:00,short,110137.5,106537.5,100,0.1,11013.75,100.0,360,355.89,29894.76,0.36,3600,3.27,0,0.0,9119.68,766053.12,9.12,1101.38,0.1,4,2.0,0.01,0,0.0,4.11,110537.5
113,BUY,ST_FLIP_RED,2025-11-03T16:00:00,2025-11-04T04:00:00,long,106537.5,106537.5,100,0.1,10653.75,100.0,0,-4.11,-345.24,-0.0,0,0.0,0,0.0,9115.57,765707.88,9.12,1065.38,0.1,4,2.0,0.01,0,0.0,4.11,106137.5
114,SELL,ST_FLIP_GREEN,2025-11-04T04:00:00,2025-11-04T22:00:00,short,106537.5,101337.5,100,0.1,10653.75,100.0,520,515.89,43334.76,0.52,5200,4.88,0,0.0,9631.46,809042.64,9.63,1065.38,0.1,4,2.0,0.01,0,0.0,4.11,106937.5
115,BUY,ST_FLIP_RED,2025-11-04T22:00:00,2025-11-05T00:00:00,long,101337.5,100537.5,100,0.1,10133.75,100.0,-80,-84.11,-7065.24,-0.08,0,0.0,800,0.79,9547.35,801977.4,9.55,1013.38,0.1,4,2.0,0.01,0,0.0,4.11,100937.5
116,SELL,ST_FLIP_GREEN,2025-11-05T00:00:00,2025-11-05T02:00:00,short,100537.5,101737.5,100,0.1,10053.75,100.0,-120,-124.11,-10425.24,-0.12,0,0.0,1200,1.19,9423.24,791552.16,9.42,1005.38,0.1,4,2.0,0.01,0,0.0,4.11,100937.5
117,SELL,ST_FLIP_GREEN,2025-11-06T04:00:00,2025-11-07T04:00:00,short,102937.5,102137.5,100,0.1,10293.75,100.0,80,75.89,6374.76,0.08,800,0.78,0,0.0,9499.13,797926.92,9.5,1029.38,0.1,4,2.0,0.01,0,0.0,4.11,103337.5
118,BUY,ST_FLIP_RED,2025-11-07T04:00:00,2025-11-07T08:00:00,long,102137.5,101337.5,100,0.1,10213.75,100.0,-80,-84.11,-7065.24,-0.08,0,0.0,800,0.78,9415.02,790861.68,9.42,1021.38,0.1,4,2.0,0.01,0,0.0,4.11,101737.5
119,SELL,ST_FLIP_GREEN,2025-11-07T08:00:00,2025-11-07T16:00:00,short,101337.5,101337.5,100,0.1,10133.75,100.0,0,-4.11,-345.24,-0.0,0,0.0,0,0.0,9410.91,790516.44,9.41,1013.38,0.1,4,2.0,0.01,0,0.0,4.11,101737.5
120,BUY,ST_FLIP_RED,2025-11-07T16:00:00,2025-11-08T02:00:00,long,101337.5,102737.5,100,0.1,10133.75,100.0,140,135.89,11414.76,0.14,1400,1.38,0,0.0,9546.8,801931.2,9.55,1013.38,0.1,4,2.0,0.01,0,0.0,4.11,100937.5
121,SELL,ST_FLIP_GREEN,2025-11-08T02:00:00,2025-11-09T12:00:00,short,102737.5,102737.5,100,0.1,10273.75,100.0,0,-4.11,-345.24,-0.0,0,0.0,0,0.0,9542.69,801585.96,9.54,1027.38,0.1,4,2.0,0.01,0,0.0,4.11,103137.5
122,SELL,ST_FLIP_GREEN,2025-11-10T14:00:00,2025-11-10T16:00:00,short,105337.5,105937.5,100,0.1,10533.75,100.0,-60,-64.11,-5385.24,-0.06,0,0.0,600,0.57,9478.58,796200.72,9.48,1053.38,0.1,4,2.0,0.01,0,0.0,4.11,105737.5
123,BUY,ST_FLIP_RED,2025-11-10T16:00:00,2025-11-11T04:00:00,long,105937.5,105337.5,100,0.1,10593.75,100.0,-60,-64.11,-5385.24,-0.06,0,0.0,600,0.57,9414.47,790815.48,9.41,1059.38,0.1,4,2.0,0.01,0,0.0,4.11,105537.5
124,SELL,ST_FLIP_GREEN,2025-11-11T04:00:00,2025-11-12T08:00:00,short,105337.5,103737.5,100,0.1,10533.75,100.0,160,155.89,13094.76,0.16,1600,1.52,0,0.0,9570.36,803910.24,9.57,1053.38,0.1,4,2.0,0.01,0,0.0,4.11,105737.5
125,BUY,ST_FLIP_RED,2025-11-12T08:00:00,2025-11-12T14:00:00,long,103737.5,103937.5,100,0.1,10373.75,100.0,20,15.89,1334.76,0.02,200,0.19,0,0.0,9586.25,805245.0,9.59,1037.38,0.1,4,2.0,0.01,0,0.0,4.11,103337.5
126,SELL,ST_FLIP_GREEN,2025-11-12T14:00:00,2025-11-13T04:00:00,short,103937.5,102337.5,100,0.1,10393.75,100.0,160,155.89,13094.76,0.16,1600,1.54,0,0.0,9742.14,818339.76,9.74,1039.38,0.1,4,2.0,0.01,0,0.0,4.11,104337.5
127,BUY,ST_FLIP_RED,2025-11-13T04:00:00,2025-11-13T12:00:00,long,102337.5,102337.5,100,0.1,10233.75,100.0,0,-4.11,-345.24,-0.0,0,0.0,0,0.0,9738.03,817994.52,9.74,1023.38,0.1,4,2.0,0.01,0,0.0,4.11,101937.5
128,SELL,ST_FLIP_GREEN,2025-11-13T12:00:00,2025-11-13T22:00:00,short,102337.5,99737.5,100,0.1,10233.75,100.0,260,255.89,21494.76,0.26,2600,2.54,0,0.0,9993.92,839489.28,9.99,1023.38,0.1,4,2.0,0.01,0,0.0,4.11,102737.5
129,BUY,ST_FLIP_RED,2025-11-13T22:00:00,2025-11-14T04:00:00,long,99737.5,98737.5,100,0.1,9973.75,100.0,-100,-104.11,-8745.24,-0.1,0,0.0,1000,1.0,9889.81,830744.04,9.89,997.38,0.1,4,2.0,0.01,0,0.0,4.11,99337.5
130,SELL,ST_FLIP_GREEN,2025-11-14T04:00:00,2025-11-14T14:00:00,short,98737.5,96337.5,100,0.1,9873.75,100.0,240,235.89,19814.76,0.24,2400,2.43,0,0.0,10125.7,850558.8,10.13,987.38,0.1,4,2.0,0.01,0,0.0,4.11,99137.5
131,BUY,ST_FLIP_RED,2025-11-14T14:00:00,2025-11-14T16:00:00,long,96337.5,95937.5,100,0.1,9633.75,100.0,-40,-44.11,-3705.24,-0.04,0,0.0,400,0.42,10081.59,846853.56,10.08,963.38,0.1,4,2.0,0.01,0,0.0,4.11,95937.5
132,SELL,ST_FLIP_GREEN,2025-11-14T16:00:00,2025-11-15T00:00:00,short,95937.5,95737.5,100,0.1,9593.75,100.0,20,15.89,1334.76,0.02,200,0.21,0,0.0,10097.48,848188.32,10.1,959.38,0.1,4,2.0,0.01,0,0.0,4.11,96337.5
133,BUY,ST_FLIP_RED,2025-11-15T00:00:00,2025-11-15T20:00:00,long,95737.5,95337.5,100,0.1,9573.75,100.0,-40,-44.11,-3705.24,-0.04,0,0.0,400,0.42,10053.37,844483.08,10.05,957.38,0.1,4,2.0,0.01,0,0.0,4.11,95337.5
134,SELL,ST_FLIP_GREEN,2025-11-15T20:00:00,2025-11-16T08:00:00,short,95337.5,96337.5,100,0.1,9533.75,100.0,-100,-104.11,-8745.24,-0.1,0,0.0,1000,1.05,9949.26,835737.84,9.95,953.38,0.1,4,2.0,0.01,0,0.0,4.11,95737.5
135,BUY,ST_FLIP_RED,2025-11-17T00:00:00,2025-11-17T12:00:00,long,94537.5,94537.5,100,0.1,9453.75,100.0,0,-4.11,-345.24,-0.0,0,0.0,0,0.0,9945.15,835392.6,9.95,945.38,0.1,4,2.0,0.01,0,0.0,4.11,94137.5
136,SELL,ST_FLIP_GREEN,2025-11-17T12:00:00,2025-11-18T08:00:00,short,94537.5,91337.5,100,0.1,9453.75,100.0,320,315.89,26534.76,0.32,3200,3.38,0,0.0,10261.04,861927.36,10.26,945.38,0.1,4,2.0,0.01,0,0.0,4.11,94937.5
137,BUY,ST_FLIP_RED,2025-11-18T08:00:00,2025-11-19T02:00:00,long,91337.5,92137.5,100,0.1,9133.75,100.0,80,75.89,6374.76,0.08,800,0.88,0,0.0,10336.93,868302.12,10.34,913.38,0.1,4,2.0,0.01,0,0.0,4.11,90937.5
138,SELL,ST_FLIP_GREEN,2025-11-19T02:00:00,2025-11-19T06:00:00,short,92137.5,91537.5,100,0.1,9213.75,100.0,60,55.89,4694.76,0.06,600,0.65,0,0.0,10392.82,872996.88,10.39,921.38,0.1,4,2.0,0.01,0,0.0,4.11,92537.5
139,BUY,ST_FLIP_RED,2025-11-19T06:00:00,2025-11-19T14:00:00,long,91537.5,90937.5,100,0.1,9153.75,100.0,-60,-64.11,-5385.24,-0.06,0,0.0,600,0.66,10328.71,867611.64,10.33,915.38,0.1,4,2.0,0.01,0,0.0,4.11,91137.5
140,SELL,ST_FLIP_GREEN,2025-11-19T14:00:00,2025-11-19T20:00:00,short,90937.5,89937.5,100,0.1,9093.75,100.0,100,95.89,8054.76,0.1,1000,1.1,0,0.0,10424.6,875666.4,10.42,909.38,0.1,4,2.0,0.01,0,0.0,4.11,91337.5
141,BUY,ST_FLIP_RED,2025-11-19T20:00:00,2025-11-20T12:00:00,long,89937.5,91537.5,100,0.1,8993.75,100.0,160,155.89,13094.76,0.16,1600,1.78,0,0.0,10580.49,888761.16,10.58,899.38,0.1,4,2.0,0.01,0,0.0,4.11,89537.5
142,SELL,ST_FLIP_GREEN,2025-11-20T12:00:00,2025-11-21T12:00:00,short,91537.5,83337.5,100,0.1,9153.75,100.0,820,815.89,68534.76,0.82,8200,8.96,0,0.0,11396.38,957295.92,11.4,915.38,0.1,4,2.0,0.01,0,0.0,4.11,91937.5
143,BUY,ST_FLIP_RED,2025-11-21T12:00:00,2025-11-21T14:00:00,long,83337.5,83137.5,100,0.1,8333.75,100.0,-20,-24.11,-2025.24,-0.02,0,0.0,200,0.24,11372.27,955270.68,11.37,833.38,0.1,4,2.0,0.01,0,0.0,4.11,82937.5
144,SELL,ST_FLIP_GREEN,2025-11-21T14:00:00,2025-11-21T16:00:00,short,83137.5,83737.5,100,0.1,8313.75,100.0,-60,-64.11,-5385.24,-0.06,0,0.0,600,0.72,11308.16,949885.44,11.31,831.38,0.1,4,2.0,0.01,0,0.0,4.11,83537.5
145,BUY,ST_FLIP_RED,2025-11-21T16:00:00,2025-11-22T08:00:00,long,83737.5,84137.5,100,0.1,8373.75,100.0,40,35.89,3014.76,0.04,400,0.48,0,0.0,11344.05,952900.2,11.34,837.38,0.1,4,2.0,0.01,0,0.0,4.11,83337.5
146,BUY,ST_FLIP_RED,2025-11-23T00:00:00,2025-11-23T22:00:00,long,84937.5,86937.5,100,0.1,8493.75,100.0,200,195.89,16454.76,0.2,2000,2.35,0,0.0,11539.94,969354.96,11.54,849.38,0.1,4,2.0,0.01,0,0.0,4.11,84537.5
147,SELL,ST_FLIP_GREEN,2025-11-23T22:00:00,2025-11-24T16:00:00,short,86937.5,86937.5,100,0.1,8693.75,100.0,0,-4.11,-345.24,-0.0,0,0.0,0,0.0,11535.83,969009.72,11.54,869.38,0.1,4,2.0,0.01,0,0.0,4.11,87337.5
148,BUY,ST_FLIP_RED,2025-11-24T16:00:00,2025-11-25T00:00:00,long,86937.5,87537.5,100,0.1,8693.75,100.0,60,55.89,4694.76,0.06,600,0.69,0,0.0,11591.72,973704.48,11.59,869.38,0.1,4,2.0,0.01,0,0.0,4.11,86537.5
149,SELL,ST_FLIP_GREEN,2025-11-25T00:00:00,2025-11-26T16:00:00,short,87537.5,87937.5,100,0.1,8753.75,100.0,-40,-44.11,-3705.24,-0.04,0,0.0,400,0.46,11547.61,969999.24,11.55,875.38,0.1,4,2.0,0.01,0,0.0,4.11,87937.5
150,SELL,ST_FLIP_GREEN,2025-11-28T16:00:00,2025-11-30T12:00:00,short,91337.5,91537.5,100,0.1,9133.75,100.0,-20,-24.11,-2025.24,-0.02,0,0.0,200,0.22,11523.5,967974.0,11.52,913.38,0.1,4,2.0,0.01,0,0.0,4.11,91737.5
151,BUY,ST_FLIP_RED,2025-12-01T20:00:00,2025-12-03T14:00:00,long,85737.5,92537.5,100,0.1,8573.75,100.0,680,675.89,56774.76,0.68,6800,7.93,0,0.0,12199.39,1024748.76,12.2,857.38,0.1,4,2.0,0.01,0,0.0,4.11,85337.5
152,SELL,ST_FLIP_GREEN,2025-12-03T14:00:00,2025-12-03T20:00:00,short,92537.5,93537.5,100,0.1,9253.75,100.0,-100,-104.11,-8745.24,-0.1,0,0.0,1000,1.08,12095.28,1016003.52,12.1,925.38,0.1,4,2.0,0.01,0,0.0,4.11,92937.5
153,BUY,ST_FLIP_RED,2025-12-03T20:00:00,2025-12-04T16:00:00,long,93537.5,92337.5,100,0.1,9353.75,100.0,-120,-124.11,-10425.24,-0.12,0,0.0,1200,1.28,11971.17,1005578.28,11.97,935.38,0.1,4,2.0,0.01,0,0.0,4.11,93137.5
154,SELL,ST_FLIP_GREEN,2025-12-04T16:00:00,2025-12-07T16:00:00,short,92337.5,90137.5,100,0.1,9233.75,100.0,220,215.89,18134.76,0.22,2200,2.38,0,0.0,12187.06,1023713.04,12.19,923.38,0.1,4,2.0,0.01,0,0.0,4.11,92737.5
155,BUY,ST_FLIP_RED,2025-12-07T16:00:00,2025-12-07T20:00:00,long,90137.5,90337.5,100,0.1,9013.75,100.0,20,15.89,1334.76,0.02,200,0.22,0,0.0,12202.95,1025047.8,12.2,901.38,0.1,4,2.0,0.01,0,0.0,4.11,89737.5
156,SELL,ST_FLIP_GREEN,2025-12-07T20:00:00,2025-12-08T04:00:00,short,90337.5,91137.5,100,0.1,9033.75,100.0,-80,-84.11,-7065.24,-0.08,0,0.0,800,0.89,12118.84,1017982.56,12.12,903.38,0.1,4,2.0,0.01,0,0.0,4.11,90737.5
157,BUY,ST_FLIP_RED,2025-12-08T04:00:00,2025-12-08T14:00:00,long,91137.5,90737.5,100,0.1,9113.75,100.0,-40,-44.11,-3705.24,-0.04,0,0.0,400,0.44,12074.73,1014277.32,12.07,911.38,0.1,4,2.0,0.01,0,0.0,4.11,90737.5
158,SELL,ST_FLIP_GREEN,2025-12-08T14:00:00,2025-12-08T20:00:00,short,90737.5,90737.5,100,0.1,9073.75,100.0,0,-4.11,-345.24,-0.0,0,0.0,0,0.0,12070.62,1013932.08,12.07,907.38,0.1,4,2.0,0.01,0,0.0,4.11,91137.5
159,BUY,ST_FLIP_RED,2025-12-08T20:00:00,2025-12-09T00:00:00,long,90737.5,90137.5,100,0.1,9073.75,100.0,-60,-64.11,-5385.24,-0.06,0,0.0,600,0.66,12006.51,1008546.84,12.01,907.38,0.1,4,2.0,0.01,0,0.0,4.11,90337.5
160,SELL,ST_FLIP_GREEN,2025-12-09T00:00:00,2025-12-09T14:00:00,short,90137.5,90937.5,100,0.1,9013.75,100.0,-80,-84.11,-7065.24,-0.08,0,0.0,800,0.89,11922.4,1001481.6,11.92,901.38,0.1,4,2.0,0.01,0,0.0,4.11,90537.5
161,BUY,ST_FLIP_RED,2025-12-09T14:00:00,2025-12-09T20:00:00,long,90937.5,92737.5,100,0.1,9093.75,100.0,180,175.89,14774.76,0.18,1800,1.98,0,0.0,12098.29,1016256.36,12.1,909.38,0.1,4,2.0,0.01,0,0.0,4.11,90537.5
162,SELL,ST_FLIP_GREEN,2025-12-09T20:00:00,2025-12-11T18:00:00,short,92737.5,90937.5,100,0.1,9273.75,100.0,180,175.89,14774.76,0.18,1800,1.94,0,0.0,12274.18,1031031.12,12.27,927.38,0.1,4,2.0,0.01,0,0.0,4.11,93137.5
163,BUY,ST_FLIP_RED,2025-12-11T18:00:00,2025-12-12T14:00:00,long,90937.5,91737.5,100,0.1,9093.75,100.0,80,75.89,6374.76,0.08,800,0.88,0,0.0,12350.07,1037405.88,12.35,909.38,0.1,4,2.0,0.01,0,0.0,4.11,90537.5
164,SELL,ST_FLIP_GREEN,2025-12-12T14:00:00,2025-12-15T00:00:00,short,91737.5,89137.5,100,0.1,9173.75,100.0,260,255.89,21494.76,0.26,2600,2.83,0,0.0,12605.96,1058900.64,12.61,917.38,0.1,4,2.0,0.01,0,0.0,4.11,92137.5
165,BUY,ST_FLIP_RED,2025-12-15T00:00:00,2025-12-15T14:00:00,long,89137.5,88737.5,100,0.1,8913.75,100.0,-40,-44.11,-3705.24,-0.04,0,0.0,400,0.45,12561.85,1055195.4,12.56,891.38,0.1,4,2.0,0.01,0,0.0,4.11,88737.5
166,SELL,ST_FLIP_GREEN,2025-12-15T14:00:00,2025-12-16T10:00:00,short,88737.5,86937.5,100,0.1,8873.75,100.0,180,175.89,14774.76,0.18,1800,2.03,0,0.0,12737.74,1069970.16,12.74,887.38,0.1,4,2.0,0.01,0,0.0,4.11,89137.5
167,SELL,ST_FLIP_GREEN,2025-12-16T16:00:00,2025-12-18T08:00:00,short,87137.5,87137.5,100,0.1,8713.75,100.0,0,-4.11,-345.24,-0.0,0,0.0,0,0.0,12733.63,1069624.92,12.73,871.38,0.1,4,2.0,0.01,0,0.0,4.11,87537.5
168,BUY,ST_FLIP_RED,2025-12-18T08:00:00,2025-12-18T16:00:00,long,87137.5,87737.5,100,0.1,8713.75,100.0,60,55.89,4694.76,0.06,600,0.69,0,0.0,12789.52,1074319.68,12.79,871.38,0.1,4,2.0,0.01,0,0.0,4.11,86737.5
169,SELL,ST_FLIP_GREEN,2025-12-18T16:00:00,2025-12-18T20:00:00,short,87737.5,85537.5,100,0.1,8773.75,100.0,220,215.89,18134.76,0.22,2200,2.51,0,0.0,13005.41,1092454.44,13.01,877.38,0.1,4,2.0,0.01,0,0.0,4.11,88137.5
170,BUY,ST_FLIP_RED,2025-12-18T20:00:00,2025-12-19T16:00:00,long,85537.5,87137.5,100,0.1,8553.75,100.0,160,155.89,13094.76,0.16,1600,1.87,0,0.0,13161.3,1105549.2,13.16,855.38,0.1,4,2.0,0.01,0,0.0,4.11,85137.5
171,SELL,ST_FLIP_GREEN,2025-12-19T16:00:00,2025-12-19T18:00:00,short,87137.5,87737.5,100,0.1,8713.75,100.0,-60,-64.11,-5385.24,-0.06,0,0.0,600,0.69,13097.19,1100163.96,13.1,871.38,0.1,4,2.0,0.01,0,0.0,4.11,87537.5
172,BUY,ST_FLIP_RED,2025-12-19T18:00:00,2025-12-21T12:00:00,long,87737.5,87737.5,100,0.1,8773.75,100.0,0,-4.11,-345.24,-0.0,0,0.0,0,0.0,13093.08,1099818.72,13.09,877.38,0.1,4,2.0,0.01,0,0.0,4.11,87337.5
173,SELL,ST_FLIP_GREEN,2025-12-21T12:00:00,2025-12-21T22:00:00,short,87737.5,88537.5,100,0.1,8773.75,100.0,-80,-84.11,-7065.24,-0.08,0,0.0,800,0.91,13008.97,1092753.48,13.01,877.38,0.1,4,2.0,0.01,0,0.0,4.11,88137.5
174,BUY,ST_FLIP_RED,2025-12-21T22:00:00,2025-12-22T18:00:00,long,88537.5,88737.5,100,0.1,8853.75,100.0,20,15.89,1334.76,0.02,200,0.23,0,0.0,13024.86,1094088.24,13.02,885.38,0.1,4,2.0,0.01,0,0.0,4.11,88137.5
175,SELL,ST_FLIP_GREEN,2025-12-22T18:00:00,2025-12-25T14:00:00,short,88737.5,88137.5,100,0.1,8873.75,100.0,60,55.89,4694.76,0.06,600,0.68,0,0.0,13080.75,1098783.0,13.08,887.38,0.1,4,2.0,0.01,0,0.0,4.11,89137.5
176,SELL,ST_FLIP_GREEN,2025-12-25T22:00:00,2025-12-26T02:00:00,short,87337.5,88137.5,100,0.1,8733.75,100.0,-80,-84.11,-7065.24,-0.08,0,0.0,800,0.92,12996.64,1091717.76,13.0,873.38,0.1,4,2.0,0.01,0,0.0,4.11,87737.5
177,BUY,ST_FLIP_RED,2025-12-26T02:00:00,2025-12-26T14:00:00,long,88137.5,87937.5,100,0.1,8813.75,100.0,-20,-24.11,-2025.24,-0.02,0,0.0,200,0.23,12972.53,1089692.52,12.97,881.38,0.1,4,2.0,0.01,0,0.0,4.11,87737.5
178,BUY,ST_FLIP_RED,2025-12-28T22:00:00,2025-12-29T08:00:00,long,87937.5,88937.5,100,0.1,8793.75,100.0,100,95.89,8054.76,0.1,1000,1.14,0,0.0,13068.42,1097747.28,13.07,879.38,0.1,4,2.0,0.01,0,0.0,4.11,87537.5
179,SELL,ST_FLIP_GREEN,2025-12-29T08:00:00,2025-12-30T14:00:00,short,88937.5,88337.5,100,0.1,8893.75,100.0,60,55.89,4694.76,0.06,600,0.67,0,0.0,13124.31,1102442.04,13.12,889.38,0.1,4,2.0,0.01,0,0.0,4.11,89337.5
180,BUY,ST_FLIP_RED,2025-12-30T14:00:00,2025-12-31T14:00:00,long,88337.5,87937.5,100,0.1,8833.75,100.0,-40,-44.11,-3705.24,-0.04,0,0.0,400,0.45,13080.2,1098736.8,13.08,883.38,0.1,4,2.0,0.01,0,0.0,4.11,87937.5
181,BUY,ST_FLIP_RED,2026-01-01T22:00:00,2026-01-06T16:00:00,long,88537.5,93137.5,100,0.1,8853.75,100.0,460,455.89,38294.76,0.46,4600,5.2,0,0.0,13536.09,1137031.56,13.54,885.38,0.1,4,2.0,0.01,0,0.0,4.11,88137.5
182,SELL,ST_FLIP_GREEN,2026-01-06T16:00:00,2026-01-06T20:00:00,short,93137.5,92537.5,100,0.1,9313.75,100.0,60,55.89,4694.76,0.06,600,0.64,0,0.0,13591.98,1141726.32,13.59,931.38,0.1,4,2.0,0.01,0,0.0,4.11,93537.5
183,BUY,ST_FLIP_RED,2026-01-06T20:00:00,2026-01-07T00:00:00,long,92537.5,92537.5,100,0.1,9253.75,100.0,0,-4.11,-345.24,-0.0,0,0.0,0,0.0,13587.87,1141381.08,13.59,925.38,0.1,4,2.0,0.01,0,0.0,4.11,92137.5
184,SELL,ST_FLIP_GREEN,2026-01-07T00:00:00,2026-01-08T16:00:00,short,92537.5,91137.5,100,0.1,9253.75,100.0,140,135.89,11414.76,0.14,1400,1.51,0,0.0,13723.76,1152795.84,13.72,925.38,0.1,4,2.0,0.01,0,0.0,4.11,92937.5
185,BUY,ST_FLIP_RED,2026-01-08T16:00:00,2026-01-09T18:00:00,long,91137.5,90137.5,100,0.1,9113.75,100.0,-100,-104.11,-8745.24,-0.1,0,0.0,1000,1.1,13619.65,1144050.6,13.62,911.38,0.1,4,2.0,0.01,0,0.0,4.11,90737.5
186,SELL,ST_FLIP_GREEN,2026-01-12T08:00:00,2026-01-12T14:00:00,short,90937.5,91737.5,100,0.1,9093.75,100.0,-80,-84.11,-7065.24,-0.08,0,0.0,800,0.88,13535.54,1136985.36,13.54,909.38,0.1,4,2.0,0.01,0,0.0,4.11,91337.5
187,BUY,ST_FLIP_RED,2026-01-12T14:00:00,2026-01-15T02:00:00,long,91737.5,96337.5,100,0.1,9173.75,100.0,460,455.89,38294.76,0.46,4600,5.01,0,0.0,13991.43,1175280.12,13.99,917.38,0.1,4,2.0,0.01,0,0.0,4.11,91337.5
188,SELL,ST_FLIP_GREEN,2026-01-15T02:00:00,2026-01-21T04:00:00,short,96337.5,89537.5,100,0.1,9633.75,100.0,680,675.89,56774.76,0.68,6800,7.06,0,0.0,14667.32,1232054.88,14.67,963.38,0.1,4,2.0,0.01,0,0.0,4.11,96737.5
189,BUY,ST_FLIP_RED,2026-01-21T04:00:00,2026-01-21T12:00:00,long,89537.5,88737.5,100,0.1,8953.75,100.0,-80,-84.11,-7065.24,-0.08,0,0.0,800,0.89,14583.21,1224989.64,14.58,895.38,0.1,4,2.0,0.01,0,0.0,4.11,89137.5
190,SELL,ST_FLIP_GREEN,2026-01-21T12:00:00,2026-01-21T14:00:00,short,88737.5,89937.5,100,0.1,8873.75,100.0,-120,-124.11,-10425.24,-0.12,0,0.0,1200,1.35,14459.1,1214564.4,14.46,887.38,0.1,4,2.0,0.01,0,0.0,4.11,89137.5
191,SELL,ST_FLIP_GREEN,2026-01-21T16:00:00,2026-01-21T18:00:00,short,89337.5,88737.5,100,0.1,8933.75,100.0,60,55.89,4694.76,0.06,600,0.67,0,0.0,14514.99,1219259.16,14.51,893.38,0.1,4,2.0,0.01,0,0.0,4.11,89737.5
192,BUY,ST_FLIP_RED,2026-01-21T18:00:00,2026-01-21T22:00:00,long,88737.5,89337.5,100,0.1,8873.75,100.0,60,55.89,4694.76,0.06,600,0.68,0,0.0,14570.88,1223953.92,14.57,887.38,0.1,4,2.0,0.01,0,0.0,4.11,88337.5
193,SELL,ST_FLIP_GREEN,2026-01-21T22:00:00,2026-01-23T16:00:00,short,89337.5,90337.5,100,0.1,8933.75,100.0,-100,-104.11,-8745.24,-0.1,0,0.0,1000,1.12,14466.77,1215208.68,14.47,893.38,0.1,4,2.0,0.01,0,0.0,4.11,89737.5
194,BUY,ST_FLIP_RED,2026-01-26T00:00:00,2026-01-27T16:00:00,long,87537.5,87737.5,100,0.1,8753.75,100.0,20,15.89,1334.76,0.02,200,0.23,0,0.0,14482.66,1216543.44,14.48,875.38,0.1,4,2.0,0.01,0,0.0,4.11,87137.5
195,SELL,ST_FLIP_GREEN,2026-01-27T16:00:00,2026-01-27T18:00:00,short,87737.5,88537.5,100,0.1,8773.75,100.0,-80,-84.11,-7065.24,-0.08,0,0.0,800,0.91,14398.55,1209478.2,14.4,877.38,0.1,4,2.0,0.01,0,0.0,4.11,88137.5
196,BUY,ST_FLIP_RED,2026-01-27T18:00:00,2026-01-29T00:00:00,long,88537.5,89137.5,100,0.1,8853.75,100.0,60,55.89,4694.76,0.06,600,0.68,0,0.0,14454.44,1214172.96,14.45,885.38,0.1,4,2.0,0.01,0,0.0,4.11,88137.5
197,BUY,ST_FLIP_RED,2026-01-30T18:00:00,2026-01-31T06:00:00,long,83337.5,83337.5,100,0.1,8333.75,100.0,0,-4.11,-345.24,-0.0,0,0.0,0,0.0,14450.33,1213827.72,14.45,833.38,0.1,4,2.0,0.01,0,0.0,4.11,82937.5
198,SELL,ST_FLIP_GREEN,2026-01-31T06:00:00,2026-02-01T02:00:00,short,83337.5,78737.5,100,0.1,8333.75,100.0,460,455.89,38294.76,0.46,4600,5.52,0,0.0,14906.22,1252122.48,14.91,833.38,0.1,4,2.0,0.01,0,0.0,4.11,83737.5
199,BUY,ST_FLIP_RED,2026-02-01T02:00:00,2026-02-01T14:00:00,long,78737.5,77937.5,100,0.1,7873.75,100.0,-80,-84.11,-7065.24,-0.08,0,0.0,800,1.02,14822.11,1245057.24,14.82,787.38,0.1,4,2.0,0.01,0,0.0,4.11,78337.5
200,BUY,ST_FLIP_RED,2026-02-02T06:00:00,2026-02-03T16:00:00,long,76537.5,77937.5,100,0.1,7653.75,100.0,140,135.89,11414.76,0.14,1400,1.83,0,0.0,14958.0,1256472.0,14.96,765.38,0.1,4,2.0,0.01,0,0.0,4.11,76137.5
201,SELL,ST_FLIP_GREEN,2026-02-03T16:00:00,2026-02-03T20:00:00,short,77937.5,75937.5,100,0.1,7793.75,100.0,200,195.89,16454.76,0.2,2000,2.57,0,0.0,15153.89,1272926.76,15.15,779.38,0.1,4,2.0,0.01,0,0.0,4.11,78337.5
202,BUY,ST_FLIP_RED,2026-02-03T20:00:00,2026-02-04T12:00:00,long,75937.5,75337.5,100,0.1,7593.75,100.0,-60,-64.11,-5385.24,-0.06,0,0.0,600,0.79,15089.78,1267541.52,15.09,759.38,0.1,4,2.0,0.01,0,0.0,4.11,75537.5
203,BUY,ST_FLIP_RED,2026-02-04T18:00:00,2026-02-04T20:00:00,long,73737.5,72937.5,100,0.1,7373.75,100.0,-80,-84.11,-7065.24,-0.08,0,0.0,800,1.08,15005.67,1260476.28,15.01,737.38,0.1,4,2.0,0.01,0,0.0,4.11,73337.5
204,SELL,ST_FLIP_GREEN,2026-02-04T20:00:00,2026-02-05T08:00:00,short,72937.5,71737.5,100,0.1,7293.75,100.0,120,115.89,9734.76,0.12,1200,1.65,0,0.0,15121.56,1270211.04,15.12,729.38,0.1,4,2.0,0.01,0,0.0,4.11,73337.5
205,BUY,ST_FLIP_RED,2026-02-05T08:00:00,2026-02-05T10:00:00,long,71737.5,70737.5,100,0.1,7173.75,100.0,-100,-104.11,-8745.24,-0.1,0,0.0,1000,1.39,15017.45,1261465.8,15.02,717.38,0.1,4,2.0,0.01,0,0.0,4.11,71337.5
206,SELL,ST_FLIP_GREEN,2026-02-05T10:00:00,2026-02-06T00:00:00,short,70737.5,63937.5,100,0.1,7073.75,100.0,680,675.89,56774.76,0.68,6800,9.61,0,0.0,15693.34,1318240.56,15.69,707.38,0.1,4,2.0,0.01,0,0.0,4.11,71137.5
207,BUY,ST_FLIP_RED,2026-02-06T00:00:00,2026-02-06T02:00:00,long,63937.5,64737.5,100,0.1,6393.75,100.0,80,75.89,6374.76,0.08,800,1.25,0,0.0,15769.23,1324615.32,15.77,639.38,0.1,4,2.0,0.01,0,0.0,4.11,63537.5
208,SELL,ST_FLIP_GREEN,2026-02-06T02:00:00,2026-02-06T04:00:00,short,64737.5,65137.5,100,0.1,6473.75,100.0,-40,-44.11,-3705.24,-0.04,0,0.0,400,0.62,15725.12,1320910.08,15.73,647.38,0.1,4,2.0,0.01,0,0.0,4.11,65137.5
209,BUY,ST_FLIP_RED,2026-02-06T04:00:00,2026-02-06T06:00:00,long,65137.5,65537.5,100,0.1,6513.75,100.0,40,35.89,3014.76,0.04,400,0.61,0,0.0,15761.01,1323924.84,15.76,651.38,0.1,4,2.0,0.01,0,0.0,4.11,64737.5
210,SELL,ST_FLIP_GREEN,2026-02-06T06:00:00,2026-02-06T08:00:00,short,65537.5,65737.5,100,0.1,6553.75,100.0,-20,-24.11,-2025.24,-0.02,0,0.0,200,0.31,15736.9,1321899.6,15.74,655.38,0.1,4,2.0,0.01,0,0.0,4.11,65937.5
211,BUY,ST_FLIP_RED,2026-02-06T08:00:00,2026-02-07T06:00:00,long,65737.5,69737.5,100,0.1,6573.75,100.0,400,395.89,33254.76,0.4,4000,6.08,0,0.0,16132.79,1355154.36,16.13,657.38,0.1,4,2.0,0.01,0,0.0,4.11,65337.5
212,SELL,ST_FLIP_GREEN,2026-02-07T06:00:00,2026-02-07T12:00:00,short,69737.5,69137.5,100,0.1,6973.75,100.0,60,55.89,4694.76,0.06,600,0.86,0,0.0,16188.68,1359849.12,16.19,697.38,0.1,4,2.0,0.01,0,0.0,4.11,70137.5
213,BUY,ST_FLIP_RED,2026-02-07T12:00:00,2026-02-08T22:00:00,long,69137.5,70337.5,100,0.1,6913.75,100.0,120,115.89,9734.76,0.12,1200,1.74,0,0.0,16304.57,1369583.88,16.3,691.38,0.1,4,2.0,0.01,0,0.0,4.11,68737.5
214,BUY,ST_FLIP_RED,2026-02-09T14:00:00,2026-02-10T02:00:00,long,69737.5,69737.5,100,0.1,6973.75,100.0,0,-4.11,-345.24,-0.0,0,0.0,0,0.0,16300.46,1369238.64,16.3,697.38,0.1,4,2.0,0.01,0,0.0,4.11,69337.5
215,SELL,ST_FLIP_GREEN,2026-02-10T02:00:00,2026-02-10T16:00:00,short,69737.5,69537.5,100,0.1,6973.75,100.0,20,15.89,1334.76,0.02,200,0.29,0,0.0,16316.35,1370573.4,16.32,697.38,0.1,4,2.0,0.01,0,0.0,4.11,70137.5
216,BUY,ST_FLIP_RED,2026-02-10T16:00:00,2026-02-10T20:00:00,long,69537.5,68737.5,100,0.1,6953.75,100.0,-80,-84.11,-7065.24,-0.08,0,0.0,800,1.15,16232.24,1363508.16,16.23,695.38,0.1,4,2.0,0.01,0,0.0,4.11,69137.5
217,SELL,ST_FLIP_GREEN,2026-02-10T20:00:00,2026-02-11T18:00:00,short,68737.5,67537.5,100,0.1,6873.75,100.0,120,115.89,9734.76,0.12,1200,1.75,0,0.0,16348.13,1373242.92,16.35,687.38,0.1,4,2.0,0.01,0,0.0,4.11,69137.5
218,BUY,ST_FLIP_RED,2026-02-13T08:00:00,2026-02-14T12:00:00,long,66537.5,69337.5,100,0.1,6653.75,100.0,280,275.89,23174.76,0.28,2800,4.21,0,0.0,16624.02,1396417.68,16.62,665.38,0.1,4,2.0,0.01,0,0.0,4.11,66137.5
219,SELL,ST_FLIP_GREEN,2026-02-14T12:00:00,2026-02-15T06:00:00,short,69337.5,70337.5,100,0.1,6933.75,100.0,-100,-104.11,-8745.24,-0.1,0,0.0,1000,1.44,16519.91,1387672.44,16.52,693.38,0.1,4,2.0,0.01,0,0.0,4.11,69737.5
220,BUY,ST_FLIP_RED,2026-02-15T06:00:00,2026-02-15T12:00:00,long,70337.5,69737.5,100,0.1,7033.75,100.0,-60,-64.11,-5385.24,-0.06,0,0.0,600,0.85,16455.8,1382287.2,16.46,703.38,0.1,4,2.0,0.01,0,0.0,4.11,69937.5
221,SELL,ST_FLIP_GREEN,2026-02-15T12:00:00,2026-02-16T20:00:00,short,69737.5,68537.5,100,0.1,6973.75,100.0,120,115.89,9734.76,0.12,1200,1.72,0,0.0,16571.69,1392021.96,16.57,697.38,0.1,4,2.0,0.01,0,0.0,4.11,70137.5
222,BUY,ST_FLIP_RED,2026-02-16T20:00:00,2026-02-17T10:00:00,long,68537.5,67937.5,100,0.1,6853.75,100.0,-60,-64.11,-5385.24,-0.06,0,0.0,600,0.88,16507.58,1386636.72,16.51,685.38,0.1,4,2.0,0.01,0,0.0,4.11,68137.5
223,SELL,ST_FLIP_GREEN,2026-02-17T10:00:00,2026-02-20T00:00:00,short,67937.5,67137.5,100,0.1,6793.75,100.0,80,75.89,6374.76,0.08,800,1.18,0,0.0,16583.47,1393011.48,16.58,679.38,0.1,4,2.0,0.01,0,0.0,4.11,68337.5
224,SELL,ST_FLIP_GREEN,2026-02-20T10:00:00,2026-02-20T22:00:00,short,67137.5,67937.5,100,0.1,6713.75,100.0,-80,-84.11,-7065.24,-0.08,0,0.0,800,1.19,16499.36,1385946.24,16.5,671.38,0.1,4,2.0,0.01,0,0.0,4.11,67537.5
225,BUY,ST_FLIP_RED,2026-02-20T22:00:00,2026-02-22T16:00:00,long,67937.5,67537.5,100,0.1,6793.75,100.0,-40,-44.11,-3705.24,-0.04,0,0.0,400,0.59,16455.25,1382241.0,16.46,679.38,0.1,4,2.0,0.01,0,0.0,4.11,67537.5
226,SELL,ST_FLIP_GREEN,2026-02-22T16:00:00,2026-02-23T06:00:00,short,67537.5,65537.5,100,0.1,6753.75,100.0,200,195.89,16454.76,0.2,2000,2.96,0,0.0,16651.14,1398695.76,16.65,675.38,0.1,4,2.0,0.01,0,0.0,4.11,67937.5
227,BUY,ST_FLIP_RED,2026-02-23T06:00:00,2026-02-23T16:00:00,long,65537.5,65337.5,100,0.1,6553.75,100.0,-20,-24.11,-2025.24,-0.02,0,0.0,200,0.31,16627.03,1396670.52,16.63,655.38,0.1,4,2.0,0.01,0,0.0,4.11,65137.5
228,SELL,ST_FLIP_GREEN,2026-02-23T16:00:00,2026-02-24T14:00:00,short,65337.5,63937.5,100,0.1,6533.75,100.0,140,135.89,11414.76,0.14,1400,2.14,0,0.0,16762.92,1408085.28,16.76,653.38,0.1,4,2.0,0.01,0,0.0,4.11,65737.5
229,BUY,ST_FLIP_RED,2026-02-24T14:00:00,2026-02-25T04:00:00,long,63937.5,64737.5,100,0.1,6393.75,100.0,80,75.89,6374.76,0.08,800,1.25,0,0.0,16838.81,1414460.04,16.84,639.38,0.1,4,2.0,0.01,0,0.0,4.11,63537.5
230,SELL,ST_FLIP_GREEN,2026-02-25T04:00:00,2026-02-25T12:00:00,short,64737.5,65737.5,100,0.1,6473.75,100.0,-100,-104.11,-8745.24,-0.1,0,0.0,1000,1.54,16734.7,1405714.8,16.73,647.38,0.1,4,2.0,0.01,0,0.0,4.11,65137.5
231,BUY,ST_FLIP_RED,2026-02-25T12:00:00,2026-02-25T22:00:00,long,65737.5,67937.5,100,0.1,6573.75,100.0,220,215.89,18134.76,0.22,2200,3.35,0,0.0,16950.59,1423849.56,16.95,657.38,0.1,4,2.0,0.01,0,0.0,4.11,65337.5
232,SELL,ST_FLIP_GREEN,2026-02-25T22:00:00,2026-02-28T12:00:00,short,67937.5,64737.5,100,0.1,6793.75,100.0,320,315.89,26534.76,0.32,3200,4.71,0,0.0,17266.48,1450384.32,17.27,679.38,0.1,4,2.0,0.01,0,0.0,4.11,68337.5
233,BUY,ST_FLIP_RED,2026-02-28T12:00:00,2026-03-01T08:00:00,long,64737.5,66337.5,100,0.1,6473.75,100.0,160,155.89,13094.76,0.16,1600,2.47,0,0.0,17422.37,1463479.08,17.42,647.38,0.1,4,2.0,0.01,0,0.0,4.11,64337.5
234,SELL,ST_FLIP_GREEN,2026-03-01T08:00:00,2026-03-02T14:00:00,short,66337.5,66737.5,100,0.1,6633.75,100.0,-40,-44.11,-3705.24,-0.04,0,0.0,400,0.6,17378.26,1459773.84,17.38,663.38,0.1,4,2.0,0.01,0,0.0,4.11,66737.5
235,SELL,ST_FLIP_GREEN,2026-03-03T04:00:00,2026-03-03T14:00:00,short,68337.5,67737.5,100,0.1,6833.75,100.0,60,55.89,4694.76,0.06,600,0.88,0,0.0,17434.15,1464468.6,17.43,683.38,0.1,4,2.0,0.01,0,0.0,4.11,68737.5
236,BUY,ST_FLIP_RED,2026-03-03T14:00:00,2026-03-04T22:00:00,long,67737.5,72537.5,100,0.1,6773.75,100.0,480,475.89,39974.76,0.48,4800,7.09,0,0.0,17910.04,1504443.36,17.91,677.38,0.1,4,2.0,0.01,0,0.0,4.11,67337.5
237,SELL,ST_FLIP_GREEN,2026-03-04T22:00:00,2026-03-09T02:00:00,short,72537.5,67137.5,100,0.1,7253.75,100.0,540,535.89,45014.76,0.54,5400,7.44,0,0.0,18445.93,1549458.12,18.45,725.38,0.1,4,2.0,0.01,0,0.0,4.11,72937.5
238,BUY,ST_FLIP_RED,2026-03-09T02:00:00,2026-03-10T12:00:00,long,67137.5,69937.5,100,0.1,6713.75,100.0,280,275.89,23174.76,0.28,2800,4.17,0,0.0,18721.82,1572632.88,18.72,671.38,0.1,4,2.0,0.01,0,0.0,4.11,66737.5
239,SELL,ST_FLIP_GREEN,2026-03-10T12:00:00,2026-03-10T14:00:00,short,69937.5,70737.5,100,0.1,6993.75,100.0,-80,-84.11,-7065.24,-0.08,0,0.0,800,1.14,18637.71,1565567.64,18.64,699.38,0.1,4,2.0,0.01,0,0.0,4.11,70337.5
240,BUY,ST_FLIP_RED,2026-03-10T14:00:00,2026-03-10T18:00:00,long,70737.5,70337.5,100,0.1,7073.75,100.0,-40,-44.11,-3705.24,-0.04,0,0.0,400,0.57,18593.6,1561862.4,18.59,707.38,0.1,4,2.0,0.01,0,0.0,4.11,70337.5
241,SELL,ST_FLIP_GREEN,2026-03-10T18:00:00,2026-03-11T12:00:00,short,70337.5,70337.5,100,0.1,7033.75,100.0,0,-4.11,-345.24,-0.0,0,0.0,0,0.0,18589.49,1561517.16,18.59,703.38,0.1,4,2.0,0.01,0,0.0,4.11,70737.5
242,BUY,ST_FLIP_RED,2026-03-11T12:00:00,2026-03-12T02:00:00,long,70337.5,69737.5,100,0.1,7033.75,100.0,-60,-64.11,-5385.24,-0.06,0,0.0,600,0.85,18525.38,1556131.92,18.53,703.38,0.1,4,2.0,0.01,0,0.0,4.11,69937.5
243,SELL,ST_FLIP_GREEN,2026-03-12T02:00:00,2026-03-12T10:00:00,short,69737.5,70537.5,100,0.1,6973.75,100.0,-80,-84.11,-7065.24,-0.08,0,0.0,800,1.15,18441.27,1549066.68,18.44,697.38,0.1,4,2.0,0.01,0,0.0,4.11,70137.5
244,BUY,ST_FLIP_RED,2026-03-12T10:00:00,2026-03-13T14:00:00,long,70537.5,72337.5,100,0.1,7053.75,100.0,180,175.89,14774.76,0.18,1800,2.55,0,0.0,18617.16,1563841.44,18.62,705.38,0.1,4,2.0,0.01,0,0.0,4.11,70137.5
245,SELL,ST_FLIP_GREEN,2026-03-13T14:00:00,2026-03-15T08:00:00,short,72337.5,71537.5,100,0.1,7233.75,100.0,80,75.89,6374.76,0.08,800,1.11,0,0.0,18693.05,1570216.2,18.69,723.38,0.1,4,2.0,0.01,0,0.0,4.11,72737.5
246,BUY,ST_FLIP_RED,2026-03-15T08:00:00,2026-03-16T14:00:00,long,71537.5,73137.5,100,0.1,7153.75,100.0,160,155.89,13094.76,0.16,1600,2.24,0,0.0,18848.94,1583310.96,18.85,715.38,0.1,4,2.0,0.01,0,0.0,4.11,71137.5
247,SELL,ST_FLIP_GREEN,2026-03-16T14:00:00,2026-03-16T20:00:00,short,73137.5,74337.5,100,0.1,7313.75,100.0,-120,-124.11,-10425.24,-0.12,0,0.0,1200,1.64,18724.83,1572885.72,18.72,731.38,0.1,4,2.0,0.01,0,0.0,4.11,73537.5
248,SELL,ST_FLIP_GREEN,2026-03-17T02:00:00,2026-03-20T00:00:00,short,74537.5,70537.5,100,0.1,7453.75,100.0,400,395.89,33254.76,0.4,4000,5.37,0,0.0,19120.72,1606140.48,19.12,745.38,0.1,4,2.0,0.01,0,0.0,4.11,74937.5
249,BUY,ST_FLIP_RED,2026-03-20T00:00:00,2026-03-21T22:00:00,long,70537.5,69537.5,100,0.1,7053.75,100.0,-100,-104.11,-8745.24,-0.1,0,0.0,1000,1.42,19016.61,1597395.24,19.02,705.38,0.1,4,2.0,0.01,0,0.0,4.11,70137.5
250,SELL,ST_FLIP_GREEN,2026-03-21T22:00:00,2026-03-23T10:00:00,short,69537.5,69137.5,100,0.1,6953.75,100.0,40,35.89,3014.76,0.04,400,0.58,0,0.0,19052.5,1600410.0,19.05,695.38,0.1,4,2.0,0.01,0,0.0,4.11,69937.5
251,BUY,ST_FLIP_RED,2026-03-23T10:00:00,2026-03-23T14:00:00,long,69137.5,70337.5,100,0.1,6913.75,100.0,120,115.89,9734.76,0.12,1200,1.74,0,0.0,19168.39,1610144.76,19.17,691.38,0.1,4,2.0,0.01,0,0.0,4.11,68737.5
252,SELL,ST_FLIP_GREEN,2026-03-23T14:00:00,2026-03-23T16:00:00,short,70337.5,70937.5,100,0.1,7033.75,100.0,-60,-64.11,-5385.24,-0.06,0,0.0,600,0.85,19104.28,1604759.52,19.1,703.38,0.1,4,2.0,0.01,0,0.0,4.11,70737.5
253,BUY,ST_FLIP_RED,2026-03-23T16:00:00,2026-03-24T12:00:00,long,70937.5,70137.5,100,0.1,7093.75,100.0,-80,-84.11,-7065.24,-0.08,0,0.0,800,1.13,19020.17,1597694.28,19.02,709.38,0.1,4,2.0,0.01,0,0.0,4.11,70537.5
254,BUY,ST_FLIP_RED,2026-03-24T20:00:00,2026-03-26T04:00:00,long,70337.5,70537.5,100,0.1,7033.75,100.0,20,15.89,1334.76,0.02,200,0.28,0,0.0,19036.06,1599029.04,19.04,703.38,0.1,4,2.0,0.01,0,0.0,4.11,69937.5
255,SELL,ST_FLIP_GREEN,2026-03-26T04:00:00,2026-03-28T12:00:00,short,70537.5,66737.5,100,0.1,7053.75,100.0,380,375.89,31574.76,0.38,3800,5.39,0,0.0,19411.95,1630603.8,19.41,705.38,0.1,4,2.0,0.01,0,0.0,4.11,70937.5
256,BUY,ST_FLIP_RED,2026-03-28T12:00:00,2026-03-31T08:00:00,long,66737.5,66937.5,100,0.1,6673.75,100.0,20,15.89,1334.76,0.02,200,0.3,0,0.0,19427.84,1631938.56,19.43,667.38,0.1,4,2.0,0.01,0,0.0,4.11,66337.5
257,SELL,ST_FLIP_GREEN,2026-03-31T08:00:00,2026-03-31T12:00:00,short,66937.5,67137.5,100,0.1,6693.75,100.0,-20,-24.11,-2025.24,-0.02,0,0.0,200,0.3,19403.73,1629913.32,19.4,669.38,0.1,4,2.0,0.01,0,0.0,4.11,67337.5
258,BUY,ST_FLIP_RED,2026-03-31T12:00:00,2026-04-02T00:00:00,long,67137.5,67737.5,100,0.1,6713.75,100.0,60,55.89,4694.76,0.06,600,0.89,0,0.0,19459.62,1634608.08,19.46,671.38,0.1,4,2.0,0.01,0,0.0,4.11,66737.5
259,BUY,ST_FLIP_RED,2026-04-04T14:00:00,2026-04-06T22:00:00,long,67337.5,68737.5,100,0.1,6733.75,100.0,140,135.89,11414.76,0.14,1400,2.08,0,0.0,19595.51,1646022.84,19.6,673.38,0.1,4,2.0,0.01,0,0.0,4.11,66937.5
260,SELL,ST_FLIP_GREEN,2026-04-06T22:00:00,2026-04-07T20:00:00,short,68737.5,69337.5,100,0.1,6873.75,100.0,-60,-64.11,-5385.24,-0.06,0,0.0,600,0.87,19531.4,1640637.6,19.53,687.38,0.1,4,2.0,0.01,0,0.0,4.11,69137.5
261,BUY,ST_FLIP_RED,2026-04-13T12:00:00,2026-04-14T18:00:00,long,71737.5,74337.5,100,0.1,7173.75,100.0,260,255.89,21494.76,0.26,2600,3.62,0,0.0,19787.29,1662132.36,19.79,717.38,0.1,4,2.0,0.01,0,0.0,4.11,71337.5
262,SELL,ST_FLIP_GREEN,2026-04-14T18:00:00,2026-04-15T18:00:00,short,74337.5,74937.5,100,0.1,7433.75,100.0,-60,-64.11,-5385.24,-0.06,0,0.0,600,0.81,19723.18,1656747.12,19.72,743.38,0.1,4,2.0,0.01,0,0.0,4.11,74737.5
263,BUY,ST_FLIP_RED,2026-04-16T18:00:00,2026-04-18T10:00:00,long,75137.5,76537.5,100,0.1,7513.75,100.0,140,135.89,11414.76,0.14,1400,1.86,0,0.0,19859.07,1668161.88,19.86,751.38,0.1,4,2.0,0.01,0,0.0,4.11,74737.5
264,SELL,ST_FLIP_GREEN,2026-04-18T10:00:00,2026-04-20T06:00:00,short,76537.5,74937.5,100,0.1,7653.75,100.0,160,155.89,13094.76,0.16,1600,2.09,0,0.0,20014.96,1681256.64,20.01,765.38,0.1,4,2.0,0.01,0,0.0,4.11,76937.5
265,BUY,ST_FLIP_RED,2026-04-20T06:00:00,2026-04-21T18:00:00,long,74937.5,75137.5,100,0.1,7493.75,100.0,20,15.89,1334.76,0.02,200,0.27,0,0.0,20030.85,1682591.4,20.03,749.38,0.1,4,2.0,0.01,0,0.0,4.11,74537.5
266,SELL,ST_FLIP_GREEN,2026-04-23T02:00:00,2026-04-26T22:00:00,short,78137.5,78537.5,100,0.1,7813.75,100.0,-40,-44.11,-3705.24,-0.04,0,0.0,400,0.51,19986.74,1678886.16,19.99,781.38,0.1,4,2.0,0.01,0,0.0,4.11,78537.5
267,SELL,ST_FLIP_GREEN,2026-04-27T04:00:00,2026-04-29T08:00:00,short,78137.5,77337.5,100,0.1,7813.75,100.0,80,75.89,6374.76,0.08,800,1.02,0,0.0,20062.63,1685260.92,20.06,781.38,0.1,4,2.0,0.01,0,0.0,4.11,78537.5
268,SELL,ST_FLIP_GREEN,2026-04-29T14:00:00,2026-04-30T12:00:00,short,76537.5,76537.5,100,0.1,7653.75,100.0,0,-4.11,-345.24,-0.0,0,0.0,0,0.0,20058.52,1684915.68,20.06,765.38,0.1,4,2.0,0.01,0,0.0,4.11,76937.5
269,BUY,ST_FLIP_RED,2026-04-30T12:00:00,2026-05-04T10:00:00,long,76537.5,79137.5,100,0.1,7653.75,100.0,260,255.89,21494.76,0.26,2600,3.4,0,0.0,20314.41,1706410.44,20.31,765.38,0.1,4,2.0,0.01,0,0.0,4.11,76137.5
270,SELL,ST_FLIP_GREEN,2026-05-04T10:00:00,2026-05-04T14:00:00,short,79137.5,79937.5,100,0.1,7913.75,100.0,-80,-84.11,-7065.24,-0.08,0,0.0,800,1.01,20230.3,1699345.2,20.23,791.38,0.1,4,2.0,0.01,0,0.0,4.11,79537.5
271,BUY,ST_FLIP_RED,2026-05-04T14:00:00,2026-05-07T00:00:00,long,79937.5,81337.5,100,0.1,7993.75,100.0,140,135.89,11414.76,0.14,1400,1.75,0,0.0,20366.19,1710759.96,20.37,799.38,0.1,4,2.0,0.01,0,0.0,4.11,79537.5
272,SELL,ST_FLIP_GREEN,2026-05-07T00:00:00,2026-05-09T16:00:00,short,81337.5,80737.5,100,0.1,8133.75,100.0,60,55.89,4694.76,0.06,600,0.74,0,0.0,20422.08,1715454.72,20.42,813.38,0.1,4,2.0,0.01,0,0.0,4.11,81737.5
273,SELL,ST_FLIP_GREEN,2026-05-11T00:00:00,2026-05-11T16:00:00,short,81337.5,81737.5,100,0.1,8133.75,100.0,-40,-44.11,-3705.24,-0.04,0,0.0,400,0.49,20377.97,1711749.48,20.38,813.38,0.1,4,2.0,0.01,0,0.0,4.11,81737.5
274,BUY,ST_FLIP_RED,2026-05-11T16:00:00,2026-05-12T12:00:00,long,81737.5,80537.5,100,0.1,8173.75,100.0,-120,-124.11,-10425.24,-0.12,0,0.0,1200,1.47,20253.86,1701324.24,20.25,817.38,0.1,4,2.0,0.01,0,0.0,4.11,81337.5
275,SELL,ST_FLIP_GREEN,2026-05-12T12:00:00,2026-05-14T04:00:00,short,80537.5,79937.5,100,0.1,8053.75,100.0,60,55.89,4694.76,0.06,600,0.74,0,0.0,20309.75,1706019.0,20.31,805.38,0.1,4,2.0,0.01,0,0.0,4.11,80937.5
276,BUY,ST_FLIP_RED,2026-05-14T04:00:00,2026-05-15T04:00:00,long,79937.5,80537.5,100,0.1,7993.75,100.0,60,55.89,4694.76,0.06,600,0.75,0,0.0,20365.64,1710713.76,20.37,799.38,0.1,4,2.0,0.01,0,0.0,4.11,79537.5
277,SELL,ST_FLIP_GREEN,2026-05-15T04:00:00,2026-05-20T16:00:00,short,80537.5,77537.5,100,0.1,8053.75,100.0,300,295.89,24854.76,0.3,3000,3.72,0,0.0,20661.53,1735568.52,20.66,805.38,0.1,4,2.0,0.01,0,0.0,4.11,80937.5
278,BUY,ST_FLIP_RED,2026-05-20T16:00:00,2026-05-22T16:00:00,long,77537.5,76737.5,100,0.1,7753.75,100.0,-80,-84.11,-7065.24,-0.08,0,0.0,800,1.03,20577.42,1728503.28,20.58,775.38,0.1,4,2.0,0.01,0,0.0,4.11,77137.5
279,BUY,ST_FLIP_RED,2026-05-23T18:00:00,2026-05-24T20:00:00,long,75737.5,76137.5,100,0.1,7573.75,100.0,40,35.89,3014.76,0.04,400,0.53,0,0.0,20613.31,1731518.04,20.61,757.38,0.1,4,2.0,0.01,0,0.0,4.11,75337.5
280,SELL,ST_FLIP_GREEN,2026-05-24T20:00:00,2026-05-24T22:00:00,short,76137.5,77137.5,100,0.1,7613.75,100.0,-100,-104.11,-8745.24,-0.1,0,0.0,1000,1.31,20509.2,1722772.8,20.51,761.38,0.1,4,2.0,0.01,0,0.0,4.11,76537.5
281,SELL,ST_FLIP_GREEN,2026-05-26T00:00:00,2026-05-29T14:00:00,short,76537.5,73937.5,100,0.1,7653.75,100.0,260,255.89,21494.76,0.26,2600,3.4,0,0.0,20765.09,1744267.56,20.77,765.38,0.1,4,2.0,0.01,0,0.0,4.11,76937.5
282,BUY,ST_FLIP_RED,2026-05-29T14:00:00,2026-06-01T10:00:00,long,73937.5,72737.5,100,0.1,7393.75,100.0,-120,-124.11,-10425.24,-0.12,0,0.0,1200,1.62,20640.98,1733842.32,20.64,739.38,0.1,4,2.0,0.01,0,0.0,4.11,73537.5
283,BUY,ST_FLIP_RED,2026-06-03T04:00:00,2026-06-03T14:00:00,long,66937.5,66337.5,100,0.1,6693.75,100.0,-60,-64.11,-5385.24,-0.06,0,0.0,600,0.9,20576.87,1728457.08,20.58,669.38,0.1,4,2.0,0.01,0,0.0,4.11,66537.5
284,SELL,ST_FLIP_GREEN,2026-06-03T14:00:00,2026-06-04T02:00:00,short,66337.5,63337.5,100,0.1,6633.75,100.0,300,295.89,24854.76,0.3,3000,4.52,0,0.0,20872.76,1753311.84,20.87,663.38,0.1,4,2.0,0.01,0,0.0,4.11,66737.5
285,BUY,ST_FLIP_RED,2026-06-04T02:00:00,2026-06-04T08:00:00,long,63337.5,63537.5,100,0.1,6333.75,100.0,20,15.89,1334.76,0.02,200,0.32,0,0.0,20888.65,1754646.6,20.89,633.38,0.1,4,2.0,0.01,0,0.0,4.11,62937.5
286,SELL,ST_FLIP_GREEN,2026-06-04T08:00:00,2026-06-04T12:00:00,short,63537.5,63537.5,100,0.1,6353.75,100.0,0,-4.11,-345.24,-0.0,0,0.0,0,0.0,20884.54,1754301.36,20.88,635.38,0.1,4,2.0,0.01,0,0.0,4.11,63937.5
287,BUY,ST_FLIP_RED,2026-06-04T12:00:00,2026-06-04T20:00:00,long,63537.5,63337.5,100,0.1,6353.75,100.0,-20,-24.11,-2025.24,-0.02,0,0.0,200,0.31,20860.43,1752276.12,20.86,635.38,0.1,4,2.0,0.01,0,0.0,4.11,63137.5
288,SELL,ST_FLIP_GREEN,2026-06-04T20:00:00,2026-06-05T20:00:00,short,63337.5,61337.5,100,0.1,6333.75,100.0,200,195.89,16454.76,0.2,2000,3.16,0,0.0,21056.32,1768730.88,21.06,633.38,0.1,4,2.0,0.01,0,0.0,4.11,63737.5
289,BUY,ST_FLIP_RED,2026-06-05T20:00:00,2026-06-06T02:00:00,long,61337.5,60737.5,100,0.1,6133.75,100.0,-60,-64.11,-5385.24,-0.06,0,0.0,600,0.98,20992.21,1763345.64,20.99,613.38,0.1,4,2.0,0.01,0,0.0,4.11,60937.5
