anildalabanjan933/crypto_tradingsystem/output/trade_log_RenkoReversalStrategy_BTCUSD_20260624_155448.csv
trade_number,entry_type,exit_type,entry_datetime,exit_datetime,direction,entry_price,exit_price,size_qty,actual_quantity,size_value,lot_notional_usd,gross_pnl,net_pnl,net_pnl_inr,net_pnl_pct,favorable_excursion,favorable_excursion_pct,adverse_excursion,adverse_excursion_pct,cumulative_pnl,cumulative_pnl_inr,cumulative_pnl_pct,margin_required,taker_fees_usd,slippage_usd,slippage_applied,funding_usd,insurance_usd,tax_usd,total_charges_usd,stop_loss
1,SELL,ST_FLIP_GREEN,2025-06-25T14:00:00,2025-06-26T02:00:00,short,106798,107798,2,0,213.6,100.0,-2.0,-202.11,-16977.24,-0.2,0,0.0,1000,0.94,-202.11,-16977.24,-0.2,21.36,0.1,200,100.0,0.01,0,0.0,200.11,107198
2,BUY,ST_FLIP_RED,2025-06-26T02:00:00,2025-06-30T20:00:00,long,107798,107198,2,0,215.6,100.0,-1.2,-201.31,-16910.04,-0.2,0,0.0,600,0.56,-403.42,-33887.28,-0.4,21.56,0.1,200,100.0,0.01,0,0.0,200.11,107398
3,BUY,ST_FLIP_RED,2025-07-02T04:00:00,2025-07-03T14:00:00,long,106398,109198,2,0,212.8,100.0,5.6,-194.51,-16338.84,-0.19,2800,2.63,0,0.0,-597.93,-50226.12,-0.6,21.28,0.1,200,100.0,0.01,0,0.0,200.11,105998
4,SELL,ST_FLIP_GREEN,2025-07-03T14:00:00,2025-07-06T12:00:00,short,109198,108598,2,0,218.4,100.0,1.2,-198.91,-16708.44,-0.2,600,0.55,0,0.0,-796.84,-66934.56,-0.8,21.84,0.1,200,100.0,0.01,0,0.0,200.11,109598
5,BUY,ST_FLIP_RED,2025-07-06T12:00:00,2025-07-07T16:00:00,long,108598,108198,2,0,217.2,100.0,-0.8,-200.91,-16876.44,-0.2,0,0.0,400,0.37,-997.75,-83811.0,-1.0,21.72,0.1,200,100.0,0.01,0,0.0,200.11,108198
6,SELL,ST_FLIP_GREEN,2025-07-07T16:00:00,2025-07-08T12:00:00,short,108198,108798,2,0,216.4,100.0,-1.2,-201.31,-16910.04,-0.2,0,0.0,600,0.55,-1199.06,-100721.04,-1.2,21.64,0.1,200,100.0,0.01,0,0.0,200.11,108598
7,BUY,ST_FLIP_RED,2025-07-08T12:00:00,2025-07-09T20:00:00,long,108798,110598,2,0,217.6,100.0,3.6,-196.51,-16506.84,-0.2,1800,1.65,0,0.0,-1395.57,-117227.88,-1.4,21.76,0.1,200,100.0,0.01,0,0.0,200.11,108398
8,SELL,ST_FLIP_GREEN,2025-07-09T20:00:00,2025-07-10T16:00:00,short,110598,111598,2,0,221.2,100.0,-2.0,-202.11,-16977.24,-0.2,0,0.0,1000,0.9,-1597.68,-134205.12,-1.6,22.12,0.1,200,100.0,0.01,0,0.0,200.11,110998
9,BUY,ST_FLIP_RED,2025-07-10T16:00:00,2025-07-11T14:00:00,long,111598,117398,2,0,223.2,100.0,11.6,-188.51,-15834.84,-0.19,5800,5.2,0,0.0,-1786.19,-150039.96,-1.79,22.32,0.1,200,100.0,0.01,0,0.0,200.11,111198
10,SELL,ST_FLIP_GREEN,2025-07-11T14:00:00,2025-07-11T18:00:00,short,117398,117998,2,0,234.8,100.0,-1.2,-201.31,-16910.04,-0.2,0,0.0,600,0.51,-1987.5,-166950.0,-1.99,23.48,0.1,200,100.0,0.01,0,0.0,200.11,117798
11,BUY,ST_FLIP_RED,2025-07-11T18:00:00,2025-07-14T10:00:00,long,117998,121598,2,0,236.0,100.0,7.2,-192.91,-16204.44,-0.19,3600,3.05,0,0.0,-2180.41,-183154.44,-2.18,23.6,0.1,200,100.0,0.01,0,0.0,200.11,117598
12,SELL,ST_FLIP_GREEN,2025-07-14T10:00:00,2025-07-15T12:00:00,short,121598,117798,2,0,243.2,100.0,7.6,-192.51,-16170.84,-0.19,3800,3.13,0,0.0,-2372.92,-199325.28,-2.37,24.32,0.1,200,100.0,0.01,0,0.0,200.11,121998
13,BUY,ST_FLIP_RED,2025-07-15T12:00:00,2025-07-15T14:00:00,long,117798,117198,2,0,235.6,100.0,-1.2,-201.31,-16910.04,-0.2,0,0.0,600,0.51,-2574.23,-216235.32,-2.57,23.56,0.1,200,100.0,0.01,0,0.0,200.11,117398
14,SELL,ST_FLIP_GREEN,2025-07-15T14:00:00,2025-07-15T16:00:00,short,117198,117398,2,0,234.4,100.0,-0.4,-200.51,-16842.84,-0.2,0,0.0,200,0.17,-2774.74,-233078.16,-2.77,23.44,0.1,200,100.0,0.01,0,0.0,200.11,117598
15,BUY,ST_FLIP_RED,2025-07-15T16:00:00,2025-07-15T18:00:00,long,117398,116598,2,0,234.8,100.0,-1.6,-201.71,-16943.64,-0.2,0,0.0,800,0.68,-2976.45,-250021.8,-2.98,23.48,0.1,200,100.0,0.01,0,0.0,200.11,116998
16,SELL,ST_FLIP_GREEN,2025-07-15T18:00:00,2025-07-15T20:00:00,short,116598,117398,2,0,233.2,100.0,-1.6,-201.71,-16943.64,-0.2,0,0.0,800,0.69,-3178.16,-266965.44,-3.18,23.32,0.1,200,100.0,0.01,0,0.0,200.11,116998
17,BUY,ST_FLIP_RED,2025-07-15T20:00:00,2025-07-17T00:00:00,long,117398,118198,2,0,234.8,100.0,1.6,-198.51,-16674.84,-0.2,800,0.68,0,0.0,-3376.67,-283640.28,-3.38,23.48,0.1,200,100.0,0.01,0,0.0,200.11,116998
18,SELL,ST_FLIP_GREEN,2025-07-17T00:00:00,2025-07-17T16:00:00,short,118198,118998,2,0,236.4,100.0,-1.6,-201.71,-16943.64,-0.2,0,0.0,800,0.68,-3578.38,-300583.92,-3.58,23.64,0.1,200,100.0,0.01,0,0.0,200.11,118598
19,SELL,ST_FLIP_GREEN,2025-07-17T22:00:00,2025-07-18T00:00:00,short,119198,119998,2,0,238.4,100.0,-1.6,-201.71,-16943.64,-0.2,0,0.0,800,0.67,-3780.09,-317527.56,-3.78,23.84,0.1,200,100.0,0.01,0,0.0,200.11,119598
20,BUY,ST_FLIP_RED,2025-07-18T00:00:00,2025-07-18T06:00:00,long,119998,119598,2,0,240.0,100.0,-0.8,-200.91,-16876.44,-0.2,0,0.0,400,0.33,-3981.0,-334404.0,-3.98,24.0,0.1,200,100.0,0.01,0,0.0,200.11,119598
21,SELL,ST_FLIP_GREEN,2025-07-18T06:00:00,2025-07-20T14:00:00,short,119598,118398,2,0,239.2,100.0,2.4,-197.71,-16607.64,-0.2,1200,1.0,0,0.0,-4178.71,-351011.64,-4.18,23.92,0.1,200,100.0,0.01,0,0.0,200.11,119998
22,BUY,ST_FLIP_RED,2025-07-20T14:00:00,2025-07-20T22:00:00,long,118398,117398,2,0,236.8,100.0,-2.0,-202.11,-16977.24,-0.2,0,0.0,1000,0.84,-4380.82,-367988.88,-4.38,23.68,0.1,200,100.0,0.01,0,0.0,200.11,117998
23,SELL,ST_FLIP_GREEN,2025-07-21T10:00:00,2025-07-22T06:00:00,short,118198,117798,2,0,236.4,100.0,0.8,-199.31,-16742.04,-0.2,400,0.34,0,0.0,-4580.13,-384730.92,-4.58,23.64,0.1,200,100.0,0.01,0,0.0,200.11,118598
24,BUY,ST_FLIP_RED,2025-07-22T06:00:00,2025-07-22T12:00:00,long,117798,117998,2,0,235.6,100.0,0.4,-199.71,-16775.64,-0.2,200,0.17,0,0.0,-4779.84,-401506.56,-4.78,23.56,0.1,200,100.0,0.01,0,0.0,200.11,117398
25,SELL,ST_FLIP_GREEN,2025-07-22T12:00:00,2025-07-22T16:00:00,short,117998,119198,2,0,236.0,100.0,-2.4,-202.51,-17010.84,-0.2,0,0.0,1200,1.02,-4982.35,-418517.4,-4.98,23.6,0.1,200,100.0,0.01,0,0.0,200.11,118398
26,BUY,ST_FLIP_RED,2025-07-22T16:00:00,2025-07-23T02:00:00,long,119198,118998,2,0,238.4,100.0,-0.4,-200.51,-16842.84,-0.2,0,0.0,200,0.17,-5182.86,-435360.24,-5.18,23.84,0.1,200,100.0,0.01,0,0.0,200.11,118798
27,SELL,ST_FLIP_GREEN,2025-07-23T02:00:00,2025-07-23T14:00:00,short,118998,118398,2,0,238.0,100.0,1.2,-198.91,-16708.44,-0.2,600,0.5,0,0.0,-5381.77,-452068.68,-5.38,23.8,0.1,200,100.0,0.01,0,0.0,200.11,119398
28,BUY,ST_FLIP_RED,2025-07-23T14:00:00,2025-07-24T04:00:00,long,118398,117798,2,0,236.8,100.0,-1.2,-201.31,-16910.04,-0.2,0,0.0,600,0.51,-5583.08,-468978.72,-5.58,23.68,0.1,200,100.0,0.01,0,0.0,200.11,117998
29,BUY,ST_FLIP_RED,2025-07-24T14:00:00,2025-07-25T00:00:00,long,118598,117998,2,0,237.2,100.0,-1.2,-201.31,-16910.04,-0.2,0,0.0,600,0.51,-5784.39,-485888.76,-5.78,23.72,0.1,200,100.0,0.01,0,0.0,200.11,118198
30,SELL,ST_FLIP_GREEN,2025-07-25T00:00:00,2025-07-25T10:00:00,short,117998,116398,2,0,236.0,100.0,3.2,-196.91,-16540.44,-0.2,1600,1.36,0,0.0,-5981.3,-502429.2,-5.98,23.6,0.1,200,100.0,0.01,0,0.0,200.11,118398
31,BUY,ST_FLIP_RED,2025-07-25T10:00:00,2025-07-28T14:00:00,long,116398,118398,2,0,232.8,100.0,4.0,-196.11,-16473.24,-0.2,2000,1.72,0,0.0,-6177.41,-518902.44,-6.18,23.28,0.1,200,100.0,0.01,0,0.0,200.11,115998
32,SELL,ST_FLIP_GREEN,2025-07-28T14:00:00,2025-07-29T02:00:00,short,118398,118798,2,0,236.8,100.0,-0.8,-200.91,-16876.44,-0.2,0,0.0,400,0.34,-6378.32,-535778.88,-6.38,23.68,0.1,200,100.0,0.01,0,0.0,200.11,118798
33,BUY,ST_FLIP_RED,2025-07-29T02:00:00,2025-07-29T14:00:00,long,118798,117598,2,0,237.6,100.0,-2.4,-202.51,-17010.84,-0.2,0,0.0,1200,1.01,-6580.83,-552789.72,-6.58,23.76,0.1,200,100.0,0.01,0,0.0,200.11,118398
34,SELL,ST_FLIP_GREEN,2025-07-29T14:00:00,2025-07-31T00:00:00,short,117598,117998,2,0,235.2,100.0,-0.8,-200.91,-16876.44,-0.2,0,0.0,400,0.34,-6781.74,-569666.16,-6.78,23.52,0.1,200,100.0,0.01,0,0.0,200.11,117998
35,SELL,ST_FLIP_GREEN,2025-07-31T16:00:00,2025-08-01T14:00:00,short,117598,115398,2,0,235.2,100.0,4.4,-195.71,-16439.64,-0.2,2200,1.87,0,0.0,-6977.45,-586105.8,-6.98,23.52,0.1,200,100.0,0.01,0,0.0,200.11,117998
36,BUY,ST_FLIP_RED,2025-08-01T14:00:00,2025-08-01T16:00:00,long,115398,114398,2,0,230.8,100.0,-2.0,-202.11,-16977.24,-0.2,0,0.0,1000,0.87,-7179.56,-603083.04,-7.18,23.08,0.1,200,100.0,0.01,0,0.0,200.11,114998
37,SELL,ST_FLIP_GREEN,2025-08-01T16:00:00,2025-08-03T00:00:00,short,114398,113198,2,0,228.8,100.0,2.4,-197.71,-16607.64,-0.2,1200,1.05,0,0.0,-7377.27,-619690.68,-7.38,22.88,0.1,200,100.0,0.01,0,0.0,200.11,114798
38,BUY,ST_FLIP_RED,2025-08-03T00:00:00,2025-08-05T06:00:00,long,113198,113998,2,0,226.4,100.0,1.6,-198.51,-16674.84,-0.2,800,0.71,0,0.0,-7575.78,-636365.52,-7.58,22.64,0.1,200,100.0,0.01,0,0.0,200.11,112798
39,SELL,ST_FLIP_GREEN,2025-08-05T06:00:00,2025-08-05T22:00:00,short,113998,113998,2,0,228.0,100.0,0.0,-200.11,-16809.24,-0.2,0,0.0,0,0.0,-7775.89,-653174.76,-7.78,22.8,0.1,200,100.0,0.01,0,0.0,200.11,114398
40,BUY,ST_FLIP_RED,2025-08-05T22:00:00,2025-08-08T14:00:00,long,113998,116398,2,0,228.0,100.0,4.8,-195.31,-16406.04,-0.2,2400,2.11,0,0.0,-7971.2,-669580.8,-7.97,22.8,0.1,200,100.0,0.01,0,0.0,200.11,113598
41,SELL,ST_FLIP_GREEN,2025-08-08T14:00:00,2025-08-09T08:00:00,short,116398,117198,2,0,232.8,100.0,-1.6,-201.71,-16943.64,-0.2,0,0.0,800,0.69,-8172.91,-686524.44,-8.17,23.28,0.1,200,100.0,0.01,0,0.0,200.11,116798
42,BUY,ST_FLIP_RED,2025-08-09T08:00:00,2025-08-11T10:00:00,long,117198,120998,2,0,234.4,100.0,7.6,-192.51,-16170.84,-0.19,3800,3.24,0,0.0,-8365.42,-702695.28,-8.37,23.44,0.1,200,100.0,0.01,0,0.0,200.11,116798
43,SELL,ST_FLIP_GREEN,2025-08-11T10:00:00,2025-08-12T14:00:00,short,120998,119398,2,0,242.0,100.0,3.2,-196.91,-16540.44,-0.2,1600,1.32,0,0.0,-8562.33,-719235.72,-8.56,24.2,0.1,200,100.0,0.01,0,0.0,200.11,121398
44,BUY,ST_FLIP_RED,2025-08-12T14:00:00,2025-08-14T04:00:00,long,119398,122398,2,0,238.8,100.0,6.0,-194.11,-16305.24,-0.19,3000,2.51,0,0.0,-8756.44,-735540.96,-8.76,23.88,0.1,200,100.0,0.01,0,0.0,200.11,118998
45,SELL,ST_FLIP_GREEN,2025-08-14T04:00:00,2025-08-17T08:00:00,short,122398,117998,2,0,244.8,100.0,8.8,-191.31,-16070.04,-0.19,4400,3.59,0,0.0,-8947.75,-751611.0,-8.95,24.48,0.1,200,100.0,0.01,0,0.0,200.11,122798
46,BUY,ST_FLIP_RED,2025-08-17T08:00:00,2025-08-18T00:00:00,long,117998,117198,2,0,236.0,100.0,-1.6,-201.71,-16943.64,-0.2,0,0.0,800,0.68,-9149.46,-768554.64,-9.15,23.6,0.1,200,100.0,0.01,0,0.0,200.11,117598
47,BUY,ST_FLIP_RED,2025-08-18T14:00:00,2025-08-19T02:00:00,long,115998,115598,2,0,232.0,100.0,-0.8,-200.91,-16876.44,-0.2,0,0.0,400,0.34,-9350.37,-785431.08,-9.35,23.2,0.1,200,100.0,0.01,0,0.0,200.11,115598
48,SELL,ST_FLIP_GREEN,2025-08-19T02:00:00,2025-08-20T16:00:00,short,115598,113798,2,0,231.2,100.0,3.6,-196.51,-16506.84,-0.2,1800,1.56,0,0.0,-9546.88,-801937.92,-9.55,23.12,0.1,200,100.0,0.01,0,0.0,200.11,115998
49,SELL,ST_FLIP_GREEN,2025-08-21T08:00:00,2025-08-22T04:00:00,short,113598,113198,2,0,227.2,100.0,0.8,-199.31,-16742.04,-0.2,400,0.35,0,0.0,-9746.19,-818679.96,-9.75,22.72,0.1,200,100.0,0.01,0,0.0,200.11,113998
50,BUY,ST_FLIP_RED,2025-08-22T04:00:00,2025-08-22T10:00:00,long,113198,112198,2,0,226.4,100.0,-2.0,-202.11,-16977.24,-0.2,0,0.0,1000,0.88,-9948.3,-835657.2,-9.95,22.64,0.1,200,100.0,0.01,0,0.0,200.11,112798
51,SELL,ST_FLIP_GREEN,2025-08-22T10:00:00,2025-08-22T14:00:00,short,112198,113398,2,0,224.4,100.0,-2.4,-202.51,-17010.84,-0.2,0,0.0,1200,1.07,-10150.81,-852668.04,-10.15,22.44,0.1,200,100.0,0.01,0,0.0,200.11,112598
52,SELL,ST_FLIP_GREEN,2025-08-23T02:00:00,2025-08-24T22:00:00,short,115798,113598,2,0,231.6,100.0,4.4,-195.71,-16439.64,-0.2,2200,1.9,0,0.0,-10346.52,-869107.68,-10.35,23.16,0.1,200,100.0,0.01,0,0.0,200.11,116198
53,BUY,ST_FLIP_RED,2025-08-24T22:00:00,2025-08-25T04:00:00,long,113598,112598,2,0,227.2,100.0,-2.0,-202.11,-16977.24,-0.2,0,0.0,1000,0.88,-10548.63,-886084.92,-10.55,22.72,0.1,200,100.0,0.01,0,0.0,200.11,113198
54,SELL,ST_FLIP_GREEN,2025-08-25T04:00:00,2025-08-25T14:00:00,short,112598,112198,2,0,225.2,100.0,0.8,-199.31,-16742.04,-0.2,400,0.36,0,0.0,-10747.94,-902826.96,-10.75,22.52,0.1,200,100.0,0.01,0,0.0,200.11,112998
55,BUY,ST_FLIP_RED,2025-08-25T14:00:00,2025-08-25T18:00:00,long,112198,111398,2,0,224.4,100.0,-1.6,-201.71,-16943.64,-0.2,0,0.0,800,0.71,-10949.65,-919770.6,-10.95,22.44,0.1,200,100.0,0.01,0,0.0,200.11,111798
56,SELL,ST_FLIP_GREEN,2025-08-25T18:00:00,2025-08-26T18:00:00,short,111398,110798,2,0,222.8,100.0,1.2,-198.91,-16708.44,-0.2,600,0.54,0,0.0,-11148.56,-936479.04,-11.15,22.28,0.1,200,100.0,0.01,0,0.0,200.11,111798
57,BUY,ST_FLIP_RED,2025-08-26T18:00:00,2025-08-27T06:00:00,long,110798,110598,2,0,221.6,100.0,-0.4,-200.51,-16842.84,-0.2,0,0.0,200,0.18,-11349.07,-953321.88,-11.35,22.16,0.1,200,100.0,0.01,0,0.0,200.11,110398
58,SELL,ST_FLIP_GREEN,2025-08-27T06:00:00,2025-08-27T14:00:00,short,110598,111598,2,0,221.2,100.0,-2.0,-202.11,-16977.24,-0.2,0,0.0,1000,0.9,-11551.18,-970299.12,-11.55,22.12,0.1,200,100.0,0.01,0,0.0,200.11,110998
59,BUY,ST_FLIP_RED,2025-08-27T14:00:00,2025-08-28T18:00:00,long,111598,111998,2,0,223.2,100.0,0.8,-199.31,-16742.04,-0.2,400,0.36,0,0.0,-11750.49,-987041.16,-11.75,22.32,0.1,200,100.0,0.01,0,0.0,200.11,111198
60,SELL,ST_FLIP_GREEN,2025-08-28T18:00:00,2025-08-30T10:00:00,short,111998,108598,2,0,224.0,100.0,6.8,-193.31,-16238.04,-0.19,3400,3.04,0,0.0,-11943.8,-1003279.2,-11.94,22.4,0.1,200,100.0,0.01,0,0.0,200.11,112398
61,BUY,ST_FLIP_RED,2025-08-30T10:00:00,2025-08-31T22:00:00,long,108598,108198,2,0,217.2,100.0,-0.8,-200.91,-16876.44,-0.2,0,0.0,400,0.37,-12144.71,-1020155.64,-12.14,21.72,0.1,200,100.0,0.01,0,0.0,200.11,108198
62,SELL,ST_FLIP_GREEN,2025-08-31T22:00:00,2025-09-01T06:00:00,short,108198,108998,2,0,216.4,100.0,-1.6,-201.71,-16943.64,-0.2,0,0.0,800,0.74,-12346.42,-1037099.28,-12.35,21.64,0.1,200,100.0,0.01,0,0.0,200.11,108598
63,SELL,ST_FLIP_GREEN,2025-09-01T10:00:00,2025-09-01T22:00:00,short,108598,108598,2,0,217.2,100.0,0.0,-200.11,-16809.24,-0.2,0,0.0,0,0.0,-12546.53,-1053908.52,-12.55,21.72,0.1,200,100.0,0.01,0,0.0,200.11,108998
64,BUY,ST_FLIP_RED,2025-09-01T22:00:00,2025-09-04T04:00:00,long,108598,110998,2,0,217.2,100.0,4.8,-195.31,-16406.04,-0.2,2400,2.21,0,0.0,-12741.84,-1070314.56,-12.74,21.72,0.1,200,100.0,0.01,0,0.0,200.11,108198
65,BUY,ST_FLIP_RED,2025-09-04T20:00:00,2025-09-05T14:00:00,long,110598,111998,2,0,221.2,100.0,2.8,-197.31,-16574.04,-0.2,1400,1.27,0,0.0,-12939.15,-1086888.6,-12.94,22.12,0.1,200,100.0,0.01,0,0.0,200.11,110198
66,BUY,ST_FLIP_RED,2025-09-05T18:00:00,2025-09-05T20:00:00,long,111598,110598,2,0,223.2,100.0,-2.0,-202.11,-16977.24,-0.2,0,0.0,1000,0.9,-13141.26,-1103865.84,-13.14,22.32,0.1,200,100.0,0.01,0,0.0,200.11,111198
67,SELL,ST_FLIP_GREEN,2025-09-05T20:00:00,2025-09-07T10:00:00,short,110598,111198,2,0,221.2,100.0,-1.2,-201.31,-16910.04,-0.2,0,0.0,600,0.54,-13342.57,-1120775.88,-13.34,22.12,0.1,200,100.0,0.01,0,0.0,200.11,110998
68,SELL,ST_FLIP_GREEN,2025-09-09T00:00:00,2025-09-09T06:00:00,short,111398,112198,2,0,222.8,100.0,-1.6,-201.71,-16943.64,-0.2,0,0.0,800,0.72,-13544.28,-1137719.52,-13.54,22.28,0.1,200,100.0,0.01,0,0.0,200.11,111798
69,BUY,ST_FLIP_RED,2025-09-09T06:00:00,2025-09-09T14:00:00,long,112198,111798,2,0,224.4,100.0,-0.8,-200.91,-16876.44,-0.2,0,0.0,400,0.36,-13745.19,-1154595.96,-13.75,22.44,0.1,200,100.0,0.01,0,0.0,200.11,111798
70,SELL,ST_FLIP_GREEN,2025-09-09T14:00:00,2025-09-10T06:00:00,short,111798,111798,2,0,223.6,100.0,0.0,-200.11,-16809.24,-0.2,0,0.0,0,0.0,-13945.3,-1171405.2,-13.95,22.36,0.1,200,100.0,0.01,0,0.0,200.11,112198
71,BUY,ST_FLIP_RED,2025-09-10T06:00:00,2025-09-14T12:00:00,long,111798,115398,2,0,223.6,100.0,7.2,-192.91,-16204.44,-0.19,3600,3.22,0,0.0,-14138.21,-1187609.64,-14.14,22.36,0.1,200,100.0,0.01,0,0.0,200.11,111398
72,SELL,ST_FLIP_GREEN,2025-09-14T12:00:00,2025-09-15T04:00:00,short,115398,116398,2,0,230.8,100.0,-2.0,-202.11,-16977.24,-0.2,0,0.0,1000,0.87,-14340.32,-1204586.88,-14.34,23.08,0.1,200,100.0,0.01,0,0.0,200.11,115798
73,BUY,ST_FLIP_RED,2025-09-16T04:00:00,2025-09-17T14:00:00,long,115798,115998,2,0,231.6,100.0,0.4,-199.71,-16775.64,-0.2,200,0.17,0,0.0,-14540.03,-1221362.52,-14.54,23.16,0.1,200,100.0,0.01,0,0.0,200.11,115398
74,SELL,ST_FLIP_GREEN,2025-09-17T14:00:00,2025-09-18T02:00:00,short,115998,116598,2,0,232.0,100.0,-1.2,-201.31,-16910.04,-0.2,0,0.0,600,0.52,-14741.34,-1238272.56,-14.74,23.2,0.1,200,100.0,0.01,0,0.0,200.11,116398
75,BUY,ST_FLIP_RED,2025-09-18T02:00:00,2025-09-19T10:00:00,long,116598,116398,2,0,233.2,100.0,-0.4,-200.51,-16842.84,-0.2,0,0.0,200,0.17,-14941.85,-1255115.4,-14.94,23.32,0.1,200,100.0,0.01,0,0.0,200.11,116198
76,SELL,ST_FLIP_GREEN,2025-09-19T10:00:00,2025-09-24T04:00:00,short,116398,112798,2,0,232.8,100.0,7.2,-192.91,-16204.44,-0.19,3600,3.09,0,0.0,-15134.76,-1271319.84,-15.13,23.28,0.1,200,100.0,0.01,0,0.0,200.11,116798
77,SELL,ST_FLIP_GREEN,2025-09-25T00:00:00,2025-09-26T00:00:00,short,112598,109798,2,0,225.2,100.0,5.6,-194.51,-16338.84,-0.19,2800,2.49,0,0.0,-15329.27,-1287658.68,-15.33,22.52,0.1,200,100.0,0.01,0,0.0,200.11,112998
78,BUY,ST_FLIP_RED,2025-09-26T00:00:00,2025-09-30T08:00:00,long,109798,113398,2,0,219.6,100.0,7.2,-192.91,-16204.44,-0.19,3600,3.28,0,0.0,-15522.18,-1303863.12,-15.52,21.96,0.1,200,100.0,0.01,0,0.0,200.11,109398
79,SELL,ST_FLIP_GREEN,2025-09-30T08:00:00,2025-09-30T18:00:00,short,113398,113798,2,0,226.8,100.0,-0.8,-200.91,-16876.44,-0.2,0,0.0,400,0.35,-15723.09,-1320739.56,-15.72,22.68,0.1,200,100.0,0.01,0,0.0,200.11,113798
80,BUY,ST_FLIP_RED,2025-09-30T18:00:00,2025-10-03T00:00:00,long,113798,119798,2,0,227.6,100.0,12.0,-188.11,-15801.24,-0.19,6000,5.27,0,0.0,-15911.2,-1336540.8,-15.91,22.76,0.1,200,100.0,0.01,0,0.0,200.11,113398
81,SELL,ST_FLIP_GREEN,2025-10-03T00:00:00,2025-10-03T14:00:00,short,119798,120998,2,0,239.6,100.0,-2.4,-202.51,-17010.84,-0.2,0,0.0,1200,1.0,-16113.71,-1353551.64,-16.11,23.96,0.1,200,100.0,0.01,0,0.0,200.11,120198
82,SELL,ST_FLIP_GREEN,2025-10-05T08:00:00,2025-10-06T00:00:00,short,123998,123798,2,0,248.0,100.0,0.4,-199.71,-16775.64,-0.2,200,0.16,0,0.0,-16313.42,-1370327.28,-16.31,24.8,0.1,200,100.0,0.01,0,0.0,200.11,124398
83,SELL,ST_FLIP_GREEN,2025-10-07T06:00:00,2025-10-08T08:00:00,short,124198,122198,2,0,248.4,100.0,4.0,-196.11,-16473.24,-0.2,2000,1.61,0,0.0,-16509.53,-1386800.52,-16.51,24.84,0.1,200,100.0,0.01,0,0.0,200.11,124598
84,BUY,ST_FLIP_RED,2025-10-08T08:00:00,2025-10-09T00:00:00,long,122198,122998,2,0,244.4,100.0,1.6,-198.51,-16674.84,-0.2,800,0.65,0,0.0,-16708.04,-1403475.36,-16.71,24.44,0.1,200,100.0,0.01,0,0.0,200.11,121798
85,SELL,ST_FLIP_GREEN,2025-10-09T00:00:00,2025-10-09T10:00:00,short,122998,122798,2,0,246.0,100.0,0.4,-199.71,-16775.64,-0.2,200,0.16,0,0.0,-16907.75,-1420251.0,-16.91,24.6,0.1,200,100.0,0.01,0,0.0,200.11,123398
86,BUY,ST_FLIP_RED,2025-10-09T10:00:00,2025-10-09T14:00:00,long,122798,121798,2,0,245.6,100.0,-2.0,-202.11,-16977.24,-0.2,0,0.0,1000,0.81,-17109.86,-1437228.24,-17.11,24.56,0.1,200,100.0,0.01,0,0.0,200.11,122398
87,SELL,ST_FLIP_GREEN,2025-10-09T14:00:00,2025-10-11T02:00:00,short,121798,112198,2,0,243.6,100.0,19.2,-180.91,-15196.44,-0.18,9600,7.88,0,0.0,-17290.77,-1452424.68,-17.29,24.36,0.1,200,100.0,0.01,0,0.0,200.11,122198
88,BUY,ST_FLIP_RED,2025-10-11T02:00:00,2025-10-11T06:00:00,long,112198,111398,2,0,224.4,100.0,-1.6,-201.71,-16943.64,-0.2,0,0.0,800,0.71,-17492.48,-1469368.32,-17.49,22.44,0.1,200,100.0,0.01,0,0.0,200.11,111798
89,SELL,ST_FLIP_GREEN,2025-10-11T06:00:00,2025-10-11T08:00:00,short,111398,111198,2,0,222.8,100.0,0.4,-199.71,-16775.64,-0.2,200,0.18,0,0.0,-17692.19,-1486143.96,-17.69,22.28,0.1,200,100.0,0.01,0,0.0,200.11,111798
90,BUY,ST_FLIP_RED,2025-10-11T08:00:00,2025-10-11T20:00:00,long,111198,111198,2,0,222.4,100.0,0.0,-200.11,-16809.24,-0.2,0,0.0,0,0.0,-17892.3,-1502953.2,-17.89,22.24,0.1,200,100.0,0.01,0,0.0,200.11,110798
91,SELL,ST_FLIP_GREEN,2025-10-11T20:00:00,2025-10-12T04:00:00,short,111198,110998,2,0,222.4,100.0,0.4,-199.71,-16775.64,-0.2,200,0.18,0,0.0,-18092.01,-1519728.84,-18.09,22.24,0.1,200,100.0,0.01,0,0.0,200.11,111598
92,BUY,ST_FLIP_RED,2025-10-12T04:00:00,2025-10-13T02:00:00,long,110998,114598,2,0,222.0,100.0,7.2,-192.91,-16204.44,-0.19,3600,3.24,0,0.0,-18284.92,-1535933.28,-18.28,22.2,0.1,200,100.0,0.01,0,0.0,200.11,110598
93,SELL,ST_FLIP_GREEN,2025-10-13T02:00:00,2025-10-13T12:00:00,short,114598,114998,2,0,229.2,100.0,-0.8,-200.91,-16876.44,-0.2,0,0.0,400,0.35,-18485.83,-1552809.72,-18.49,22.92,0.1,200,100.0,0.01,0,0.0,200.11,114998
94,BUY,ST_FLIP_RED,2025-10-13T12:00:00,2025-10-13T14:00:00,long,114998,114398,2,0,230.0,100.0,-1.2,-201.31,-16910.04,-0.2,0,0.0,600,0.52,-18687.14,-1569719.76,-18.69,23.0,0.1,200,100.0,0.01,0,0.0,200.11,114598
95,SELL,ST_FLIP_GREEN,2025-10-13T14:00:00,2025-10-13T16:00:00,short,114398,115198,2,0,228.8,100.0,-1.6,-201.71,-16943.64,-0.2,0,0.0,800,0.7,-18888.85,-1586663.4,-18.89,22.88,0.1,200,100.0,0.01,0,0.0,200.11,114798
96,BUY,ST_FLIP_RED,2025-10-13T16:00:00,2025-10-14T00:00:00,long,115198,114598,2,0,230.4,100.0,-1.2,-201.31,-16910.04,-0.2,0,0.0,600,0.52,-19090.16,-1603573.44,-19.09,23.04,0.1,200,100.0,0.01,0,0.0,200.11,114798
97,SELL,ST_FLIP_GREEN,2025-10-14T00:00:00,2025-10-14T14:00:00,short,114598,111998,2,0,229.2,100.0,5.2,-194.91,-16372.44,-0.19,2600,2.27,0,0.0,-19285.07,-1619945.88,-19.29,22.92,0.1,200,100.0,0.01,0,0.0,200.11,114998
98,BUY,ST_FLIP_RED,2025-10-14T14:00:00,2025-10-15T02:00:00,long,111998,111998,2,0,224.0,100.0,0.0,-200.11,-16809.24,-0.2,0,0.0,0,0.0,-19485.18,-1636755.12,-19.49,22.4,0.1,200,100.0,0.01,0,0.0,200.11,111598
99,BUY,ST_FLIP_RED,2025-10-17T10:00:00,2025-10-17T22:00:00,long,105598,106198,2,0,211.2,100.0,1.2,-198.91,-16708.44,-0.2,600,0.57,0,0.0,-19684.09,-1653463.56,-19.68,21.12,0.1,200,100.0,0.01,0,0.0,200.11,105198
100,SELL,ST_FLIP_GREEN,2025-10-17T22:00:00,2025-10-18T00:00:00,short,106198,107198,2,0,212.4,100.0,-2.0,-202.11,-16977.24,-0.2,0,0.0,1000,0.94,-19886.2,-1670440.8,-19.89,21.24,0.1,200,100.0,0.01,0,0.0,200.11,106598
101,BUY,ST_FLIP_RED,2025-10-18T00:00:00,2025-10-20T00:00:00,long,107198,107998,2,0,214.4,100.0,1.6,-198.51,-16674.84,-0.2,800,0.75,0,0.0,-20084.71,-1687115.64,-20.08,21.44,0.1,200,100.0,0.01,0,0.0,200.11,106798
102,SELL,ST_FLIP_GREEN,2025-10-20T00:00:00,2025-10-20T02:00:00,short,107998,108998,2,0,216.0,100.0,-2.0,-202.11,-16977.24,-0.2,0,0.0,1000,0.93,-20286.82,-1704092.88,-20.29,21.6,0.1,200,100.0,0.01,0,0.0,200.11,108398
103,BUY,ST_FLIP_RED,2025-10-20T02:00:00,2025-10-21T00:00:00,long,108998,109998,2,0,218.0,100.0,2.0,-198.11,-16641.24,-0.2,1000,0.92,0,0.0,-20484.93,-1720734.12,-20.48,21.8,0.1,200,100.0,0.01,0,0.0,200.11,108598
104,SELL,ST_FLIP_GREEN,2025-10-21T00:00:00,2025-10-21T10:00:00,short,109998,108598,2,0,220.0,100.0,2.8,-197.31,-16574.04,-0.2,1400,1.27,0,0.0,-20682.24,-1737308.16,-20.68,22.0,0.1,200,100.0,0.01,0,0.0,200.11,110398
105,BUY,ST_FLIP_RED,2025-10-21T10:00:00,2025-10-21T16:00:00,long,108598,112198,2,0,217.2,100.0,7.2,-192.91,-16204.44,-0.19,3600,3.31,0,0.0,-20875.15,-1753512.6,-20.88,21.72,0.1,200,100.0,0.01,0,0.0,200.11,108198
106,SELL,ST_FLIP_GREEN,2025-10-21T16:00:00,2025-10-22T12:00:00,short,112198,108598,2,0,224.4,100.0,7.2,-192.91,-16204.44,-0.19,3600,3.21,0,0.0,-21068.06,-1769717.04,-21.07,22.44,0.1,200,100.0,0.01,0,0.0,200.11,112598
107,BUY,ST_FLIP_RED,2025-10-22T12:00:00,2025-10-22T16:00:00,long,108598,107798,2,0,217.2,100.0,-1.6,-201.71,-16943.64,-0.2,0,0.0,800,0.74,-21269.77,-1786660.68,-21.27,21.72,0.1,200,100.0,0.01,0,0.0,200.11,108198
108,SELL,ST_FLIP_GREEN,2025-10-22T16:00:00,2025-10-23T00:00:00,short,107798,108198,2,0,215.6,100.0,-0.8,-200.91,-16876.44,-0.2,0,0.0,400,0.37,-21470.68,-1803537.12,-21.47,21.56,0.1,200,100.0,0.01,0,0.0,200.11,108198
109,BUY,ST_FLIP_RED,2025-10-23T00:00:00,2025-10-23T18:00:00,long,108198,109998,2,0,216.4,100.0,3.6,-196.51,-16506.84,-0.2,1800,1.66,0,0.0,-21667.19,-1820043.96,-21.67,21.64,0.1,200,100.0,0.01,0,0.0,200.11,107798
110,SELL,ST_FLIP_GREEN,2025-10-23T18:00:00,2025-10-24T04:00:00,short,109998,110598,2,0,220.0,100.0,-1.2,-201.31,-16910.04,-0.2,0,0.0,600,0.55,-21868.5,-1836954.0,-21.87,22.0,0.1,200,100.0,0.01,0,0.0,200.11,110398
111,BUY,ST_FLIP_RED,2025-10-24T04:00:00,2025-10-24T14:00:00,long,110598,110198,2,0,221.2,100.0,-0.8,-200.91,-16876.44,-0.2,0,0.0,400,0.36,-22069.41,-1853830.44,-22.07,22.12,0.1,200,100.0,0.01,0,0.0,200.11,110198
112,SELL,ST_FLIP_GREEN,2025-10-24T14:00:00,2025-10-24T20:00:00,short,110198,110998,2,0,220.4,100.0,-1.6,-201.71,-16943.64,-0.2,0,0.0,800,0.73,-22271.12,-1870774.08,-22.27,22.04,0.1,200,100.0,0.01,0,0.0,200.11,110598
113,BUY,ST_FLIP_RED,2025-10-24T20:00:00,2025-10-27T20:00:00,long,110998,114598,2,0,222.0,100.0,7.2,-192.91,-16204.44,-0.19,3600,3.24,0,0.0,-22464.03,-1886978.52,-22.46,22.2,0.1,200,100.0,0.01,0,0.0,200.11,110598
114,BUY,ST_FLIP_RED,2025-10-28T12:00:00,2025-10-28T14:00:00,long,114598,114398,2,0,229.2,100.0,-0.4,-200.51,-16842.84,-0.2,0,0.0,200,0.17,-22664.54,-1903821.36,-22.66,22.92,0.1,200,100.0,0.01,0,0.0,200.11,114198
115,SELL,ST_FLIP_GREEN,2025-10-28T14:00:00,2025-10-28T16:00:00,short,114398,115398,2,0,228.8,100.0,-2.0,-202.11,-16977.24,-0.2,0,0.0,1000,0.87,-22866.65,-1920798.6,-22.87,22.88,0.1,200,100.0,0.01,0,0.0,200.11,114798
116,BUY,ST_FLIP_RED,2025-10-28T16:00:00,2025-10-28T18:00:00,long,115398,114198,2,0,230.8,100.0,-2.4,-202.51,-17010.84,-0.2,0,0.0,1200,1.04,-23069.16,-1937809.44,-23.07,23.08,0.1,200,100.0,0.01,0,0.0,200.11,114998
117,BUY,ST_FLIP_RED,2025-10-30T06:00:00,2025-10-30T08:00:00,long,110998,110198,2,0,222.0,100.0,-1.6,-201.71,-16943.64,-0.2,0,0.0,800,0.72,-23270.87,-1954753.08,-23.27,22.2,0.1,200,100.0,0.01,0,0.0,200.11,110598
118,SELL,ST_FLIP_GREEN,2025-10-30T08:00:00,2025-10-30T20:00:00,short,110198,107598,2,0,220.4,100.0,5.2,-194.91,-16372.44,-0.19,2600,2.36,0,0.0,-23465.78,-1971125.52,-23.47,22.04,0.1,200,100.0,0.01,0,0.0,200.11,110598
119,BUY,ST_FLIP_RED,2025-10-30T20:00:00,2025-10-31T16:00:00,long,107598,109198,2,0,215.2,100.0,3.2,-196.91,-16540.44,-0.2,1600,1.49,0,0.0,-23662.69,-1987665.96,-23.66,21.52,0.1,200,100.0,0.01,0,0.0,200.11,107198
120,SELL,ST_FLIP_GREEN,2025-10-31T16:00:00,2025-11-01T02:00:00,short,109198,110198,2,0,218.4,100.0,-2.0,-202.11,-16977.24,-0.2,0,0.0,1000,0.92,-23864.8,-2004643.2,-23.86,21.84,0.1,200,100.0,0.01,0,0.0,200.11,109598
121,BUY,ST_FLIP_RED,2025-11-01T02:00:00,2025-11-03T00:00:00,long,110198,109798,2,0,220.4,100.0,-0.8,-200.91,-16876.44,-0.2,0,0.0,400,0.36,-24065.71,-2021519.64,-24.07,22.04,0.1,200,100.0,0.01,0,0.0,200.11,109798
122,SELL,ST_FLIP_GREEN,2025-11-03T00:00:00,2025-11-03T16:00:00,short,109798,106598,2,0,219.6,100.0,6.4,-193.71,-16271.64,-0.19,3200,2.91,0,0.0,-24259.42,-2037791.28,-24.26,21.96,0.1,200,100.0,0.01,0,0.0,200.11,110198
123,BUY,ST_FLIP_RED,2025-11-03T16:00:00,2025-11-03T22:00:00,long,106598,106598,2,0,213.2,100.0,0.0,-200.11,-16809.24,-0.2,0,0.0,0,0.0,-24459.53,-2054600.52,-24.46,21.32,0.1,200,100.0,0.01,0,0.0,200.11,106198
124,SELL,ST_FLIP_GREEN,2025-11-03T22:00:00,2025-11-04T22:00:00,short,106598,101398,2,0,213.2,100.0,10.4,-189.71,-15935.64,-0.19,5200,4.88,0,0.0,-24649.24,-2070536.16,-24.65,21.32,0.1,200,100.0,0.01,0,0.0,200.11,106998
125,BUY,ST_FLIP_RED,2025-11-04T22:00:00,2025-11-05T00:00:00,long,101398,100598,2,0,202.8,100.0,-1.6,-201.71,-16943.64,-0.2,0,0.0,800,0.79,-24850.95,-2087479.8,-24.85,20.28,0.1,200,100.0,0.01,0,0.0,200.11,100998
126,SELL,ST_FLIP_GREEN,2025-11-05T00:00:00,2025-11-05T02:00:00,short,100598,101798,2,0,201.2,100.0,-2.4,-202.51,-17010.84,-0.2,0,0.0,1200,1.19,-25053.46,-2104490.64,-25.05,20.12,0.1,200,100.0,0.01,0,0.0,200.11,100998
127,SELL,ST_FLIP_GREEN,2025-11-06T08:00:00,2025-11-07T04:00:00,short,102798,102198,2,0,205.6,100.0,1.2,-198.91,-16708.44,-0.2,600,0.58,0,0.0,-25252.37,-2121199.08,-25.25,20.56,0.1,200,100.0,0.01,0,0.0,200.11,103198
128,BUY,ST_FLIP_RED,2025-11-07T04:00:00,2025-11-07T08:00:00,long,102198,101398,2,0,204.4,100.0,-1.6,-201.71,-16943.64,-0.2,0,0.0,800,0.78,-25454.08,-2138142.72,-25.45,20.44,0.1,200,100.0,0.01,0,0.0,200.11,101798
129,SELL,ST_FLIP_GREEN,2025-11-07T08:00:00,2025-11-07T16:00:00,short,101398,101398,2,0,202.8,100.0,0.0,-200.11,-16809.24,-0.2,0,0.0,0,0.0,-25654.19,-2154951.96,-25.65,20.28,0.1,200,100.0,0.01,0,0.0,200.11,101798
130,BUY,ST_FLIP_RED,2025-11-07T16:00:00,2025-11-08T02:00:00,long,101398,102798,2,0,202.8,100.0,2.8,-197.31,-16574.04,-0.2,1400,1.38,0,0.0,-25851.5,-2171526.0,-25.85,20.28,0.1,200,100.0,0.01,0,0.0,200.11,100998
131,SELL,ST_FLIP_GREEN,2025-11-08T02:00:00,2025-11-09T12:00:00,short,102798,102798,2,0,205.6,100.0,0.0,-200.11,-16809.24,-0.2,0,0.0,0,0.0,-26051.61,-2188335.24,-26.05,20.56,0.1,200,100.0,0.01,0,0.0,200.11,103198
132,SELL,ST_FLIP_GREEN,2025-11-10T14:00:00,2025-11-10T16:00:00,short,105398,105998,2,0,210.8,100.0,-1.2,-201.31,-16910.04,-0.2,0,0.0,600,0.57,-26252.92,-2205245.28,-26.25,21.08,0.1,200,100.0,0.01,0,0.0,200.11,105798
133,BUY,ST_FLIP_RED,2025-11-10T16:00:00,2025-11-11T04:00:00,long,105998,105198,2,0,212.0,100.0,-1.6,-201.71,-16943.64,-0.2,0,0.0,800,0.75,-26454.63,-2222188.92,-26.45,21.2,0.1,200,100.0,0.01,0,0.0,200.11,105598
134,BUY,ST_FLIP_RED,2025-11-12T08:00:00,2025-11-12T14:00:00,long,103798,103998,2,0,207.6,100.0,0.4,-199.71,-16775.64,-0.2,200,0.19,0,0.0,-26654.34,-2238964.56,-26.65,20.76,0.1,200,100.0,0.01,0,0.0,200.11,103398
135,SELL,ST_FLIP_GREEN,2025-11-12T14:00:00,2025-11-13T04:00:00,short,103998,102398,2,0,208.0,100.0,3.2,-196.91,-16540.44,-0.2,1600,1.54,0,0.0,-26851.25,-2255505.0,-26.85,20.8,0.1,200,100.0,0.01,0,0.0,200.11,104398
136,BUY,ST_FLIP_RED,2025-11-13T04:00:00,2025-11-13T12:00:00,long,102398,102398,2,0,204.8,100.0,0.0,-200.11,-16809.24,-0.2,0,0.0,0,0.0,-27051.36,-2272314.24,-27.05,20.48,0.1,200,100.0,0.01,0,0.0,200.11,101998
137,SELL,ST_FLIP_GREEN,2025-11-13T12:00:00,2025-11-13T22:00:00,short,102398,99798,2,0,204.8,100.0,5.2,-194.91,-16372.44,-0.19,2600,2.54,0,0.0,-27246.27,-2288686.68,-27.25,20.48,0.1,200,100.0,0.01,0,0.0,200.11,102798
138,BUY,ST_FLIP_RED,2025-11-13T22:00:00,2025-11-14T04:00:00,long,99798,98798,2,0,199.6,100.0,-2.0,-202.11,-16977.24,-0.2,0,0.0,1000,1.0,-27448.38,-2305663.92,-27.45,19.96,0.1,200,100.0,0.01,0,0.0,200.11,99398
139,SELL,ST_FLIP_GREEN,2025-11-14T04:00:00,2025-11-14T14:00:00,short,98798,96398,2,0,197.6,100.0,4.8,-195.31,-16406.04,-0.2,2400,2.43,0,0.0,-27643.69,-2322069.96,-27.64,19.76,0.1,200,100.0,0.01,0,0.0,200.11,99198
140,BUY,ST_FLIP_RED,2025-11-14T14:00:00,2025-11-14T16:00:00,long,96398,95798,2,0,192.8,100.0,-1.2,-201.31,-16910.04,-0.2,0,0.0,600,0.62,-27845.0,-2338980.0,-27.84,19.28,0.1,200,100.0,0.01,0,0.0,200.11,95998
141,SELL,ST_FLIP_GREEN,2025-11-14T16:00:00,2025-11-15T00:00:00,short,95798,95598,2,0,191.6,100.0,0.4,-199.71,-16775.64,-0.2,200,0.21,0,0.0,-28044.71,-2355755.64,-28.04,19.16,0.1,200,100.0,0.01,0,0.0,200.11,96198
142,BUY,ST_FLIP_RED,2025-11-15T00:00:00,2025-11-15T20:00:00,long,95598,95398,2,0,191.2,100.0,-0.4,-200.51,-16842.84,-0.2,0,0.0,200,0.21,-28245.22,-2372598.48,-28.25,19.12,0.1,200,100.0,0.01,0,0.0,200.11,95198
143,SELL,ST_FLIP_GREEN,2025-11-15T20:00:00,2025-11-16T08:00:00,short,95398,96598,2,0,190.8,100.0,-2.4,-202.51,-17010.84,-0.2,0,0.0,1200,1.26,-28447.73,-2389609.32,-28.45,19.08,0.1,200,100.0,0.01,0,0.0,200.11,95798
144,BUY,ST_FLIP_RED,2025-11-17T00:00:00,2025-11-17T12:00:00,long,94598,94598,2,0,189.2,100.0,0.0,-200.11,-16809.24,-0.2,0,0.0,0,0.0,-28647.84,-2406418.56,-28.65,18.92,0.1,200,100.0,0.01,0,0.0,200.11,94198
145,SELL,ST_FLIP_GREEN,2025-11-17T12:00:00,2025-11-18T08:00:00,short,94598,91198,2,0,189.2,100.0,6.8,-193.31,-16238.04,-0.19,3400,3.59,0,0.0,-28841.15,-2422656.6,-28.84,18.92,0.1,200,100.0,0.01,0,0.0,200.11,94998
146,BUY,ST_FLIP_RED,2025-11-18T08:00:00,2025-11-19T02:00:00,long,91198,92198,2,0,182.4,100.0,2.0,-198.11,-16641.24,-0.2,1000,1.1,0,0.0,-29039.26,-2439297.84,-29.04,18.24,0.1,200,100.0,0.01,0,0.0,200.11,90798
147,SELL,ST_FLIP_GREEN,2025-11-19T02:00:00,2025-11-19T06:00:00,short,92198,91598,2,0,184.4,100.0,1.2,-198.91,-16708.44,-0.2,600,0.65,0,0.0,-29238.17,-2456006.28,-29.24,18.44,0.1,200,100.0,0.01,0,0.0,200.11,92598
148,BUY,ST_FLIP_RED,2025-11-19T06:00:00,2025-11-19T14:00:00,long,91598,90998,2,0,183.2,100.0,-1.2,-201.31,-16910.04,-0.2,0,0.0,600,0.66,-29439.48,-2472916.32,-29.44,18.32,0.1,200,100.0,0.01,0,0.0,200.11,91198
149,SELL,ST_FLIP_GREEN,2025-11-19T14:00:00,2025-11-19T20:00:00,short,90998,89998,2,0,182.0,100.0,2.0,-198.11,-16641.24,-0.2,1000,1.1,0,0.0,-29637.59,-2489557.56,-29.64,18.2,0.1,200,100.0,0.01,0,0.0,200.11,91398
150,BUY,ST_FLIP_RED,2025-11-19T20:00:00,2025-11-20T14:00:00,long,89998,91398,2,0,180.0,100.0,2.8,-197.31,-16574.04,-0.2,1400,1.56,0,0.0,-29834.9,-2506131.6,-29.83,18.0,0.1,200,100.0,0.01,0,0.0,200.11,89598
151,SELL,ST_FLIP_GREEN,2025-11-20T14:00:00,2025-11-21T12:00:00,short,91398,83198,2,0,182.8,100.0,16.4,-183.71,-15431.64,-0.18,8200,8.97,0,0.0,-30018.61,-2521563.24,-30.02,18.28,0.1,200,100.0,0.01,0,0.0,200.11,91798
152,BUY,ST_FLIP_RED,2025-11-21T12:00:00,2025-11-21T14:00:00,long,83198,83198,2,0,166.4,100.0,0.0,-200.11,-16809.24,-0.2,0,0.0,0,0.0,-30218.72,-2538372.48,-30.22,16.64,0.1,200,100.0,0.01,0,0.0,200.11,82798
153,SELL,ST_FLIP_GREEN,2025-11-21T14:00:00,2025-11-21T16:00:00,short,83198,83798,2,0,166.4,100.0,-1.2,-201.31,-16910.04,-0.2,0,0.0,600,0.72,-30420.03,-2555282.52,-30.42,16.64,0.1,200,100.0,0.01,0,0.0,200.11,83598
154,BUY,ST_FLIP_RED,2025-11-21T16:00:00,2025-11-21T18:00:00,long,83798,83998,2,0,167.6,100.0,0.4,-199.71,-16775.64,-0.2,200,0.24,0,0.0,-30619.74,-2572058.16,-30.62,16.76,0.1,200,100.0,0.01,0,0.0,200.11,83398
155,SELL,ST_FLIP_GREEN,2025-11-21T18:00:00,2025-11-21T20:00:00,short,83998,84998,2,0,168.0,100.0,-2.0,-202.11,-16977.24,-0.2,0,0.0,1000,1.19,-30821.85,-2589035.4,-30.82,16.8,0.1,200,100.0,0.01,0,0.0,200.11,84398
156,BUY,ST_FLIP_RED,2025-11-21T20:00:00,2025-11-22T08:00:00,long,84998,84198,2,0,170.0,100.0,-1.6,-201.71,-16943.64,-0.2,0,0.0,800,0.94,-31023.56,-2605979.04,-31.02,17.0,0.1,200,100.0,0.01,0,0.0,200.11,84598
157,SELL,ST_FLIP_GREEN,2025-11-22T08:00:00,2025-11-23T00:00:00,short,84198,84998,2,0,168.4,100.0,-1.6,-201.71,-16943.64,-0.2,0,0.0,800,0.95,-31225.27,-2622922.68,-31.23,16.84,0.1,200,100.0,0.01,0,0.0,200.11,84598
158,BUY,ST_FLIP_RED,2025-11-23T00:00:00,2025-11-23T22:00:00,long,84998,86798,2,0,170.0,100.0,3.6,-196.51,-16506.84,-0.2,1800,2.12,0,0.0,-31421.78,-2639429.52,-31.42,17.0,0.1,200,100.0,0.01,0,0.0,200.11,84598
159,SELL,ST_FLIP_GREEN,2025-11-23T22:00:00,2025-11-24T16:00:00,short,86798,86998,2,0,173.6,100.0,-0.4,-200.51,-16842.84,-0.2,0,0.0,200,0.23,-31622.29,-2656272.36,-31.62,17.36,0.1,200,100.0,0.01,0,0.0,200.11,87198
160,BUY,ST_FLIP_RED,2025-11-24T16:00:00,2025-11-25T00:00:00,long,86998,87598,2,0,174.0,100.0,1.2,-198.91,-16708.44,-0.2,600,0.69,0,0.0,-31821.2,-2672980.8,-31.82,17.4,0.1,200,100.0,0.01,0,0.0,200.11,86598
161,SELL,ST_FLIP_GREEN,2025-11-25T00:00:00,2025-11-26T16:00:00,short,87598,87998,2,0,175.2,100.0,-0.8,-200.91,-16876.44,-0.2,0,0.0,400,0.46,-32022.11,-2689857.24,-32.02,17.52,0.1,200,100.0,0.01,0,0.0,200.11,87998
162,BUY,ST_FLIP_RED,2025-12-01T20:00:00,2025-12-03T14:00:00,long,85798,92598,2,0,171.6,100.0,13.6,-186.51,-15666.84,-0.19,6800,7.93,0,0.0,-32208.62,-2705524.08,-32.21,17.16,0.1,200,100.0,0.01,0,0.0,200.11,85398
163,SELL,ST_FLIP_GREEN,2025-12-03T14:00:00,2025-12-03T20:00:00,short,92598,93398,2,0,185.2,100.0,-1.6,-201.71,-16943.64,-0.2,0,0.0,800,0.86,-32410.33,-2722467.72,-32.41,18.52,0.1,200,100.0,0.01,0,0.0,200.11,92998
164,BUY,ST_FLIP_RED,2025-12-03T20:00:00,2025-12-04T12:00:00,long,93398,92598,2,0,186.8,100.0,-1.6,-201.71,-16943.64,-0.2,0,0.0,800,0.86,-32612.04,-2739411.36,-32.61,18.68,0.1,200,100.0,0.01,0,0.0,200.11,92998
165,SELL,ST_FLIP_GREEN,2025-12-04T12:00:00,2025-12-07T16:00:00,short,92598,90198,2,0,185.2,100.0,4.8,-195.31,-16406.04,-0.2,2400,2.59,0,0.0,-32807.35,-2755817.4,-32.81,18.52,0.1,200,100.0,0.01,0,0.0,200.11,92998
166,BUY,ST_FLIP_RED,2025-12-07T16:00:00,2025-12-07T20:00:00,long,90198,90198,2,0,180.4,100.0,0.0,-200.11,-16809.24,-0.2,0,0.0,0,0.0,-33007.46,-2772626.64,-33.01,18.04,0.1,200,100.0,0.01,0,0.0,200.11,89798
167,SELL,ST_FLIP_GREEN,2025-12-07T20:00:00,2025-12-08T06:00:00,short,90198,91398,2,0,180.4,100.0,-2.4,-202.51,-17010.84,-0.2,0,0.0,1200,1.33,-33209.97,-2789637.48,-33.21,18.04,0.1,200,100.0,0.01,0,0.0,200.11,90598
168,BUY,ST_FLIP_RED,2025-12-08T06:00:00,2025-12-08T14:00:00,long,91398,90798,2,0,182.8,100.0,-1.2,-201.31,-16910.04,-0.2,0,0.0,600,0.66,-33411.28,-2806547.52,-33.41,18.28,0.1,200,100.0,0.01,0,0.0,200.11,90998
169,SELL,ST_FLIP_GREEN,2025-12-08T14:00:00,2025-12-08T20:00:00,short,90798,90798,2,0,181.6,100.0,0.0,-200.11,-16809.24,-0.2,0,0.0,0,0.0,-33611.39,-2823356.76,-33.61,18.16,0.1,200,100.0,0.01,0,0.0,200.11,91198
170,BUY,ST_FLIP_RED,2025-12-08T20:00:00,2025-12-09T00:00:00,long,90798,90198,2,0,181.6,100.0,-1.2,-201.31,-16910.04,-0.2,0,0.0,600,0.66,-33812.7,-2840266.8,-33.81,18.16,0.1,200,100.0,0.01,0,0.0,200.11,90398
171,SELL,ST_FLIP_GREEN,2025-12-09T00:00:00,2025-12-09T14:00:00,short,90198,90998,2,0,180.4,100.0,-1.6,-201.71,-16943.64,-0.2,0,0.0,800,0.89,-34014.41,-2857210.44,-34.01,18.04,0.1,200,100.0,0.01,0,0.0,200.11,90598
172,BUY,ST_FLIP_RED,2025-12-09T14:00:00,2025-12-09T20:00:00,long,90998,92798,2,0,182.0,100.0,3.6,-196.51,-16506.84,-0.2,1800,1.98,0,0.0,-34210.92,-2873717.28,-34.21,18.2,0.1,200,100.0,0.01,0,0.0,200.11,90598
173,SELL,ST_FLIP_GREEN,2025-12-09T20:00:00,2025-12-11T18:00:00,short,92798,90998,2,0,185.6,100.0,3.6,-196.51,-16506.84,-0.2,1800,1.94,0,0.0,-34407.43,-2890224.12,-34.41,18.56,0.1,200,100.0,0.01,0,0.0,200.11,93198
174,BUY,ST_FLIP_RED,2025-12-11T18:00:00,2025-12-12T14:00:00,long,90998,91798,2,0,182.0,100.0,1.6,-198.51,-16674.84,-0.2,800,0.88,0,0.0,-34605.94,-2906898.96,-34.61,18.2,0.1,200,100.0,0.01,0,0.0,200.11,90598
175,SELL,ST_FLIP_GREEN,2025-12-12T14:00:00,2025-12-15T00:00:00,short,91798,89198,2,0,183.6,100.0,5.2,-194.91,-16372.44,-0.19,2600,2.83,0,0.0,-34800.85,-2923271.4,-34.8,18.36,0.1,200,100.0,0.01,0,0.0,200.11,92198
176,BUY,ST_FLIP_RED,2025-12-15T00:00:00,2025-12-15T14:00:00,long,89198,88798,2,0,178.4,100.0,-0.8,-200.91,-16876.44,-0.2,0,0.0,400,0.45,-35001.76,-2940147.84,-35.0,17.84,0.1,200,100.0,0.01,0,0.0,200.11,88798
177,SELL,ST_FLIP_GREEN,2025-12-15T14:00:00,2025-12-16T10:00:00,short,88798,86798,2,0,177.6,100.0,4.0,-196.11,-16473.24,-0.2,2000,2.25,0,0.0,-35197.87,-2956621.08,-35.2,17.76,0.1,200,100.0,0.01,0,0.0,200.11,89198
178,BUY,ST_FLIP_RED,2025-12-16T10:00:00,2025-12-16T16:00:00,long,86798,86998,2,0,173.6,100.0,0.4,-199.71,-16775.64,-0.2,200,0.23,0,0.0,-35397.58,-2973396.72,-35.4,17.36,0.1,200,100.0,0.01,0,0.0,200.11,86398
179,SELL,ST_FLIP_GREEN,2025-12-16T16:00:00,2025-12-17T12:00:00,short,86998,87398,2,0,174.0,100.0,-0.8,-200.91,-16876.44,-0.2,0,0.0,400,0.46,-35598.49,-2990273.16,-35.6,17.4,0.1,200,100.0,0.01,0,0.0,200.11,87398
180,BUY,ST_FLIP_RED,2025-12-17T12:00:00,2025-12-17T16:00:00,long,87398,86198,2,0,174.8,100.0,-2.4,-202.51,-17010.84,-0.2,0,0.0,1200,1.37,-35801.0,-3007284.0,-35.8,17.48,0.1,200,100.0,0.01,0,0.0,200.11,86998
181,SELL,ST_FLIP_GREEN,2025-12-17T16:00:00,2025-12-18T08:00:00,short,86198,86998,2,0,172.4,100.0,-1.6,-201.71,-16943.64,-0.2,0,0.0,800,0.93,-36002.71,-3024227.64,-36.0,17.24,0.1,200,100.0,0.01,0,0.0,200.11,86598
182,BUY,ST_FLIP_RED,2025-12-18T08:00:00,2025-12-18T16:00:00,long,86998,87798,2,0,174.0,100.0,1.6,-198.51,-16674.84,-0.2,800,0.92,0,0.0,-36201.22,-3040902.48,-36.2,17.4,0.1,200,100.0,0.01,0,0.0,200.11,86598
183,SELL,ST_FLIP_GREEN,2025-12-18T16:00:00,2025-12-18T20:00:00,short,87798,85598,2,0,175.6,100.0,4.4,-195.71,-16439.64,-0.2,2200,2.51,0,0.0,-36396.93,-3057342.12,-36.4,17.56,0.1,200,100.0,0.01,0,0.0,200.11,88198
184,BUY,ST_FLIP_RED,2025-12-18T20:00:00,2025-12-19T16:00:00,long,85598,86998,2,0,171.2,100.0,2.8,-197.31,-16574.04,-0.2,1400,1.64,0,0.0,-36594.24,-3073916.16,-36.59,17.12,0.1,200,100.0,0.01,0,0.0,200.11,85198
185,SELL,ST_FLIP_GREEN,2025-12-19T16:00:00,2025-12-19T18:00:00,short,86998,87798,2,0,174.0,100.0,-1.6,-201.71,-16943.64,-0.2,0,0.0,800,0.92,-36795.95,-3090859.8,-36.8,17.4,0.1,200,100.0,0.01,0,0.0,200.11,87398
186,BUY,ST_FLIP_RED,2025-12-19T18:00:00,2025-12-21T12:00:00,long,87798,87798,2,0,175.6,100.0,0.0,-200.11,-16809.24,-0.2,0,0.0,0,0.0,-36996.06,-3107669.04,-37.0,17.56,0.1,200,100.0,0.01,0,0.0,200.11,87398
187,SELL,ST_FLIP_GREEN,2025-12-21T12:00:00,2025-12-21T22:00:00,short,87798,88598,2,0,175.6,100.0,-1.6,-201.71,-16943.64,-0.2,0,0.0,800,0.91,-37197.77,-3124612.68,-37.2,17.56,0.1,200,100.0,0.01,0,0.0,200.11,88198
188,BUY,ST_FLIP_RED,2025-12-21T22:00:00,2025-12-22T18:00:00,long,88598,88798,2,0,177.2,100.0,0.4,-199.71,-16775.64,-0.2,200,0.23,0,0.0,-37397.48,-3141388.32,-37.4,17.72,0.1,200,100.0,0.01,0,0.0,200.11,88198
189,SELL,ST_FLIP_GREEN,2025-12-22T18:00:00,2025-12-25T14:00:00,short,88798,87998,2,0,177.6,100.0,1.6,-198.51,-16674.84,-0.2,800,0.9,0,0.0,-37595.99,-3158063.16,-37.6,17.76,0.1,200,100.0,0.01,0,0.0,200.11,89198
190,SELL,ST_FLIP_GREEN,2025-12-25T22:00:00,2025-12-26T02:00:00,short,87198,87998,2,0,174.4,100.0,-1.6,-201.71,-16943.64,-0.2,0,0.0,800,0.92,-37797.7,-3175006.8,-37.8,17.44,0.1,200,100.0,0.01,0,0.0,200.11,87598
191,BUY,ST_FLIP_RED,2025-12-26T02:00:00,2025-12-26T14:00:00,long,87998,87998,2,0,176.0,100.0,0.0,-200.11,-16809.24,-0.2,0,0.0,0,0.0,-37997.81,-3191816.04,-38.0,17.6,0.1,200,100.0,0.01,0,0.0,200.11,87598
192,SELL,ST_FLIP_GREEN,2025-12-26T14:00:00,2025-12-29T00:00:00,short,87998,87998,2,0,176.0,100.0,0.0,-200.11,-16809.24,-0.2,0,0.0,0,0.0,-38197.92,-3208625.28,-38.2,17.6,0.1,200,100.0,0.01,0,0.0,200.11,88398
193,BUY,ST_FLIP_RED,2025-12-29T00:00:00,2025-12-29T08:00:00,long,87998,88998,2,0,176.0,100.0,2.0,-198.11,-16641.24,-0.2,1000,1.14,0,0.0,-38396.03,-3225266.52,-38.4,17.6,0.1,200,100.0,0.01,0,0.0,200.11,87598
194,SELL,ST_FLIP_GREEN,2025-12-29T08:00:00,2025-12-30T14:00:00,short,88998,88398,2,0,178.0,100.0,1.2,-198.91,-16708.44,-0.2,600,0.67,0,0.0,-38594.94,-3241974.96,-38.59,17.8,0.1,200,100.0,0.01,0,0.0,200.11,89398
195,SELL,ST_FLIP_GREEN,2025-12-31T14:00:00,2026-01-01T22:00:00,short,87798,88798,2,0,175.6,100.0,-2.0,-202.11,-16977.24,-0.2,0,0.0,1000,1.14,-38797.05,-3258952.2,-38.8,17.56,0.1,200,100.0,0.01,0,0.0,200.11,88198
196,SELL,ST_FLIP_GREEN,2026-01-06T16:00:00,2026-01-06T20:00:00,short,93198,92398,2,0,186.4,100.0,1.6,-198.51,-16674.84,-0.2,800,0.86,0,0.0,-38995.56,-3275627.04,-39.0,18.64,0.1,200,100.0,0.01,0,0.0,200.11,93598
197,BUY,ST_FLIP_RED,2026-01-06T20:00:00,2026-01-07T00:00:00,long,92398,92598,2,0,184.8,100.0,0.4,-199.71,-16775.64,-0.2,200,0.22,0,0.0,-39195.27,-3292402.68,-39.2,18.48,0.1,200,100.0,0.01,0,0.0,200.11,91998
198,SELL,ST_FLIP_GREEN,2026-01-07T00:00:00,2026-01-08T16:00:00,short,92598,90998,2,0,185.2,100.0,3.2,-196.91,-16540.44,-0.2,1600,1.73,0,0.0,-39392.18,-3308943.12,-39.39,18.52,0.1,200,100.0,0.01,0,0.0,200.11,92998
199,BUY,ST_FLIP_RED,2026-01-08T16:00:00,2026-01-09T18:00:00,long,90998,90198,2,0,182.0,100.0,-1.6,-201.71,-16943.64,-0.2,0,0.0,800,0.88,-39593.89,-3325886.76,-39.59,18.2,0.1,200,100.0,0.01,0,0.0,200.11,90598
200,SELL,ST_FLIP_GREEN,2026-01-09T18:00:00,2026-01-12T02:00:00,short,90198,91398,2,0,180.4,100.0,-2.4,-202.51,-17010.84,-0.2,0,0.0,1200,1.33,-39796.4,-3342897.6,-39.8,18.04,0.1,200,100.0,0.01,0,0.0,200.11,90598
201,SELL,ST_FLIP_GREEN,2026-01-12T08:00:00,2026-01-12T14:00:00,short,90998,91598,2,0,182.0,100.0,-1.2,-201.31,-16910.04,-0.2,0,0.0,600,0.66,-39997.71,-3359807.64,-40.0,18.2,0.1,200,100.0,0.01,0,0.0,200.11,91398
202,BUY,ST_FLIP_RED,2026-01-12T14:00:00,2026-01-15T02:00:00,long,91598,96398,2,0,183.2,100.0,9.6,-190.51,-16002.84,-0.19,4800,5.24,0,0.0,-40188.22,-3375810.48,-40.19,18.32,0.1,200,100.0,0.01,0,0.0,200.11,91198
203,SELL,ST_FLIP_GREEN,2026-01-15T02:00:00,2026-01-15T08:00:00,short,96398,96998,2,0,192.8,100.0,-1.2,-201.31,-16910.04,-0.2,0,0.0,600,0.62,-40389.53,-3392720.52,-40.39,19.28,0.1,200,100.0,0.01,0,0.0,200.11,96798
204,BUY,ST_FLIP_RED,2026-01-15T08:00:00,2026-01-15T18:00:00,long,96998,95798,2,0,194.0,100.0,-2.4,-202.51,-17010.84,-0.2,0,0.0,1200,1.24,-40592.04,-3409731.36,-40.59,19.4,0.1,200,100.0,0.01,0,0.0,200.11,96598
205,BUY,ST_FLIP_RED,2026-01-21T02:00:00,2026-01-21T10:00:00,long,89598,88798,2,0,179.2,100.0,-1.6,-201.71,-16943.64,-0.2,0,0.0,800,0.89,-40793.75,-3426675.0,-40.79,17.92,0.1,200,100.0,0.01,0,0.0,200.11,89198
206,SELL,ST_FLIP_GREEN,2026-01-21T10:00:00,2026-01-21T14:00:00,short,88798,89998,2,0,177.6,100.0,-2.4,-202.51,-17010.84,-0.2,0,0.0,1200,1.35,-40996.26,-3443685.84,-41.0,17.76,0.1,200,100.0,0.01,0,0.0,200.11,89198
207,SELL,ST_FLIP_GREEN,2026-01-21T16:00:00,2026-01-21T18:00:00,short,89398,88798,2,0,178.8,100.0,1.2,-198.91,-16708.44,-0.2,600,0.67,0,0.0,-41195.17,-3460394.28,-41.2,17.88,0.1,200,100.0,0.01,0,0.0,200.11,89798
208,BUY,ST_FLIP_RED,2026-01-21T18:00:00,2026-01-21T22:00:00,long,88798,89398,2,0,177.6,100.0,1.2,-198.91,-16708.44,-0.2,600,0.68,0,0.0,-41394.08,-3477102.72,-41.39,17.76,0.1,200,100.0,0.01,0,0.0,200.11,88398
209,SELL,ST_FLIP_GREEN,2026-01-21T22:00:00,2026-01-23T16:00:00,short,89398,89998,2,0,178.8,100.0,-1.2,-201.31,-16910.04,-0.2,0,0.0,600,0.67,-41595.39,-3494012.76,-41.6,17.88,0.1,200,100.0,0.01,0,0.0,200.11,89798
210,SELL,ST_FLIP_GREEN,2026-01-23T20:00:00,2026-01-26T00:00:00,short,89398,87598,2,0,178.8,100.0,3.6,-196.51,-16506.84,-0.2,1800,2.01,0,0.0,-41791.9,-3510519.6,-41.79,17.88,0.1,200,100.0,0.01,0,0.0,200.11,89798
211,BUY,ST_FLIP_RED,2026-01-26T00:00:00,2026-01-27T16:00:00,long,87598,87598,2,0,175.2,100.0,0.0,-200.11,-16809.24,-0.2,0,0.0,0,0.0,-41992.01,-3527328.84,-41.99,17.52,0.1,200,100.0,0.01,0,0.0,200.11,87198
212,SELL,ST_FLIP_GREEN,2026-01-27T16:00:00,2026-01-27T20:00:00,short,87598,88798,2,0,175.2,100.0,-2.4,-202.51,-17010.84,-0.2,0,0.0,1200,1.37,-42194.52,-3544339.68,-42.19,17.52,0.1,200,100.0,0.01,0,0.0,200.11,87998
213,BUY,ST_FLIP_RED,2026-01-27T20:00:00,2026-01-28T18:00:00,long,88798,89198,2,0,177.6,100.0,0.8,-199.31,-16742.04,-0.2,400,0.45,0,0.0,-42393.83,-3561081.72,-42.39,17.76,0.1,200,100.0,0.01,0,0.0,200.11,88398
214,SELL,ST_FLIP_GREEN,2026-01-28T18:00:00,2026-01-30T18:00:00,short,89198,83398,2,0,178.4,100.0,11.6,-188.51,-15834.84,-0.19,5800,6.5,0,0.0,-42582.34,-3576916.56,-42.58,17.84,0.1,200,100.0,0.01,0,0.0,200.11,89598
215,BUY,ST_FLIP_RED,2026-01-30T18:00:00,2026-01-31T08:00:00,long,83398,83398,2,0,166.8,100.0,0.0,-200.11,-16809.24,-0.2,0,0.0,0,0.0,-42782.45,-3593725.8,-42.78,16.68,0.1,200,100.0,0.01,0,0.0,200.11,82998
216,SELL,ST_FLIP_GREEN,2026-01-31T08:00:00,2026-02-01T02:00:00,short,83398,78798,2,0,166.8,100.0,9.2,-190.91,-16036.44,-0.19,4600,5.52,0,0.0,-42973.36,-3609762.24,-42.97,16.68,0.1,200,100.0,0.01,0,0.0,200.11,83798
217,BUY,ST_FLIP_RED,2026-02-01T02:00:00,2026-02-01T14:00:00,long,78798,77998,2,0,157.6,100.0,-1.6,-201.71,-16943.64,-0.2,0,0.0,800,1.02,-43175.07,-3626705.88,-43.18,15.76,0.1,200,100.0,0.01,0,0.0,200.11,78398
218,BUY,ST_FLIP_RED,2026-02-02T00:00:00,2026-02-02T02:00:00,long,77598,76598,2,0,155.2,100.0,-2.0,-202.11,-16977.24,-0.2,0,0.0,1000,1.29,-43377.18,-3643683.12,-43.38,15.52,0.1,200,100.0,0.01,0,0.0,200.11,77198
219,SELL,ST_FLIP_GREEN,2026-02-02T02:00:00,2026-02-02T06:00:00,short,76598,76598,2,0,153.2,100.0,0.0,-200.11,-16809.24,-0.2,0,0.0,0,0.0,-43577.29,-3660492.36,-43.58,15.32,0.1,200,100.0,0.01,0,0.0,200.11,76998
220,BUY,ST_FLIP_RED,2026-02-02T06:00:00,2026-02-03T16:00:00,long,76598,77798,2,0,153.2,100.0,2.4,-197.71,-16607.64,-0.2,1200,1.57,0,0.0,-43775.0,-3677100.0,-43.78,15.32,0.1,200,100.0,0.01,0,0.0,200.11,76198
221,SELL,ST_FLIP_GREEN,2026-02-03T16:00:00,2026-02-03T20:00:00,short,77798,75998,2,0,155.6,100.0,3.6,-196.51,-16506.84,-0.2,1800,2.31,0,0.0,-43971.51,-3693606.84,-43.97,15.56,0.1,200,100.0,0.01,0,0.0,200.11,78198
222,BUY,ST_FLIP_RED,2026-02-03T20:00:00,2026-02-04T12:00:00,long,75998,75398,2,0,152.0,100.0,-1.2,-201.31,-16910.04,-0.2,0,0.0,600,0.79,-44172.82,-3710516.88,-44.17,15.2,0.1,200,100.0,0.01,0,0.0,200.11,75598
223,BUY,ST_FLIP_RED,2026-02-04T18:00:00,2026-02-04T20:00:00,long,73598,72998,2,0,147.2,100.0,-1.2,-201.31,-16910.04,-0.2,0,0.0,600,0.82,-44374.13,-3727426.92,-44.37,14.72,0.1,200,100.0,0.01,0,0.0,200.11,73198
224,SELL,ST_FLIP_GREEN,2026-02-04T20:00:00,2026-02-06T00:00:00,short,72998,63998,2,0,146.0,100.0,18.0,-182.11,-15297.24,-0.18,9000,12.33,0,0.0,-44556.24,-3742724.16,-44.56,14.6,0.1,200,100.0,0.01,0,0.0,200.11,73398
225,BUY,ST_FLIP_RED,2026-02-06T00:00:00,2026-02-06T02:00:00,long,63998,64798,2,0,128.0,100.0,1.6,-198.51,-16674.84,-0.2,800,1.25,0,0.0,-44754.75,-3759399.0,-44.75,12.8,0.1,200,100.0,0.01,0,0.0,200.11,63598
226,SELL,ST_FLIP_GREEN,2026-02-06T02:00:00,2026-02-06T04:00:00,short,64798,64998,2,0,129.6,100.0,-0.4,-200.51,-16842.84,-0.2,0,0.0,200,0.31,-44955.26,-3776241.84,-44.96,12.96,0.1,200,100.0,0.01,0,0.0,200.11,65198
227,BUY,ST_FLIP_RED,2026-02-06T04:00:00,2026-02-06T06:00:00,long,64998,65398,2,0,130.0,100.0,0.8,-199.31,-16742.04,-0.2,400,0.62,0,0.0,-45154.57,-3792983.88,-45.15,13.0,0.1,200,100.0,0.01,0,0.0,200.11,64598
228,SELL,ST_FLIP_GREEN,2026-02-06T06:00:00,2026-02-06T08:00:00,short,65398,65798,2,0,130.8,100.0,-0.8,-200.91,-16876.44,-0.2,0,0.0,400,0.61,-45355.48,-3809860.32,-45.36,13.08,0.1,200,100.0,0.01,0,0.0,200.11,65798
229,BUY,ST_FLIP_RED,2026-02-06T08:00:00,2026-02-07T06:00:00,long,65798,69798,2,0,131.6,100.0,8.0,-192.11,-16137.24,-0.19,4000,6.08,0,0.0,-45547.59,-3825997.56,-45.55,13.16,0.1,200,100.0,0.01,0,0.0,200.11,65398
230,SELL,ST_FLIP_GREEN,2026-02-07T06:00:00,2026-02-07T12:00:00,short,69798,68998,2,0,139.6,100.0,1.6,-198.51,-16674.84,-0.2,800,1.15,0,0.0,-45746.1,-3842672.4,-45.75,13.96,0.1,200,100.0,0.01,0,0.0,200.11,70198
231,BUY,ST_FLIP_RED,2026-02-07T12:00:00,2026-02-08T22:00:00,long,68998,70398,2,0,138.0,100.0,2.8,-197.31,-16574.04,-0.2,1400,2.03,0,0.0,-45943.41,-3859246.44,-45.94,13.8,0.1,200,100.0,0.01,0,0.0,200.11,68598
232,SELL,ST_FLIP_GREEN,2026-02-08T22:00:00,2026-02-09T14:00:00,short,70398,69598,2,0,140.8,100.0,1.6,-198.51,-16674.84,-0.2,800,1.14,0,0.0,-46141.92,-3875921.28,-46.14,14.08,0.1,200,100.0,0.01,0,0.0,200.11,70798
233,BUY,ST_FLIP_RED,2026-02-09T14:00:00,2026-02-10T02:00:00,long,69598,69798,2,0,139.2,100.0,0.4,-199.71,-16775.64,-0.2,200,0.29,0,0.0,-46341.63,-3892696.92,-46.34,13.92,0.1,200,100.0,0.01,0,0.0,200.11,69198
234,SELL,ST_FLIP_GREEN,2026-02-10T02:00:00,2026-02-10T16:00:00,short,69798,69598,2,0,139.6,100.0,0.4,-199.71,-16775.64,-0.2,200,0.29,0,0.0,-46541.34,-3909472.56,-46.54,13.96,0.1,200,100.0,0.01,0,0.0,200.11,70198
235,BUY,ST_FLIP_RED,2026-02-10T16:00:00,2026-02-10T20:00:00,long,69598,68798,2,0,139.2,100.0,-1.6,-201.71,-16943.64,-0.2,0,0.0,800,1.15,-46743.05,-3926416.2,-46.74,13.92,0.1,200,100.0,0.01,0,0.0,200.11,69198
236,SELL,ST_FLIP_GREEN,2026-02-10T20:00:00,2026-02-11T18:00:00,short,68798,67598,2,0,137.6,100.0,2.4,-197.71,-16607.64,-0.2,1200,1.74,0,0.0,-46940.76,-3943023.84,-46.94,13.76,0.1,200,100.0,0.01,0,0.0,200.11,69198
237,BUY,ST_FLIP_RED,2026-02-13T00:00:00,2026-02-14T12:00:00,long,66398,69398,2,0,132.8,100.0,6.0,-194.11,-16305.24,-0.19,3000,4.52,0,0.0,-47134.87,-3959329.08,-47.13,13.28,0.1,200,100.0,0.01,0,0.0,200.11,65998
238,SELL,ST_FLIP_GREEN,2026-02-14T12:00:00,2026-02-15T06:00:00,short,69398,70398,2,0,138.8,100.0,-2.0,-202.11,-16977.24,-0.2,0,0.0,1000,1.44,-47336.98,-3976306.32,-47.34,13.88,0.1,200,100.0,0.01,0,0.0,200.11,69798
239,BUY,ST_FLIP_RED,2026-02-15T06:00:00,2026-02-15T12:00:00,long,70398,69598,2,0,140.8,100.0,-1.6,-201.71,-16943.64,-0.2,0,0.0,800,1.14,-47538.69,-3993249.96,-47.54,14.08,0.1,200,100.0,0.01,0,0.0,200.11,69998
240,SELL,ST_FLIP_GREEN,2026-02-15T12:00:00,2026-02-16T20:00:00,short,69598,68798,2,0,139.2,100.0,1.6,-198.51,-16674.84,-0.2,800,1.15,0,0.0,-47737.2,-4009924.8,-47.74,13.92,0.1,200,100.0,0.01,0,0.0,200.11,69998
241,SELL,ST_FLIP_GREEN,2026-02-17T10:00:00,2026-02-19T18:00:00,short,67998,67198,2,0,136.0,100.0,1.6,-198.51,-16674.84,-0.2,800,1.18,0,0.0,-47935.71,-4026599.64,-47.94,13.6,0.1,200,100.0,0.01,0,0.0,200.11,68398
242,SELL,ST_FLIP_GREEN,2026-02-20T12:00:00,2026-02-20T20:00:00,short,66998,67798,2,0,134.0,100.0,-1.6,-201.71,-16943.64,-0.2,0,0.0,800,1.19,-48137.42,-4043543.28,-48.14,13.4,0.1,200,100.0,0.01,0,0.0,200.11,67398
243,BUY,ST_FLIP_RED,2026-02-20T20:00:00,2026-02-22T16:00:00,long,67798,67398,2,0,135.6,100.0,-0.8,-200.91,-16876.44,-0.2,0,0.0,400,0.59,-48338.33,-4060419.72,-48.34,13.56,0.1,200,100.0,0.01,0,0.0,200.11,67398
244,SELL,ST_FLIP_GREEN,2026-02-22T16:00:00,2026-02-23T06:00:00,short,67398,65398,2,0,134.8,100.0,4.0,-196.11,-16473.24,-0.2,2000,2.97,0,0.0,-48534.44,-4076892.96,-48.53,13.48,0.1,200,100.0,0.01,0,0.0,200.11,67798
245,BUY,ST_FLIP_RED,2026-02-23T06:00:00,2026-02-23T16:00:00,long,65398,65198,2,0,130.8,100.0,-0.4,-200.51,-16842.84,-0.2,0,0.0,200,0.31,-48734.95,-4093735.8,-48.73,13.08,0.1,200,100.0,0.01,0,0.0,200.11,64998
246,SELL,ST_FLIP_GREEN,2026-02-23T16:00:00,2026-02-24T14:00:00,short,65198,63998,2,0,130.4,100.0,2.4,-197.71,-16607.64,-0.2,1200,1.84,0,0.0,-48932.66,-4110343.44,-48.93,13.04,0.1,200,100.0,0.01,0,0.0,200.11,65598
247,BUY,ST_FLIP_RED,2026-02-24T14:00:00,2026-02-25T22:00:00,long,63998,67998,2,0,128.0,100.0,8.0,-192.11,-16137.24,-0.19,4000,6.25,0,0.0,-49124.77,-4126480.68,-49.12,12.8,0.1,200,100.0,0.01,0,0.0,200.11,63598
248,SELL,ST_FLIP_GREEN,2026-02-25T22:00:00,2026-02-28T12:00:00,short,67998,64798,2,0,136.0,100.0,6.4,-193.71,-16271.64,-0.19,3200,4.71,0,0.0,-49318.48,-4142752.32,-49.32,13.6,0.1,200,100.0,0.01,0,0.0,200.11,68398
249,BUY,ST_FLIP_RED,2026-02-28T12:00:00,2026-03-01T08:00:00,long,64798,66398,2,0,129.6,100.0,3.2,-196.91,-16540.44,-0.2,1600,2.47,0,0.0,-49515.39,-4159292.76,-49.52,12.96,0.1,200,100.0,0.01,0,0.0,200.11,64398
250,SELL,ST_FLIP_GREEN,2026-03-01T08:00:00,2026-03-02T14:00:00,short,66398,66598,2,0,132.8,100.0,-0.4,-200.51,-16842.84,-0.2,0,0.0,200,0.3,-49715.9,-4176135.6,-49.72,13.28,0.1,200,100.0,0.01,0,0.0,200.11,66798
251,SELL,ST_FLIP_GREEN,2026-03-03T04:00:00,2026-03-03T14:00:00,short,68198,67798,2,0,136.4,100.0,0.8,-199.31,-16742.04,-0.2,400,0.59,0,0.0,-49915.21,-4192877.64,-49.92,13.64,0.1,200,100.0,0.01,0,0.0,200.11,68598
252,BUY,ST_FLIP_RED,2026-03-03T14:00:00,2026-03-05T04:00:00,long,67798,72398,2,0,135.6,100.0,9.2,-190.91,-16036.44,-0.19,4600,6.78,0,0.0,-50106.12,-4208914.08,-50.11,13.56,0.1,200,100.0,0.01,0,0.0,200.11,67398
253,SELL,ST_FLIP_GREEN,2026-03-05T04:00:00,2026-03-09T02:00:00,short,72398,66998,2,0,144.8,100.0,10.8,-189.31,-15902.04,-0.19,5400,7.46,0,0.0,-50295.43,-4224816.12,-50.3,14.48,0.1,200,100.0,0.01,0,0.0,200.11,72798
254,BUY,ST_FLIP_RED,2026-03-09T02:00:00,2026-03-10T12:00:00,long,66998,69998,2,0,134.0,100.0,6.0,-194.11,-16305.24,-0.19,3000,4.48,0,0.0,-50489.54,-4241121.36,-50.49,13.4,0.1,200,100.0,0.01,0,0.0,200.11,66598
255,SELL,ST_FLIP_GREEN,2026-03-10T12:00:00,2026-03-10T14:00:00,short,69998,70998,2,0,140.0,100.0,-2.0,-202.11,-16977.24,-0.2,0,0.0,1000,1.43,-50691.65,-4258098.6,-50.69,14.0,0.1,200,100.0,0.01,0,0.0,200.11,70398
256,BUY,ST_FLIP_RED,2026-03-10T14:00:00,2026-03-10T18:00:00,long,70998,70398,2,0,142.0,100.0,-1.2,-201.31,-16910.04,-0.2,0,0.0,600,0.85,-50892.96,-4275008.64,-50.89,14.2,0.1,200,100.0,0.01,0,0.0,200.11,70598
257,SELL,ST_FLIP_GREEN,2026-03-10T18:00:00,2026-03-11T12:00:00,short,70398,70198,2,0,140.8,100.0,0.4,-199.71,-16775.64,-0.2,200,0.28,0,0.0,-51092.67,-4291784.28,-51.09,14.08,0.1,200,100.0,0.01,0,0.0,200.11,70798
258,BUY,ST_FLIP_RED,2026-03-11T12:00:00,2026-03-12T02:00:00,long,70198,69598,2,0,140.4,100.0,-1.2,-201.31,-16910.04,-0.2,0,0.0,600,0.85,-51293.98,-4308694.32,-51.29,14.04,0.1,200,100.0,0.01,0,0.0,200.11,69798
259,SELL,ST_FLIP_GREEN,2026-03-12T02:00:00,2026-03-13T00:00:00,short,69598,70798,2,0,139.2,100.0,-2.4,-202.51,-17010.84,-0.2,0,0.0,1200,1.72,-51496.49,-4325705.16,-51.5,13.92,0.1,200,100.0,0.01,0,0.0,200.11,69998
260,BUY,ST_FLIP_RED,2026-03-13T00:00:00,2026-03-13T14:00:00,long,70798,72198,2,0,141.6,100.0,2.8,-197.31,-16574.04,-0.2,1400,1.98,0,0.0,-51693.8,-4342279.2,-51.69,14.16,0.1,200,100.0,0.01,0,0.0,200.11,70398
261,SELL,ST_FLIP_GREEN,2026-03-13T14:00:00,2026-03-15T08:00:00,short,72198,71598,2,0,144.4,100.0,1.2,-198.91,-16708.44,-0.2,600,0.83,0,0.0,-51892.71,-4358987.64,-51.89,14.44,0.1,200,100.0,0.01,0,0.0,200.11,72598
262,BUY,ST_FLIP_RED,2026-03-15T08:00:00,2026-03-17T02:00:00,long,71598,74398,2,0,143.2,100.0,5.6,-194.51,-16338.84,-0.19,2800,3.91,0,0.0,-52087.22,-4375326.48,-52.09,14.32,0.1,200,100.0,0.01,0,0.0,200.11,71198
263,SELL,ST_FLIP_GREEN,2026-03-17T02:00:00,2026-03-17T16:00:00,short,74398,74598,2,0,148.8,100.0,-0.4,-200.51,-16842.84,-0.2,0,0.0,200,0.27,-52287.73,-4392169.32,-52.29,14.88,0.1,200,100.0,0.01,0,0.0,200.11,74798
264,BUY,ST_FLIP_RED,2026-03-17T16:00:00,2026-03-18T10:00:00,long,74598,73598,2,0,149.2,100.0,-2.0,-202.11,-16977.24,-0.2,0,0.0,1000,1.34,-52489.84,-4409146.56,-52.49,14.92,0.1,200,100.0,0.01,0,0.0,200.11,74198
265,SELL,ST_FLIP_GREEN,2026-03-18T10:00:00,2026-03-20T02:00:00,short,73598,70398,2,0,147.2,100.0,6.4,-193.71,-16271.64,-0.19,3200,4.35,0,0.0,-52683.55,-4425418.2,-52.68,14.72,0.1,200,100.0,0.01,0,0.0,200.11,73998
266,BUY,ST_FLIP_RED,2026-03-20T02:00:00,2026-03-20T12:00:00,long,70398,69798,2,0,140.8,100.0,-1.2,-201.31,-16910.04,-0.2,0,0.0,600,0.85,-52884.86,-4442328.24,-52.88,14.08,0.1,200,100.0,0.01,0,0.0,200.11,69998
267,SELL,ST_FLIP_GREEN,2026-03-20T12:00:00,2026-03-23T10:00:00,short,69798,69198,2,0,139.6,100.0,1.2,-198.91,-16708.44,-0.2,600,0.86,0,0.0,-53083.77,-4459036.68,-53.08,13.96,0.1,200,100.0,0.01,0,0.0,200.11,70198
268,BUY,ST_FLIP_RED,2026-03-23T10:00:00,2026-03-23T14:00:00,long,69198,70398,2,0,138.4,100.0,2.4,-197.71,-16607.64,-0.2,1200,1.73,0,0.0,-53281.48,-4475644.32,-53.28,13.84,0.1,200,100.0,0.01,0,0.0,200.11,68798
269,SELL,ST_FLIP_GREEN,2026-03-23T14:00:00,2026-03-23T16:00:00,short,70398,70998,2,0,140.8,100.0,-1.2,-201.31,-16910.04,-0.2,0,0.0,600,0.85,-53482.79,-4492554.36,-53.48,14.08,0.1,200,100.0,0.01,0,0.0,200.11,70798
270,BUY,ST_FLIP_RED,2026-03-23T16:00:00,2026-03-24T12:00:00,long,70998,70198,2,0,142.0,100.0,-1.6,-201.71,-16943.64,-0.2,0,0.0,800,1.13,-53684.5,-4509498.0,-53.68,14.2,0.1,200,100.0,0.01,0,0.0,200.11,70598
271,BUY,ST_FLIP_RED,2026-03-24T20:00:00,2026-03-26T04:00:00,long,70398,70598,2,0,140.8,100.0,0.4,-199.71,-16775.64,-0.2,200,0.28,0,0.0,-53884.21,-4526273.64,-53.88,14.08,0.1,200,100.0,0.01,0,0.0,200.11,69998
272,SELL,ST_FLIP_GREEN,2026-03-26T04:00:00,2026-03-28T12:00:00,short,70598,66798,2,0,141.2,100.0,7.6,-192.51,-16170.84,-0.19,3800,5.38,0,0.0,-54076.72,-4542444.48,-54.08,14.12,0.1,200,100.0,0.01,0,0.0,200.11,70998
273,BUY,ST_FLIP_RED,2026-03-28T12:00:00,2026-03-30T18:00:00,long,66798,66598,2,0,133.6,100.0,-0.4,-200.51,-16842.84,-0.2,0,0.0,200,0.3,-54277.23,-4559287.32,-54.28,13.36,0.1,200,100.0,0.01,0,0.0,200.11,66398
274,SELL,ST_FLIP_GREEN,2026-03-30T18:00:00,2026-03-31T00:00:00,short,66598,67798,2,0,133.2,100.0,-2.4,-202.51,-17010.84,-0.2,0,0.0,1200,1.8,-54479.74,-4576298.16,-54.48,13.32,0.1,200,100.0,0.01,0,0.0,200.11,66998
275,BUY,ST_FLIP_RED,2026-03-31T00:00:00,2026-03-31T08:00:00,long,67798,66998,2,0,135.6,100.0,-1.6,-201.71,-16943.64,-0.2,0,0.0,800,1.18,-54681.45,-4593241.8,-54.68,13.56,0.1,200,100.0,0.01,0,0.0,200.11,67398
276,SELL,ST_FLIP_GREEN,2026-03-31T08:00:00,2026-03-31T12:00:00,short,66998,67198,2,0,134.0,100.0,-0.4,-200.51,-16842.84,-0.2,0,0.0,200,0.3,-54881.96,-4610084.64,-54.88,13.4,0.1,200,100.0,0.01,0,0.0,200.11,67398
277,BUY,ST_FLIP_RED,2026-03-31T12:00:00,2026-04-02T00:00:00,long,67198,67798,2,0,134.4,100.0,1.2,-198.91,-16708.44,-0.2,600,0.89,0,0.0,-55080.87,-4626793.08,-55.08,13.44,0.1,200,100.0,0.01,0,0.0,200.11,66798
278,BUY,ST_FLIP_RED,2026-04-03T06:00:00,2026-04-06T22:00:00,long,67198,68798,2,0,134.4,100.0,3.2,-196.91,-16540.44,-0.2,1600,2.38,0,0.0,-55277.78,-4643333.52,-55.28,13.44,0.1,200,100.0,0.01,0,0.0,200.11,66798
279,SELL,ST_FLIP_GREEN,2026-04-06T22:00:00,2026-04-07T20:00:00,short,68798,69398,2,0,137.6,100.0,-1.2,-201.31,-16910.04,-0.2,0,0.0,600,0.87,-55479.09,-4660243.56,-55.48,13.76,0.1,200,100.0,0.01,0,0.0,200.11,69198
280,SELL,ST_FLIP_GREEN,2026-04-09T12:00:00,2026-04-09T14:00:00,short,70798,71998,2,0,141.6,100.0,-2.4,-202.51,-17010.84,-0.2,0,0.0,1200,1.69,-55681.6,-4677254.4,-55.68,14.16,0.1,200,100.0,0.01,0,0.0,200.11,71198
281,SELL,ST_FLIP_GREEN,2026-04-12T00:00:00,2026-04-13T12:00:00,short,72598,71798,2,0,145.2,100.0,1.6,-198.51,-16674.84,-0.2,800,1.1,0,0.0,-55880.11,-4693929.24,-55.88,14.52,0.1,200,100.0,0.01,0,0.0,200.11,72998
282,BUY,ST_FLIP_RED,2026-04-13T12:00:00,2026-04-14T18:00:00,long,71798,74398,2,0,143.6,100.0,5.2,-194.91,-16372.44,-0.19,2600,3.62,0,0.0,-56075.02,-4710301.68,-56.08,14.36,0.1,200,100.0,0.01,0,0.0,200.11,71398
283,SELL,ST_FLIP_GREEN,2026-04-14T18:00:00,2026-04-15T18:00:00,short,74398,74798,2,0,148.8,100.0,-0.8,-200.91,-16876.44,-0.2,0,0.0,400,0.54,-56275.93,-4727178.12,-56.28,14.88,0.1,200,100.0,0.01,0,0.0,200.11,74798
284,BUY,ST_FLIP_RED,2026-04-15T18:00:00,2026-04-16T12:00:00,long,74798,73998,2,0,149.6,100.0,-1.6,-201.71,-16943.64,-0.2,0,0.0,800,1.07,-56477.64,-4744121.76,-56.48,14.96,0.1,200,100.0,0.01,0,0.0,200.11,74398
285,SELL,ST_FLIP_GREEN,2026-04-16T12:00:00,2026-04-16T14:00:00,short,73998,74798,2,0,148.0,100.0,-1.6,-201.71,-16943.64,-0.2,0,0.0,800,1.08,-56679.35,-4761065.4,-56.68,14.8,0.1,200,100.0,0.01,0,0.0,200.11,74398
286,BUY,ST_FLIP_RED,2026-04-16T14:00:00,2026-04-18T08:00:00,long,74798,76598,2,0,149.6,100.0,3.6,-196.51,-16506.84,-0.2,1800,2.41,0,0.0,-56875.86,-4777572.24,-56.88,14.96,0.1,200,100.0,0.01,0,0.0,200.11,74398
287,SELL,ST_FLIP_GREEN,2026-04-18T08:00:00,2026-04-20T08:00:00,short,76598,74798,2,0,153.2,100.0,3.6,-196.51,-16506.84,-0.2,1800,2.35,0,0.0,-57072.37,-4794079.08,-57.07,15.32,0.1,200,100.0,0.01,0,0.0,200.11,76998
288,BUY,ST_FLIP_RED,2026-04-20T08:00:00,2026-04-21T18:00:00,long,74798,75198,2,0,149.6,100.0,0.8,-199.31,-16742.04,-0.2,400,0.53,0,0.0,-57271.68,-4810821.12,-57.27,14.96,0.1,200,100.0,0.01,0,0.0,200.11,74398
289,BUY,ST_FLIP_RED,2026-04-21T22:00:00,2026-04-22T22:00:00,long,75998,78198,2,0,152.0,100.0,4.4,-195.71,-16439.64,-0.2,2200,2.89,0,0.0,-57467.39,-4827260.76,-57.47,15.2,0.1,200,100.0,0.01,0,0.0,200.11,75598
290,SELL,ST_FLIP_GREEN,2026-04-22T22:00:00,2026-04-26T22:00:00,short,78198,78598,2,0,156.4,100.0,-0.8,-200.91,-16876.44,-0.2,0,0.0,400,0.51,-57668.3,-4844137.2,-57.67,15.64,0.1,200,100.0,0.01,0,0.0,200.11,78598
291,SELL,ST_FLIP_GREEN,2026-04-27T04:00:00,2026-04-29T08:00:00,short,78198,77398,2,0,156.4,100.0,1.6,-198.51,-16674.84,-0.2,800,1.02,0,0.0,-57866.81,-4860812.04,-57.87,15.64,0.1,200,100.0,0.01,0,0.0,200.11,78598
292,SELL,ST_FLIP_GREEN,2026-04-29T12:00:00,2026-05-01T00:00:00,short,76598,76598,2,0,153.2,100.0,0.0,-200.11,-16809.24,-0.2,0,0.0,0,0.0,-58066.92,-4877621.28,-58.07,15.32,0.1,200,100.0,0.01,0,0.0,200.11,76998
293,SELL,ST_FLIP_GREEN,2026-05-04T10:00:00,2026-05-04T14:00:00,short,79198,79798,2,0,158.4,100.0,-1.2,-201.31,-16910.04,-0.2,0,0.0,600,0.76,-58268.23,-4894531.32,-58.27,15.84,0.1,200,100.0,0.01,0,0.0,200.11,79598
294,BUY,ST_FLIP_RED,2026-05-04T14:00:00,2026-05-06T22:00:00,long,79798,81398,2,0,159.6,100.0,3.2,-196.91,-16540.44,-0.2,1600,2.01,0,0.0,-58465.14,-4911071.76,-58.47,15.96,0.1,200,100.0,0.01,0,0.0,200.11,79398
295,SELL,ST_FLIP_GREEN,2026-05-06T22:00:00,2026-05-09T16:00:00,short,81398,80598,2,0,162.8,100.0,1.6,-198.51,-16674.84,-0.2,800,0.98,0,0.0,-58663.65,-4927746.6,-58.66,16.28,0.1,200,100.0,0.01,0,0.0,200.11,81798
296,BUY,ST_FLIP_RED,2026-05-09T16:00:00,2026-05-11T02:00:00,long,80598,81198,2,0,161.2,100.0,1.2,-198.91,-16708.44,-0.2,600,0.74,0,0.0,-58862.56,-4944455.04,-58.86,16.12,0.1,200,100.0,0.01,0,0.0,200.11,80198
297,SELL,ST_FLIP_GREEN,2026-05-11T02:00:00,2026-05-11T16:00:00,short,81198,81798,2,0,162.4,100.0,-1.2,-201.31,-16910.04,-0.2,0,0.0,600,0.74,-59063.87,-4961365.08,-59.06,16.24,0.1,200,100.0,0.01,0,0.0,200.11,81598
298,BUY,ST_FLIP_RED,2026-05-11T16:00:00,2026-05-12T12:00:00,long,81798,80598,2,0,163.6,100.0,-2.4,-202.51,-17010.84,-0.2,0,0.0,1200,1.47,-59266.38,-4978375.92,-59.27,16.36,0.1,200,100.0,0.01,0,0.0,200.11,81398
299,SELL,ST_FLIP_GREEN,2026-05-12T12:00:00,2026-05-14T04:00:00,short,80598,79798,2,0,161.2,100.0,1.6,-198.51,-16674.84,-0.2,800,0.99,0,0.0,-59464.89,-4995050.76,-59.46,16.12,0.1,200,100.0,0.01,0,0.0,200.11,80998
300,BUY,ST_FLIP_RED,2026-05-14T04:00:00,2026-05-15T04:00:00,long,79798,80598,2,0,159.6,100.0,1.6,-198.51,-16674.84,-0.2,800,1.0,0,0.0,-59663.4,-5011725.6,-59.66,15.96,0.1,200,100.0,0.01,0,0.0,200.11,79398
301,SELL,ST_FLIP_GREEN,2026-05-15T04:00:00,2026-05-20T08:00:00,short,80598,77398,2,0,161.2,100.0,6.4,-193.71,-16271.64,-0.19,3200,3.97,0,0.0,-59857.11,-5027997.24,-59.86,16.12,0.1,200,100.0,0.01,0,0.0,200.11,80998
302,BUY,ST_FLIP_RED,2026-05-20T08:00:00,2026-05-22T14:00:00,long,77398,76798,2,0,154.8,100.0,-1.2,-201.31,-16910.04,-0.2,0,0.0,600,0.78,-60058.42,-5044907.28,-60.06,15.48,0.1,200,100.0,0.01,0,0.0,200.11,76998
303,BUY,ST_FLIP_RED,2026-05-23T18:00:00,2026-05-24T20:00:00,long,75598,76198,2,0,151.2,100.0,1.2,-198.91,-16708.44,-0.2,600,0.79,0,0.0,-60257.33,-5061615.72,-60.26,15.12,0.1,200,100.0,0.01,0,0.0,200.11,75198
304,SELL,ST_FLIP_GREEN,2026-05-24T20:00:00,2026-05-24T22:00:00,short,76198,77198,2,0,152.4,100.0,-2.0,-202.11,-16977.24,-0.2,0,0.0,1000,1.31,-60459.44,-5078592.96,-60.46,15.24,0.1,200,100.0,0.01,0,0.0,200.11,76598
305,BUY,ST_FLIP_RED,2026-05-24T22:00:00,2026-05-26T14:00:00,long,77198,76398,2,0,154.4,100.0,-1.6,-201.71,-16943.64,-0.2,0,0.0,800,1.04,-60661.15,-5095536.6,-60.66,15.44,0.1,200,100.0,0.01,0,0.0,200.11,76798
306,SELL,ST_FLIP_GREEN,2026-05-26T14:00:00,2026-05-31T00:00:00,short,76398,73998,2,0,152.8,100.0,4.8,-195.31,-16406.04,-0.2,2400,3.14,0,0.0,-60856.46,-5111942.64,-60.86,15.28,0.1,200,100.0,0.01,0,0.0,200.11,76798
307,BUY,ST_FLIP_RED,2026-05-31T00:00:00,2026-06-01T06:00:00,long,73998,72798,2,0,148.0,100.0,-2.4,-202.51,-17010.84,-0.2,0,0.0,1200,1.62,-61058.97,-5128953.48,-61.06,14.8,0.1,200,100.0,0.01,0,0.0,200.11,73598
308,SELL,ST_FLIP_GREEN,2026-06-01T06:00:00,2026-06-03T04:00:00,short,72798,66998,2,0,145.6,100.0,11.6,-188.51,-15834.84,-0.19,5800,7.97,0,0.0,-61247.48,-5144788.32,-61.25,14.56,0.1,200,100.0,0.01,0,0.0,200.11,73198
309,BUY,ST_FLIP_RED,2026-06-03T04:00:00,2026-06-03T14:00:00,long,66998,66398,2,0,134.0,100.0,-1.2,-201.31,-16910.04,-0.2,0,0.0,600,0.9,-61448.79,-5161698.36,-61.45,13.4,0.1,200,100.0,0.01,0,0.0,200.11,66598
310,SELL,ST_FLIP_GREEN,2026-06-03T14:00:00,2026-06-04T02:00:00,short,66398,63198,2,0,132.8,100.0,6.4,-193.71,-16271.64,-0.19,3200,4.82,0,0.0,-61642.5,-5177970.0,-61.64,13.28,0.1,200,100.0,0.01,0,0.0,200.11,66798
311,BUY,ST_FLIP_RED,2026-06-04T02:00:00,2026-06-04T08:00:00,long,63198,63398,2,0,126.4,100.0,0.4,-199.71,-16775.64,-0.2,200,0.32,0,0.0,-61842.21,-5194745.64,-61.84,12.64,0.1,200,100.0,0.01,0,0.0,200.11,62798
312,SELL,ST_FLIP_GREEN,2026-06-04T08:00:00,2026-06-04T12:00:00,short,63398,63598,2,0,126.8,100.0,-0.4,-200.51,-16842.84,-0.2,0,0.0,200,0.32,-62042.72,-5211588.48,-62.04,12.68,0.1,200,100.0,0.01,0,0.0,200.11,63798
313,BUY,ST_FLIP_RED,2026-06-04T12:00:00,2026-06-04T20:00:00,long,63598,63398,2,0,127.2,100.0,-0.4,-200.51,-16842.84,-0.2,0,0.0,200,0.31,-62243.23,-5228431.32,-62.24,12.72,0.1,200,100.0,0.01,0,0.0,200.11,63198
314,SELL,ST_FLIP_GREEN,2026-06-04T20:00:00,2026-06-05T20:00:00,short,63398,61398,2,0,126.8,100.0,4.0,-196.11,-16473.24,-0.2,2000,3.15,0,0.0,-62439.34,-5244904.56,-62.44,12.68,0.1,200,100.0,0.01,0,0.0,200.11,63798
315,BUY,ST_FLIP_RED,2026-06-05T20:00:00,2026-06-06T02:00:00,long,61398,60798,2,0,122.8,100.0,-1.2,-201.31,-16910.04,-0.2,0,0.0,600,0.98,-62640.65,-5261814.6,-62.64,12.28,0.1,200,100.0,0.01,0,0.0,200.11,60998
