anildalabanjan933/crypto_tradingsystem/output/trade_log_PnFBearishVariant4B_BTCUSD_20260612_051837.csv
trade_number,entry_type,exit_type,entry_datetime,exit_datetime,direction,entry_price,exit_price,size_qty,actual_quantity,size_value,lot_notional_usd,gross_pnl,net_pnl,net_pnl_inr,net_pnl_pct,favorable_excursion,favorable_excursion_pct,adverse_excursion,adverse_excursion_pct,cumulative_pnl,cumulative_pnl_inr,cumulative_pnl_pct,margin_required,taker_fees_usd,slippage_usd,funding_usd,insurance_usd,tax_usd,total_charges_usd,stop_loss
1,FIRST_ENTRY,DOUBLE_TOP,2025-06-13 18:00:00,2025-06-15 05:00:00,short,103744.5,106041.5,100,0.1,10374.45,100.0,-229.7,-234.84,-19726.88,-0.23,0.0,0.0,2297.0,2.21,-234.84,-19726.88,-0.23,1037.45,0.1,5,0.04,0,0.0,5.14,108251.0
2,RE_ENTRY,DOUBLE_TOP,2025-06-19 01:00:00,2025-06-19 03:00:00,short,103575.0,105051.0,100,0.1,10357.5,100.0,-147.6,-152.7,-12827.01,-0.15,0.0,0.0,1476.0,1.43,-387.55,-32553.89,-0.39,1035.75,0.1,5,0.0,0,0.0,5.1,104802.0
3,RE_ENTRY,DOUBLE_TOP,2025-06-21 19:00:00,2025-06-23 13:00:00,short,103067.0,101895.0,100,0.1,10306.7,100.0,117.2,112.05,9411.99,0.11,1172.0,1.14,0.0,0.0,-275.5,-23141.9,-0.28,1030.67,0.1,5,0.05,0,0.0,5.15,105940.0
4,RE_ENTRY,DOUBLE_TOP,2025-06-27 12:00:00,2025-06-30 00:00:00,short,106634.0,108458.5,100,0.1,10663.4,100.0,-182.45,-187.63,-15760.5,-0.19,0.0,0.0,1824.5,1.71,-463.12,-38902.4,-0.46,1066.34,0.1,5,0.07,0,0.0,5.17,107739.0
5,RE_ENTRY,DOUBLE_TOP,2025-07-01 19:00:00,2025-07-03 09:00:00,short,106775.0,109632.0,100,0.1,10677.5,100.0,-285.7,-290.85,-24431.19,-0.29,0.0,0.0,2857.0,2.68,-753.97,-63333.59,-0.75,1067.75,0.1,5,0.05,0,0.0,5.15,108676.0
6,RE_ENTRY,DOUBLE_TOP,2025-07-08 01:00:00,2025-07-09 22:00:00,short,107545.0,111725.5,100,0.1,10754.5,100.0,-418.05,-423.21,-35549.33,-0.42,0.0,0.0,4180.5,3.89,-1177.18,-98882.91,-1.18,1075.45,0.1,5,0.06,0,0.0,5.16,109914.0
7,RE_ENTRY,DOUBLE_TOP,2025-07-15 07:00:00,2025-07-15 13:00:00,short,117088.0,122743.5,100,0.1,11708.8,100.0,-565.55,-570.66,-47935.23,-0.57,0.0,0.0,5655.5,4.83,-1747.84,-146818.14,-1.75,1170.88,0.1,5,0.01,0,0.0,5.11,118132.0
8,RE_ENTRY,DOUBLE_TOP,2025-07-15 14:00:00,2025-07-16 09:00:00,short,116788.5,118126.5,100,0.1,11678.85,100.0,-133.8,-138.92,-11669.6,-0.14,0.0,0.0,1338.0,1.15,-1886.76,-158487.74,-1.89,1167.88,0.1,5,0.02,0,0.0,5.12,122743.5
9,RE_ENTRY,DOUBLE_TOP,2025-07-17 11:00:00,2025-07-17 21:00:00,short,118126.0,119594.5,100,0.1,11812.6,100.0,-146.85,-151.96,-12764.85,-0.15,0.0,0.0,1468.5,1.24,-2038.72,-171252.59,-2.04,1181.26,0.1,5,0.01,0,0.0,5.11,119898.5
10,RE_ENTRY,DOUBLE_TOP,2025-07-18 18:00:00,2025-07-21 07:00:00,short,118649.5,118680.5,100,0.1,11864.95,100.0,-3.1,-8.28,-695.2,-0.01,0.0,0.0,31.0,0.03,-2047.0,-171947.79,-2.05,1186.5,0.1,5,0.08,0,0.0,5.18,120601.0
11,RE_ENTRY,DOUBLE_TOP,2025-07-22 04:00:00,2025-07-22 23:00:00,short,116736.0,119154.5,100,0.1,11673.6,100.0,-241.85,-246.97,-20745.8,-0.25,0.0,0.0,2418.5,2.07,-2293.97,-192693.59,-2.29,1167.36,0.1,5,0.02,0,0.0,5.12,118818.0
12,RE_ENTRY,DOUBLE_TOP,2025-07-23 16:00:00,2025-07-24 08:00:00,short,117349.0,119035.0,100,0.1,11734.9,100.0,-168.6,-173.72,-14592.48,-0.17,0.0,0.0,1686.0,1.44,-2467.69,-207286.07,-2.47,1173.49,0.1,5,0.02,0,0.0,5.12,120005.0
13,RE_ENTRY,DOUBLE_TOP,2025-07-25 06:00:00,2025-07-27 22:00:00,short,115396.0,116516.0,100,0.1,11539.6,100.0,-112.0,-117.18,-9843.12,-0.12,0.0,0.0,1120.0,0.97,-2584.87,-217129.19,-2.58,1153.96,0.1,5,0.08,0,0.0,5.18,119033.0
14,RE_ENTRY,DOUBLE_TOP,2025-07-28 17:00:00,2025-07-29 03:00:00,short,114946.0,119498.0,100,0.1,11494.6,100.0,-455.2,-460.31,-38666.25,-0.46,0.0,0.0,4552.0,3.96,-3045.18,-255795.44,-3.05,1149.46,0.1,5,0.01,0,0.0,5.11,116516.0
15,RE_ENTRY,DOUBLE_TOP,2025-08-01 08:00:00,2025-08-04 16:00:00,short,115373.0,114867.0,100,0.1,11537.3,100.0,50.6,45.4,3813.6,0.05,506.0,0.44,0.0,0.0,-2999.78,-251981.84,-3.0,1153.73,0.1,5,0.1,0,0.0,5.2,118504.0
16,RE_ENTRY,DOUBLE_TOP,2025-08-05 14:00:00,2025-08-07 19:00:00,short,113935.5,115378.5,100,0.1,11393.55,100.0,-144.3,-149.47,-12555.17,-0.15,0.0,0.0,1443.0,1.27,-3149.25,-264537.0,-3.15,1139.36,0.1,5,0.07,0,0.0,5.17,115295.5
17,RE_ENTRY,DOUBLE_TOP,2025-08-15 19:00:00,2025-08-20 22:00:00,short,117827.5,114160.5,100,0.1,11782.75,100.0,366.7,361.45,30361.49,0.36,3667.0,3.11,0.0,0.0,-2787.8,-234175.52,-2.79,1178.28,0.1,5,0.15,0,0.0,5.25,123884.0
18,RE_ENTRY,DOUBLE_TOP,2025-08-25 00:00:00,2025-08-27 17:00:00,short,112575.0,111862.0,100,0.1,11257.5,100.0,71.3,66.12,5553.97,0.07,713.0,0.63,0.0,0.0,-2721.68,-228621.54,-2.72,1125.75,0.1,5,0.08,0,0.0,5.18,115389.5
19,RE_ENTRY,DOUBLE_TOP,2025-08-29 14:00:00,2025-08-31 18:00:00,short,109590.0,109351.0,100,0.1,10959.0,100.0,23.9,18.74,1573.74,0.02,239.0,0.22,0.0,0.0,-2702.95,-227047.8,-2.7,1095.9,0.1,5,0.07,0,0.0,5.17,112519.0
20,RE_ENTRY,DOUBLE_TOP,2025-09-01 10:00:00,2025-09-01 12:00:00,short,107380.5,109400.5,100,0.1,10738.05,100.0,-202.0,-207.1,-17396.61,-0.21,0.0,0.0,2020.0,1.88,-2910.05,-244444.41,-2.91,1073.81,0.1,5,0.0,0,0.0,5.1,109100.5
21,RE_ENTRY,DOUBLE_TOP,2025-09-04 15:00:00,2025-09-05 07:00:00,short,110360.5,111465.5,100,0.1,11036.05,100.0,-110.5,-115.62,-9712.08,-0.12,0.0,0.0,1105.0,1.0,-3025.67,-254156.49,-3.03,1103.61,0.1,5,0.02,0,0.0,5.12,112220.5
22,RE_ENTRY,DOUBLE_TOP,2025-09-05 21:00:00,2025-09-09 06:00:00,short,110530.0,112598.5,100,0.1,11053.0,100.0,-206.85,-212.05,-17812.31,-0.21,0.0,0.0,2068.5,1.87,-3237.72,-271968.8,-3.24,1105.3,0.1,5,0.1,0,0.0,5.2,113171.0
23,RE_ENTRY,DOUBLE_TOP,2025-09-10 00:00:00,2025-09-12 18:00:00,short,110841.0,115807.5,100,0.1,11084.1,100.0,-496.65,-501.83,-42153.93,-0.5,0.0,0.0,4966.5,4.48,-3739.56,-314122.73,-3.74,1108.41,0.1,5,0.08,0,0.0,5.18,113001.5
24,RE_ENTRY,DOUBLE_TOP,2025-09-15 08:00:00,2025-09-16 05:00:00,short,115035.5,116488.5,100,0.1,11503.55,100.0,-145.3,-150.43,-12635.81,-0.15,0.0,0.0,1453.0,1.26,-3889.98,-326758.53,-3.89,1150.36,0.1,5,0.03,0,0.0,5.13,116030.0
25,RE_ENTRY,DOUBLE_TOP,2025-09-22 19:00:00,2025-09-25 18:00:00,short,112465.0,113671.5,100,0.1,11246.5,100.0,-120.65,-125.84,-10570.45,-0.13,0.0,0.0,1206.5,1.07,-4015.82,-337328.99,-4.02,1124.65,0.1,5,0.09,0,0.0,5.19,115921.0
26,RE_ENTRY,DOUBLE_TOP,2025-09-25 23:00:00,2025-09-28 23:00:00,short,108805.0,109857.5,100,0.1,10880.5,100.0,-105.25,-110.44,-9276.96,-0.11,0.0,0.0,1052.5,0.97,-4126.26,-346605.95,-4.13,1088.05,0.1,5,0.09,0,0.0,5.19,113671.5
27,RE_ENTRY,DOUBLE_TOP,2025-10-05 19:00:00,2025-10-06 01:00:00,short,121545.0,125180.5,100,0.1,12154.5,100.0,-363.55,-368.66,-30967.23,-0.37,0.0,0.0,3635.5,2.99,-4494.92,-377573.18,-4.49,1215.45,0.1,5,0.01,0,0.0,5.11,122460.5
28,RE_ENTRY,DOUBLE_TOP,2025-10-07 23:00:00,2025-10-08 17:00:00,short,120851.0,122895.0,100,0.1,12085.1,100.0,-204.4,-209.52,-17599.89,-0.21,0.0,0.0,2044.0,1.69,-4704.44,-395173.07,-4.7,1208.51,0.1,5,0.02,0,0.0,5.12,124882.0
29,RE_ENTRY,DOUBLE_TOP,2025-10-09 16:00:00,2025-10-13 01:00:00,short,121215.0,111784.0,100,0.1,12121.5,100.0,943.1,937.9,78783.5,0.94,9431.0,7.78,0.0,0.0,-3766.54,-316389.57,-3.77,1212.15,0.1,5,0.1,0,0.0,5.2,123997.5
30,RE_ENTRY,DOUBLE_TOP,2025-10-13 14:00:00,2025-10-14 11:00:00,short,114139.0,115739.0,100,0.1,11413.9,100.0,-160.0,-165.13,-13870.6,-0.17,0.0,0.0,1600.0,1.4,-3931.67,-330260.18,-3.93,1141.39,0.1,5,0.03,0,0.0,5.13,115180.5
31,RE_ENTRY,DOUBLE_TOP,2025-10-14 12:00:00,2025-10-14 21:00:00,short,110582.0,112834.5,100,0.1,11058.2,100.0,-225.25,-230.36,-19350.35,-0.23,0.0,0.0,2252.5,2.04,-4162.03,-349610.52,-4.16,1105.82,0.1,5,0.01,0,0.0,5.11,115739.0
32,RE_ENTRY,DOUBLE_TOP,2025-10-15 15:00:00,2025-10-17 11:00:00,short,111990.5,109113.0,100,0.1,11199.05,100.0,287.75,282.6,23737.98,0.28,2877.5,2.57,0.0,0.0,-3879.43,-325872.54,-3.88,1119.91,0.1,5,0.06,0,0.0,5.15,113071.0
33,RE_ENTRY,DOUBLE_TOP,2025-10-17 14:00:00,2025-10-18 01:00:00,short,104497.5,107243.0,100,0.1,10449.75,100.0,-274.55,-279.66,-23491.76,-0.28,0.0,0.0,2745.5,2.63,-4159.1,-349364.3,-4.16,1044.97,0.1,5,0.01,0,0.0,5.11,109113.0
34,RE_ENTRY,DOUBLE_TOP,2025-10-29 16:00:00,2025-10-30 14:00:00,short,112391.5,111324.5,100,0.1,11239.15,100.0,106.7,101.57,8532.09,0.1,1067.0,0.95,0.0,0.0,-4057.53,-340832.21,-4.06,1123.92,0.1,5,0.03,0,0.0,5.13,115308.5
35,RE_ENTRY,DOUBLE_TOP,2025-10-30 19:00:00,2025-10-31 04:00:00,short,107592.5,109595.5,100,0.1,10759.25,100.0,-200.3,-205.41,-17254.55,-0.21,0.0,0.0,2003.0,1.86,-4262.94,-358086.75,-4.26,1075.92,0.1,5,0.01,0,0.0,5.11,111324.5
36,RE_ENTRY,DOUBLE_TOP,2025-11-03 15:00:00,2025-11-05 18:00:00,short,106863.5,102105.5,100,0.1,10686.35,100.0,475.8,470.64,39533.44,0.47,4758.0,4.45,0.0,0.0,-3792.3,-318553.3,-3.79,1068.63,0.1,5,0.06,0,0.0,5.16,110505.5
37,RE_ENTRY,DOUBLE_TOP,2025-11-06 16:00:00,2025-11-07 20:00:00,short,102517.0,102409.5,100,0.1,10251.7,100.0,10.75,5.62,471.66,0.01,107.5,0.1,0.0,0.0,-3786.69,-318081.65,-3.79,1025.17,0.1,5,0.04,0,0.0,5.13,103998.0
38,RE_ENTRY,DOUBLE_TOP,2025-11-08 11:00:00,2025-11-08 22:00:00,short,99618.0,103740.0,100,0.1,9961.8,100.0,-412.2,-417.31,-35054.36,-0.42,0.0,0.0,4122.0,4.14,-4204.0,-353136.0,-4.2,996.18,0.1,5,0.01,0,0.0,5.11,102409.5
39,RE_ENTRY,DOUBLE_TOP,2025-11-14 00:00:00,2025-11-15 13:00:00,short,98136.0,96462.5,100,0.1,9813.6,100.0,167.35,162.2,13625.12,0.16,1673.5,1.71,0.0,0.0,-4041.8,-339510.89,-4.04,981.36,0.1,5,0.05,0,0.0,5.15,102833.0
40,RE_ENTRY,DOUBLE_TOP,2025-11-16 21:00:00,2025-11-17 00:00:00,short,95259.5,96608.0,100,0.1,9525.95,100.0,-134.85,-139.95,-11756.11,-0.14,0.0,0.0,1348.5,1.42,-4181.75,-351267.0,-4.18,952.6,0.1,5,0.0,0,0.0,5.1,96336.0
41,RE_ENTRY,DOUBLE_TOP,2025-11-17 01:00:00,2025-11-17 14:00:00,short,93481.5,95480.0,100,0.1,9348.15,100.0,-199.85,-204.97,-17217.17,-0.2,0.0,0.0,1998.5,2.14,-4386.72,-368484.16,-4.39,934.81,0.1,5,0.02,0,0.0,5.12,96608.0
42,RE_ENTRY,DOUBLE_TOP,2025-11-17 19:00:00,2025-11-18 22:00:00,short,93923.5,93457.0,100,0.1,9392.35,100.0,46.65,41.52,3487.37,0.04,466.5,0.5,0.0,0.0,-4345.2,-364996.8,-4.35,939.24,0.1,5,0.03,0,0.0,5.13,95480.0
43,RE_ENTRY,DOUBLE_TOP,2025-11-19 10:00:00,2025-11-20 19:00:00,short,90424.5,92946.5,100,0.1,9042.45,100.0,-252.2,-257.34,-21616.67,-0.26,0.0,0.0,2522.0,2.79,-4602.54,-386613.46,-4.6,904.25,0.1,5,0.04,0,0.0,5.14,93132.5
44,RE_ENTRY,DOUBLE_TOP,2025-11-20 20:00:00,2025-11-21 00:00:00,short,86455.0,88035.5,100,0.1,8645.5,100.0,-158.05,-163.16,-13705.02,-0.16,0.0,0.0,1580.5,1.83,-4765.7,-400318.48,-4.77,864.55,0.1,5,0.01,0,0.0,5.1,92946.5
45,RE_ENTRY,DOUBLE_TOP,2025-11-21 09:00:00,2025-11-21 16:00:00,short,85408.5,84808.5,100,0.1,8540.85,100.0,60.0,54.89,4610.86,0.05,600.0,0.7,0.0,0.0,-4710.8,-395707.62,-4.71,854.09,0.1,5,0.01,0,0.0,5.11,87258.0
46,RE_ENTRY,DOUBLE_TOP,2025-11-22 10:00:00,2025-11-23 15:00:00,short,84214.5,86507.5,100,0.1,8421.45,100.0,-229.3,-234.44,-19692.65,-0.23,0.0,0.0,2293.0,2.72,-4945.24,-415400.27,-4.95,842.15,0.1,5,0.04,0,0.0,5.14,85150.0
47,RE_ENTRY,DOUBLE_TOP,2025-11-25 14:00:00,2025-11-26 07:00:00,short,86988.0,87887.0,100,0.1,8698.8,100.0,-89.9,-95.02,-7981.79,-0.1,0.0,0.0,899.0,1.03,-5040.26,-423382.05,-5.04,869.88,0.1,5,0.02,0,0.0,5.12,88308.0
48,RE_ENTRY,DOUBLE_TOP,2025-11-29 17:00:00,2025-12-01 08:00:00,short,90631.0,91736.5,100,0.1,9063.1,100.0,-110.55,-115.7,-9718.7,-0.12,0.0,0.0,1105.5,1.22,-5155.96,-433100.74,-5.16,906.31,0.1,5,0.05,0,0.0,5.15,92339.0
49,RE_ENTRY,DOUBLE_TOP,2025-12-01 12:00:00,2025-12-02 18:00:00,short,85776.0,86945.0,100,0.1,8577.6,100.0,-116.9,-122.04,-10251.15,-0.12,0.0,0.0,1169.0,1.36,-5278.0,-443351.9,-5.28,857.76,0.1,5,0.04,0,0.0,5.14,91736.5
50,RE_ENTRY,DOUBLE_TOP,2025-12-04 19:00:00,2025-12-07 03:00:00,short,91869.0,89957.0,100,0.1,9186.9,100.0,191.2,186.03,15626.52,0.19,1912.0,2.08,0.0,0.0,-5091.97,-427725.38,-5.09,918.69,0.1,5,0.07,0,0.0,5.17,93368.5
51,RE_ENTRY,DOUBLE_TOP,2025-12-11 03:00:00,2025-12-12 02:00:00,short,91804.0,92833.5,100,0.1,9180.4,100.0,-102.95,-108.08,-9078.61,-0.11,0.0,0.0,1029.5,1.12,-5200.05,-436803.99,-5.2,918.04,0.1,5,0.03,0,0.0,5.13,92880.0
52,RE_ENTRY,DOUBLE_TOP,2025-12-14 23:00:00,2025-12-16 15:00:00,short,89903.5,87225.0,100,0.1,8990.35,100.0,267.85,262.7,22066.8,0.26,2678.5,2.98,0.0,0.0,-4937.35,-414737.19,-4.94,899.04,0.1,5,0.05,0,0.0,5.15,92551.0
53,RE_ENTRY,DOUBLE_TOP,2025-12-17 18:00:00,2025-12-18 13:00:00,short,86374.5,89642.0,100,0.1,8637.45,100.0,-326.75,-331.87,-27877.39,-0.33,0.0,0.0,3267.5,3.78,-5269.22,-442614.59,-5.27,863.75,0.1,5,0.02,0,0.0,5.12,87749.5
54,RE_ENTRY,DOUBLE_TOP,2025-12-23 14:00:00,2025-12-23 18:00:00,short,87363.5,87968.0,100,0.1,8736.35,100.0,-60.45,-65.56,-5506.62,-0.07,0.0,0.0,604.5,0.69,-5334.78,-448121.21,-5.33,873.63,0.1,5,0.01,0,0.0,5.1,88625.5
55,RE_ENTRY,DOUBLE_TOP,2025-12-24 14:00:00,2025-12-25 15:00:00,short,86760.0,87971.5,100,0.1,8676.0,100.0,-121.15,-126.28,-10607.62,-0.13,0.0,0.0,1211.5,1.4,-5461.06,-458728.83,-5.46,867.6,0.1,5,0.03,0,0.0,5.13,87959.5
56,RE_ENTRY,DOUBLE_TOP,2026-01-07 01:00:00,2026-01-09 16:00:00,short,91557.0,91330.0,100,0.1,9155.7,100.0,22.7,17.52,1471.79,0.02,227.0,0.25,0.0,0.0,-5443.54,-457257.05,-5.44,915.57,0.1,5,0.08,0,0.0,5.18,93809.5
57,RE_ENTRY,DOUBLE_TOP,2026-01-15 14:00:00,2026-01-21 19:00:00,short,95953.5,90247.0,100,0.1,9595.35,100.0,570.65,565.36,47490.56,0.57,5706.5,5.95,0.0,0.0,-4878.17,-409766.49,-4.88,959.54,0.1,5,0.19,0,0.0,5.29,97611.5
58,RE_ENTRY,DOUBLE_TOP,2026-01-22 21:00:00,2026-01-23 17:00:00,short,89064.5,89902.0,100,0.1,8906.45,100.0,-83.75,-88.88,-7465.5,-0.09,0.0,0.0,837.5,0.94,-4967.05,-417231.99,-4.97,890.65,0.1,5,0.03,0,0.0,5.12,90080.0
59,RE_ENTRY,DOUBLE_TOP,2026-01-25 19:00:00,2026-01-26 18:00:00,short,88263.0,88146.5,100,0.1,8826.3,100.0,11.65,6.52,547.79,0.01,116.5,0.13,0.0,0.0,-4960.53,-416684.21,-4.96,882.63,0.1,5,0.03,0,0.0,5.13,89747.5
60,RE_ENTRY,DOUBLE_TOP,2026-01-29 18:00:00,2026-01-30 19:00:00,short,87866.0,83112.5,100,0.1,8786.6,100.0,475.35,470.22,39498.38,0.47,4753.5,5.41,0.0,0.0,-4490.31,-377185.83,-4.49,878.66,0.1,5,0.03,0,0.0,5.13,90151.5
61,RE_ENTRY,DOUBLE_TOP,2026-02-01 01:00:00,2026-02-01 11:00:00,short,77715.0,79005.0,100,0.1,7771.5,100.0,-129.0,-134.11,-11265.45,-0.13,0.0,0.0,1290.0,1.66,-4624.42,-388451.28,-4.62,777.15,0.1,5,0.01,0,0.0,5.11,84208.5
62,RE_ENTRY,DOUBLE_TOP,2026-02-01 21:00:00,2026-02-02 17:00:00,short,77570.0,78179.5,100,0.1,7757.0,100.0,-60.95,-66.08,-5550.3,-0.07,0.0,0.0,609.5,0.79,-4690.49,-394001.58,-4.69,775.7,0.1,5,0.03,0,0.0,5.12,78719.5
63,RE_ENTRY,DOUBLE_TOP,2026-02-03 18:00:00,2026-02-04 06:00:00,short,77167.0,76661.5,100,0.1,7716.7,100.0,50.55,45.44,3816.54,0.05,505.5,0.66,0.0,0.0,-4645.06,-390185.04,-4.65,771.67,0.1,5,0.01,0,0.0,5.11,78757.0
64,RE_ENTRY,DOUBLE_TOP,2026-02-04 22:00:00,2026-02-06 05:00:00,short,72551.0,65672.0,100,0.1,7255.1,100.0,687.9,682.76,57351.95,0.68,6879.0,9.48,0.0,0.0,-3962.3,-332833.1,-3.96,725.51,0.1,5,0.04,0,0.0,5.14,76625.0
65,RE_ENTRY,DOUBLE_TOP,2026-02-07 10:00:00,2026-02-07 20:00:00,short,68067.0,68996.0,100,0.1,6806.7,100.0,-92.9,-98.01,-8233.05,-0.1,0.0,0.0,929.0,1.36,-4060.31,-341066.15,-4.06,680.67,0.1,5,0.01,0,0.0,5.11,70887.5
66,RE_ENTRY,DOUBLE_TOP,2026-02-09 10:00:00,2026-02-09 12:00:00,short,70295.0,71277.0,100,0.1,7029.5,100.0,-98.2,-103.3,-8677.41,-0.1,0.0,0.0,982.0,1.4,-4163.61,-349743.56,-4.16,702.95,0.1,5,0.0,0,0.0,5.1,71027.0
67,RE_ENTRY,DOUBLE_TOP,2026-02-09 13:00:00,2026-02-10 01:00:00,short,68700.5,70920.5,100,0.1,6870.05,100.0,-222.0,-227.12,-19077.66,-0.23,0.0,0.0,2220.0,3.23,-4390.73,-368821.22,-4.39,687.0,0.1,5,0.01,0,0.0,5.11,71277.0
68,RE_ENTRY,DOUBLE_TOP,2026-02-10 11:00:00,2026-02-11 00:00:00,short,69479.5,69893.0,100,0.1,6947.95,100.0,-41.35,-46.47,-3903.16,-0.05,0.0,0.0,413.5,0.6,-4437.19,-372724.38,-4.44,694.8,0.1,5,0.02,0,0.0,5.12,70461.5
69,RE_ENTRY,DOUBLE_TOP,2026-02-11 16:00:00,2026-02-12 01:00:00,short,66512.5,67787.5,100,0.1,6651.25,100.0,-127.5,-132.61,-11139.35,-0.13,0.0,0.0,1275.0,1.92,-4569.81,-383863.72,-4.57,665.12,0.1,5,0.01,0,0.0,5.11,69168.0
70,RE_ENTRY,DOUBLE_TOP,2026-02-12 20:00:00,2026-02-13 02:00:00,short,65390.0,66269.0,100,0.1,6539.0,100.0,-87.9,-93.01,-7812.63,-0.09,0.0,0.0,879.0,1.34,-4662.81,-391676.35,-4.66,653.9,0.1,5,0.01,0,0.0,5.11,68346.0
71,RE_ENTRY,DOUBLE_TOP,2026-02-16 02:00:00,2026-02-16 21:00:00,short,68270.0,69745.5,100,0.1,6827.0,100.0,-147.55,-152.67,-12824.6,-0.15,0.0,0.0,1475.5,2.16,-4815.49,-404500.95,-4.82,682.7,0.1,5,0.02,0,0.0,5.12,70790.5
72,RE_ENTRY,DOUBLE_TOP,2026-02-17 14:00:00,2026-02-20 22:00:00,short,67513.0,68181.5,100,0.1,6751.3,100.0,-66.85,-72.05,-6052.2,-0.07,0.0,0.0,668.5,0.99,-4887.54,-410553.15,-4.89,675.13,0.1,5,0.1,0,0.0,5.2,69745.5
73,RE_ENTRY,DOUBLE_TOP,2026-02-24 05:00:00,2026-02-25 01:00:00,short,64279.5,64401.0,100,0.1,6427.95,100.0,-12.15,-17.27,-1451.1,-0.02,0.0,0.0,121.5,0.19,-4904.81,-412004.25,-4.9,642.8,0.1,5,0.03,0,0.0,5.12,66381.0
74,RE_ENTRY,DOUBLE_TOP,2026-02-26 16:00:00,2026-02-27 13:00:00,short,67806.0,67903.5,100,0.1,6780.6,100.0,-9.75,-14.88,-1249.61,-0.01,0.0,0.0,97.5,0.14,-4919.69,-413253.85,-4.92,678.06,0.1,5,0.03,0,0.0,5.13,68539.5
75,RE_ENTRY,DOUBLE_TOP,2026-02-27 18:00:00,2026-02-28 22:00:00,short,65913.0,65075.5,100,0.1,6591.3,100.0,83.75,78.61,6603.66,0.08,837.5,1.27,0.0,0.0,-4841.07,-406650.19,-4.84,659.13,0.1,5,0.04,0,0.0,5.13,67903.5
76,RE_ENTRY,DOUBLE_TOP,2026-03-01 17:00:00,2026-03-02 10:00:00,short,66278.0,66792.0,100,0.1,6627.8,100.0,-51.4,-56.52,-4747.79,-0.06,0.0,0.0,514.0,0.78,-4897.59,-411397.98,-4.9,662.78,0.1,5,0.02,0,0.0,5.12,67594.5
77,RE_ENTRY,DOUBLE_TOP,2026-03-03 14:00:00,2026-03-03 23:00:00,short,66621.5,68596.0,100,0.1,6662.15,100.0,-197.45,-202.56,-17015.15,-0.2,0.0,0.0,1974.5,2.96,-5100.16,-428413.12,-5.1,666.22,0.1,5,0.01,0,0.0,5.11,69366.0
78,RE_ENTRY,DOUBLE_TOP,2026-03-05 23:00:00,2026-03-08 19:00:00,short,70678.0,67883.5,100,0.1,7067.8,100.0,279.45,274.26,23038.26,0.27,2794.5,3.95,0.0,0.0,-4825.89,-405374.86,-4.83,706.78,0.1,5,0.09,0,0.0,5.18,73357.5
79,RE_ENTRY,DOUBLE_TOP,2026-03-09 06:00:00,2026-03-09 09:00:00,short,65941.5,67875.0,100,0.1,6594.15,100.0,-193.35,-198.45,-16670.12,-0.2,0.0,0.0,1933.5,2.93,-5024.34,-422044.98,-5.02,659.42,0.1,5,0.0,0,0.0,5.1,67305.5
80,RE_ENTRY,DOUBLE_TOP,2026-03-11 03:00:00,2026-03-11 17:00:00,short,69718.5,70543.0,100,0.1,6971.85,100.0,-82.45,-87.57,-7355.67,-0.09,0.0,0.0,824.5,1.18,-5111.91,-429400.65,-5.11,697.19,0.1,5,0.02,0,0.0,5.12,71443.5
81,RE_ENTRY,DOUBLE_TOP,2026-03-12 14:00:00,2026-03-13 13:00:00,short,69250.0,71636.5,100,0.1,6925.0,100.0,-238.65,-243.78,-20477.42,-0.24,0.0,0.0,2386.5,3.45,-5355.69,-449878.06,-5.36,692.5,0.1,5,0.03,0,0.0,5.13,70752.0
82,RE_ENTRY,DOUBLE_TOP,2026-03-14 09:00:00,2026-03-15 17:00:00,short,70607.0,71808.0,100,0.1,7060.7,100.0,-120.1,-125.24,-10520.16,-0.13,0.0,0.0,1201.0,1.7,-5480.93,-460398.22,-5.48,706.07,0.1,5,0.04,0,0.0,5.14,73357.0
83,RE_ENTRY,DOUBLE_TOP,2026-03-19 08:00:00,2026-03-20 08:00:00,short,71167.0,70452.0,100,0.1,7116.7,100.0,71.5,66.37,5575.08,0.07,715.0,1.0,0.0,0.0,-5414.56,-454823.14,-5.41,711.67,0.1,5,0.03,0,0.0,5.13,74421.5
84,RE_ENTRY,DOUBLE_TOP,2026-03-21 23:00:00,2026-03-23 13:00:00,short,69712.0,68871.5,100,0.1,6971.2,100.0,84.05,78.9,6627.81,0.08,840.5,1.21,0.0,0.0,-5335.66,-448195.33,-5.34,697.12,0.1,5,0.05,0,0.0,5.15,71007.0
85,RE_ENTRY,DOUBLE_TOP,2026-03-26 17:00:00,2026-03-28 15:00:00,short,69246.5,66527.5,100,0.1,6924.65,100.0,271.9,266.74,22406.37,0.27,2719.0,3.93,0.0,0.0,-5068.92,-425788.96,-5.07,692.47,0.1,5,0.06,0,0.0,5.16,71337.0
86,RE_ENTRY,DOUBLE_TOP,2026-03-29 22:00:00,2026-03-30 12:00:00,short,66364.0,67585.5,100,0.1,6636.4,100.0,-122.15,-127.27,-10690.47,-0.13,0.0,0.0,1221.5,1.84,-5196.18,-436479.43,-5.2,663.64,0.1,5,0.02,0,0.0,5.12,66787.0
87,RE_ENTRY,DOUBLE_TOP,2026-03-31 14:00:00,2026-04-01 06:00:00,short,66105.5,68230.0,100,0.1,6610.55,100.0,-212.45,-217.57,-18275.88,-0.22,0.0,0.0,2124.5,3.21,-5413.75,-454755.31,-5.41,661.06,0.1,5,0.02,0,0.0,5.12,67902.5
88,RE_ENTRY,DOUBLE_TOP,2026-04-02 12:00:00,2026-04-02 22:00:00,short,66306.5,67060.0,100,0.1,6630.65,100.0,-75.35,-80.46,-6758.85,-0.08,0.0,0.0,753.5,1.14,-5494.22,-461514.16,-5.49,663.07,0.1,5,0.01,0,0.0,5.11,68571.5
89,RE_ENTRY,DOUBLE_TOP,2026-04-07 14:00:00,2026-04-08 12:00:00,short,68370.0,71897.0,100,0.1,6837.0,100.0,-352.7,-357.83,-30057.51,-0.36,0.0,0.0,3527.0,5.16,-5852.04,-491571.67,-5.85,683.7,0.1,5,0.03,0,0.0,5.13,69928.5
90,RE_ENTRY,DOUBLE_TOP,2026-04-08 18:00:00,2026-04-09 20:00:00,short,70895.5,72314.5,100,0.1,7089.55,100.0,-141.9,-147.03,-12350.73,-0.15,0.0,0.0,1419.0,2.0,-5999.08,-503922.4,-6.0,708.96,0.1,5,0.03,0,0.0,5.13,72031.5
91,RE_ENTRY,DOUBLE_TOP,2026-04-12 23:00:00,2026-04-13 22:00:00,short,70722.0,72355.0,100,0.1,7072.2,100.0,-163.3,-168.43,-14148.02,-0.17,0.0,0.0,1633.0,2.31,-6167.5,-518070.42,-6.17,707.22,0.1,5,0.03,0,0.0,5.13,73643.5
92,RE_ENTRY,DOUBLE_TOP,2026-04-15 07:00:00,2026-04-16 15:00:00,short,74056.5,74944.0,100,0.1,7405.65,100.0,-88.75,-93.89,-7886.76,-0.09,0.0,0.0,887.5,1.2,-6261.39,-525957.18,-6.26,740.57,0.1,5,0.04,0,0.0,5.14,75479.0
93,RE_ENTRY,DOUBLE_TOP,2026-04-19 23:00:00,2026-04-21 10:00:00,short,74975.0,76379.0,100,0.1,7497.5,100.0,-140.4,-145.54,-12225.68,-0.15,0.0,0.0,1404.0,1.87,-6406.94,-538182.85,-6.41,749.75,0.1,5,0.04,0,0.0,5.14,77835.0
94,RE_ENTRY,DOUBLE_TOP,2026-04-23 03:00:00,2026-04-23 06:00:00,short,74988.0,79234.0,100,0.1,7498.8,100.0,-424.6,-429.7,-36095.11,-0.43,0.0,0.0,4246.0,5.66,-6836.64,-574277.97,-6.84,749.88,0.1,5,0.0,0,0.0,5.1,76702.0
95,RE_ENTRY,DOUBLE_TOP,2026-04-23 17:00:00,2026-04-24 00:00:00,short,77362.5,78329.0,100,0.1,7736.25,100.0,-96.65,-101.76,-8547.74,-0.1,0.0,0.0,966.5,1.25,-6938.4,-582825.7,-6.94,773.62,0.1,5,0.01,0,0.0,5.11,78167.0
96,RE_ENTRY,DOUBLE_TOP,2026-04-24 22:00:00,2026-04-27 23:00:00,short,77497.5,79257.0,100,0.1,7749.75,100.0,-175.95,-181.14,-15215.87,-0.18,0.0,0.0,1759.5,2.27,-7119.54,-598041.57,-7.12,774.98,0.1,5,0.09,0,0.0,5.19,78377.0
97,RE_ENTRY,DOUBLE_TOP,2026-04-28 14:00:00,2026-04-29 17:00:00,short,76587.5,77605.0,100,0.1,7658.75,100.0,-101.75,-106.88,-8978.24,-0.11,0.0,0.0,1017.5,1.33,-7226.43,-607019.8,-7.23,765.88,0.1,5,0.03,0,0.0,5.13,79257.0
98,RE_ENTRY,DOUBLE_TOP,2026-04-29 18:00:00,2026-05-02 21:00:00,short,75775.0,78691.0,100,0.1,7577.5,100.0,-291.6,-296.79,-24930.68,-0.3,0.0,0.0,2916.0,3.85,-7523.22,-631950.48,-7.52,757.75,0.1,5,0.09,0,0.0,5.19,77605.0
99,RE_ENTRY,DOUBLE_TOP,2026-05-08 13:00:00,2026-05-10 23:00:00,short,79450.0,81381.5,100,0.1,7945.0,100.0,-193.15,-198.32,-16659.09,-0.2,0.0,0.0,1931.5,2.43,-7721.54,-648609.57,-7.72,794.5,0.1,5,0.07,0,0.0,5.17,81395.5
100,RE_ENTRY,DOUBLE_TOP,2026-05-13 15:00:00,2026-05-14 16:00:00,short,79967.5,79772.0,100,0.1,7996.75,100.0,19.55,14.42,1211.18,0.01,195.5,0.24,0.0,0.0,-7707.12,-647398.39,-7.71,799.67,0.1,5,0.03,0,0.0,5.13,81897.0
101,RE_ENTRY,DOUBLE_TOP,2026-05-15 13:00:00,2026-05-20 12:00:00,short,80321.5,77200.5,100,0.1,8032.15,100.0,312.1,306.85,25775.51,0.31,3121.0,3.89,0.0,0.0,-7400.27,-621622.89,-7.4,803.22,0.1,5,0.15,0,0.0,5.25,81470.0
102,RE_ENTRY,DOUBLE_TOP,2026-05-21 18:00:00,2026-05-26 10:00:00,short,76944.0,77695.0,100,0.1,7694.4,100.0,-75.1,-80.34,-6748.56,-0.08,0.0,0.0,751.0,0.98,-7480.61,-628371.45,-7.48,769.44,0.1,5,0.14,0,0.0,5.24,77930.5
103,RE_ENTRY,DOUBLE_TOP,2026-05-27 17:00:00,2026-05-29 05:00:00,short,75543.0,73804.0,100,0.1,7554.3,100.0,173.9,168.75,14175.42,0.17,1739.0,2.3,0.0,0.0,-7311.86,-614196.03,-7.31,755.43,0.1,5,0.04,0,0.0,5.14,77399.0
104,RE_ENTRY,DOUBLE_TOP,2026-06-01 15:00:00,2026-06-03 10:00:00,short,73264.5,67297.5,100,0.1,7326.45,100.0,596.7,591.55,49689.89,0.59,5967.0,8.14,0.0,0.0,-6720.31,-564506.14,-6.72,732.65,0.1,5,0.05,0,0.0,5.15,73923.0
105,RE_ENTRY,DOUBLE_TOP,2026-06-04 01:00:00,2026-06-06 08:00:00,short,64979.5,61600.0,100,0.1,6497.95,100.0,337.95,332.78,27953.63,0.33,3379.5,5.2,0.0,0.0,-6387.53,-536552.52,-6.39,649.8,0.1,5,0.07,0,0.0,5.17,67267.0
