anildalabanjan933/crypto_tradingsystem/output/trade_log_PnFBearishPullback_BTCUSD_20260611_042710.csv
trade_number,entry_type,exit_type,entry_datetime,exit_datetime,direction,entry_price,exit_price,size_qty,actual_quantity,size_value,lot_notional_usd,gross_pnl,net_pnl,net_pnl_inr,net_pnl_pct,favorable_excursion,favorable_excursion_pct,adverse_excursion,adverse_excursion_pct,cumulative_pnl,cumulative_pnl_inr,cumulative_pnl_pct,margin_required,taker_fees_usd,slippage_usd,funding_usd,insurance_usd,tax_usd,total_charges_usd,stop_loss
1,FIRST_ENTRY,SL_HIT,2025-06-18 18:00:00,2025-06-18 21:00:00,short,103575.0,105106.5,100,0.1,10357.5,100.0,-153.15,-158.25,-13293.32,-0.16,0.0,0.0,1531.5,1.48,-158.25,-13293.32,-0.16,1035.75,0.1,5,0.0,0,0.0,5.1,104959.2
2,RE_ENTRY,SL_HIT,2025-06-19 15:00:00,2025-06-20 07:00:00,short,104066.0,105777.5,100,0.1,10406.6,100.0,-171.15,-176.27,-14806.68,-0.18,0.0,0.0,1711.5,1.64,-334.52,-28100.0,-0.33,1040.66,0.1,5,0.02,0,0.0,5.12,105222.1
3,RE_ENTRY,DOUBLE_TOP,2025-06-20 22:00:00,2025-06-22 00:00:00,short,103067.0,102806.0,100,0.1,10306.7,100.0,26.1,20.97,1761.27,0.02,261.0,0.25,0.0,0.0,-313.56,-26338.73,-0.31,1030.67,0.1,5,0.03,0,0.0,5.13,106098.91
4,RE_ENTRY,DOUBLE_TOP,2025-06-22 09:00:00,2025-06-23 06:00:00,short,102169.0,101895.0,100,0.1,10216.9,100.0,27.4,22.27,1871.0,0.02,274.0,0.27,0.0,0.0,-291.28,-24467.73,-0.29,1021.69,0.1,5,0.03,0,0.0,5.13,102976.73
5,RE_ENTRY,SL_HIT,2025-06-23 16:00:00,2025-06-23 17:00:00,short,100652.5,102672.0,100,0.1,10065.25,100.0,-201.95,-207.05,-17392.31,-0.21,0.0,0.0,2019.5,2.01,-498.33,-41860.04,-0.5,1006.52,0.1,5,0.0,0,0.0,5.1,102467.97
6,RE_ENTRY,SL_HIT,2025-07-21 19:00:00,2025-07-22 11:00:00,short,116736.0,119212.0,100,0.1,11673.6,100.0,-247.6,-252.72,-21228.48,-0.25,0.0,0.0,2476.0,2.12,-751.05,-63088.52,-0.75,1167.36,0.1,5,0.02,0,0.0,5.12,118996.23
7,RE_ENTRY,DOUBLE_TOP,2025-07-23 13:00:00,2025-07-24 00:00:00,short,117349.0,119035.0,100,0.1,11734.9,100.0,-168.6,-173.71,-14591.96,-0.17,0.0,0.0,1686.0,1.44,-924.77,-77680.47,-0.92,1173.49,0.1,5,0.01,0,0.0,5.11,120185.01
8,RE_ENTRY,DOUBLE_TOP,2025-07-24 05:00:00,2025-07-24 14:00:00,short,117570.5,119033.0,100,0.1,11757.05,100.0,-146.25,-151.36,-12714.35,-0.15,0.0,0.0,1462.5,1.24,-1076.13,-90394.82,-1.08,1175.71,0.1,5,0.01,0,0.0,5.11,119213.55
9,FIRST_ENTRY,DOUBLE_TOP,2025-07-29 15:00:00,2025-07-30 14:00:00,short,117358.0,118690.5,100,0.1,11735.8,100.0,-133.25,-138.38,-11623.82,-0.14,0.0,0.0,1332.5,1.14,-1214.51,-102018.63,-1.21,1173.58,0.1,5,0.03,0,0.0,5.13,118928.12
10,RE_ENTRY,SL_HIT,2025-08-05 07:00:00,2025-08-06 15:00:00,short,113935.5,115500.0,100,0.1,11393.55,100.0,-156.45,-161.59,-13573.56,-0.16,0.0,0.0,1564.5,1.37,-1376.1,-115592.19,-1.38,1139.36,0.1,5,0.04,0,0.0,5.14,115468.44
11,FIRST_ENTRY,SL_HIT,2025-08-21 19:00:00,2025-08-22 14:00:00,short,112170.0,115700.0,100,0.1,11217.0,100.0,-353.0,-358.12,-30082.39,-0.36,0.0,0.0,3530.0,3.15,-1734.22,-145674.59,-1.73,1121.7,0.1,5,0.02,0,0.0,5.12,114705.8
12,RE_ENTRY,DOUBLE_TOP,2025-08-24 19:00:00,2025-08-26 07:00:00,short,112575.0,110256.0,100,0.1,11257.5,100.0,231.9,226.75,19047.42,0.23,2319.0,2.06,0.0,0.0,-1507.47,-126627.17,-1.51,1125.75,0.1,5,0.04,0,0.0,5.14,115562.58
13,RE_ENTRY,DOUBLE_TOP,2025-08-29 08:00:00,2025-08-31 00:00:00,short,109590.0,109351.0,100,0.1,10959.0,100.0,23.9,18.75,1575.0,0.02,239.0,0.22,0.0,0.0,-1488.72,-125052.17,-1.49,1095.9,0.1,5,0.05,0,0.0,5.15,112687.78
14,RE_ENTRY,SL_HIT,2025-09-01 04:00:00,2025-09-01 07:00:00,short,107380.5,109401.5,100,0.1,10738.05,100.0,-202.1,-207.2,-17405.12,-0.21,0.0,0.0,2021.0,1.88,-1695.92,-142457.28,-1.7,1073.81,0.1,5,0.0,0,0.0,5.1,109264.15
15,RE_ENTRY,SL_HIT,2025-09-01 21:00:00,2025-09-01 23:00:00,short,107756.0,109421.5,100,0.1,10775.6,100.0,-166.55,-171.65,-14418.81,-0.17,0.0,0.0,1665.5,1.55,-1867.57,-156876.09,-1.87,1077.56,0.1,5,0.0,0,0.0,5.1,109222.09
16,RE_ENTRY,SL_HIT,2025-09-26 10:00:00,2025-09-26 17:00:00,short,108858.5,109975.5,100,0.1,10885.85,100.0,-111.7,-116.81,-9811.93,-0.12,0.0,0.0,1117.0,1.03,-1984.38,-166688.03,-1.98,1088.59,0.1,5,0.01,0,0.0,5.11,109811.47
17,RE_ENTRY,DOUBLE_TOP,2025-10-11 01:00:00,2025-10-12 09:00:00,short,111072.0,111784.0,100,0.1,11107.2,100.0,-71.2,-76.34,-6412.56,-0.08,0.0,0.0,712.0,0.64,-2060.72,-173100.59,-2.06,1110.72,0.1,5,0.04,0,0.0,5.14,121764.87
18,RE_ENTRY,SL_HIT,2025-10-13 11:00:00,2025-10-13 13:00:00,short,114139.0,115500.0,100,0.1,11413.9,100.0,-136.1,-141.2,-11861.01,-0.14,0.0,0.0,1361.0,1.19,-2201.92,-184961.6,-2.2,1141.39,0.1,5,0.0,0,0.0,5.1,115353.27
19,RE_ENTRY,SL_HIT,2025-10-16 07:00:00,2025-10-16 12:00:00,short,110529.0,111971.5,100,0.1,11052.9,100.0,-144.25,-149.36,-12545.92,-0.15,0.0,0.0,1442.5,1.31,-2351.28,-197507.52,-2.35,1105.29,0.1,5,0.01,0,0.0,5.11,111781.92
20,RE_ENTRY,SL_HIT,2025-10-18 04:00:00,2025-10-18 07:00:00,short,106416.0,107464.0,100,0.1,10641.6,100.0,-104.8,-109.9,-9231.92,-0.11,0.0,0.0,1048.0,0.98,-2461.18,-206739.44,-2.46,1064.16,0.1,5,0.0,0,0.0,5.1,107196.55
21,RE_ENTRY,SL_HIT,2025-10-19 08:00:00,2025-10-19 09:00:00,short,106411.5,108220.0,100,0.1,10641.15,100.0,-180.85,-185.95,-15619.91,-0.19,0.0,0.0,1808.5,1.7,-2647.13,-222359.34,-2.65,1064.12,0.1,5,0.0,0,0.0,5.1,107288.69
22,RE_ENTRY,SL_HIT,2025-10-31 16:00:00,2025-11-02 07:00:00,short,108824.0,110999.5,100,0.1,10882.4,100.0,-217.55,-222.7,-18706.69,-0.22,0.0,0.0,2175.5,2.0,-2869.83,-241066.04,-2.87,1088.24,0.1,5,0.05,0,0.0,5.15,110927.14
23,FIRST_ENTRY,SL_HIT,2025-11-04 02:00:00,2025-11-04 02:00:00,short,106449.5,107203.5,100,0.1,10644.95,100.0,-75.4,-80.5,-6762.0,-0.08,0.0,0.0,754.0,0.71,-2950.33,-247828.04,-2.95,1064.5,0.1,5,0.0,0,0.0,5.1,107162.0
24,RE_ENTRY,DOUBLE_TOP,2025-11-04 21:00:00,2025-11-05 03:00:00,short,100284.0,102105.5,100,0.1,10028.4,100.0,-182.15,-187.26,-15729.63,-0.19,0.0,0.0,1821.5,1.82,-3137.59,-263557.67,-3.14,1002.84,0.1,5,0.01,0,0.0,5.11,104630.21
25,RE_ENTRY,DOUBLE_TOP,2025-11-06 12:00:00,2025-11-07 05:00:00,short,102517.0,102409.5,100,0.1,10251.7,100.0,10.75,5.63,472.81,0.01,107.5,0.1,0.0,0.0,-3131.96,-263084.85,-3.13,1025.17,0.1,5,0.02,0,0.0,5.12,104154.0
26,RE_ENTRY,SL_HIT,2025-11-07 12:00:00,2025-11-07 17:00:00,short,99618.0,102698.5,100,0.1,9961.8,100.0,-308.05,-313.16,-26305.12,-0.31,0.0,0.0,3080.5,3.09,-3445.12,-289389.98,-3.45,996.18,0.1,5,0.01,0,0.0,5.11,102563.11
27,RE_ENTRY,SL_HIT,2025-11-09 02:00:00,2025-11-09 13:00:00,short,101599.5,102977.5,100,0.1,10159.95,100.0,-137.8,-142.91,-12004.76,-0.14,0.0,0.0,1378.0,1.36,-3588.03,-301394.73,-3.59,1016.0,0.1,5,0.01,0,0.0,5.11,102489.5
28,RE_ENTRY,DOUBLE_TOP,2025-11-13 20:00:00,2025-11-15 02:00:00,short,98136.0,96462.5,100,0.1,9813.6,100.0,167.35,162.21,13625.85,0.16,1673.5,1.71,0.0,0.0,-3425.82,-287768.88,-3.43,981.36,0.1,5,0.04,0,0.0,5.14,102987.25
29,RE_ENTRY,SL_HIT,2025-11-15 20:00:00,2025-11-16 09:00:00,short,95259.5,96611.0,100,0.1,9525.95,100.0,-135.15,-140.27,-11782.37,-0.14,0.0,0.0,1351.5,1.42,-3566.09,-299551.25,-3.57,952.6,0.1,5,0.02,0,0.0,5.12,96480.5
30,RE_ENTRY,SL_HIT,2025-11-17 13:00:00,2025-11-17 14:00:00,short,93923.5,96018.0,100,0.1,9392.35,100.0,-209.45,-214.55,-18022.31,-0.21,0.0,0.0,2094.5,2.23,-3780.64,-317573.55,-3.78,939.24,0.1,5,0.0,0,0.0,5.1,95623.22
31,RE_ENTRY,DOUBLE_TOP,2025-11-19 05:00:00,2025-11-20 04:00:00,short,90424.5,92946.5,100,0.1,9042.45,100.0,-252.2,-257.33,-21615.62,-0.26,0.0,0.0,2522.0,2.79,-4037.97,-339189.17,-4.04,904.25,0.1,5,0.03,0,0.0,5.13,93272.2
32,RE_ENTRY,DOUBLE_TOP,2025-11-21 02:00:00,2025-11-21 14:00:00,short,85408.5,84808.5,100,0.1,8540.85,100.0,60.0,54.88,4610.34,0.05,600.0,0.7,0.0,0.0,-3983.08,-334578.83,-3.98,854.09,0.1,5,0.01,0,0.0,5.11,87388.89
33,RE_ENTRY,SL_HIT,2025-11-22 04:00:00,2025-11-23 00:00:00,short,84214.5,85296.0,100,0.1,8421.45,100.0,-108.15,-113.28,-9515.1,-0.11,0.0,0.0,1081.5,1.28,-4096.36,-344093.92,-4.1,842.15,0.1,5,0.03,0,0.0,5.12,85277.73
34,FIRST_ENTRY,SL_HIT,2025-12-07 14:00:00,2025-12-07 16:00:00,short,88199.5,89877.5,100,0.1,8819.95,100.0,-167.8,-172.9,-14523.81,-0.17,0.0,0.0,1678.0,1.9,-4269.26,-358617.73,-4.27,882.0,0.1,5,0.0,0,0.0,5.1,89819.53
35,RE_ENTRY,SL_HIT,2025-12-09 04:00:00,2025-12-09 15:00:00,short,89883.5,92867.5,100,0.1,8988.35,100.0,-298.4,-303.51,-25495.16,-0.3,0.0,0.0,2984.0,3.32,-4572.77,-384112.89,-4.57,898.84,0.1,5,0.01,0,0.0,5.11,91403.9
36,RE_ENTRY,SL_HIT,2025-12-17 08:00:00,2025-12-17 14:00:00,short,86374.5,89664.0,100,0.1,8637.45,100.0,-328.95,-334.06,-28060.83,-0.33,0.0,0.0,3289.5,3.81,-4906.83,-412173.72,-4.91,863.75,0.1,5,0.01,0,0.0,5.11,87881.12
37,RE_ENTRY,SL_HIT,2025-12-26 00:00:00,2025-12-26 02:00:00,short,87022.5,89466.0,100,0.1,8702.25,100.0,-244.35,-249.45,-20954.01,-0.25,0.0,0.0,2443.5,2.81,-5156.28,-433127.73,-5.16,870.23,0.1,5,0.0,0,0.0,5.1,88480.52
38,RE_ENTRY,SL_HIT,2025-12-26 16:00:00,2025-12-29 02:00:00,short,86830.0,89374.5,100,0.1,8683.0,100.0,-254.45,-259.62,-21808.29,-0.26,0.0,0.0,2544.5,2.93,-5415.91,-454936.02,-5.42,868.3,0.1,5,0.07,0,0.0,5.17,89100.95
39,FIRST_ENTRY,DOUBLE_TOP,2026-01-22 14:00:00,2026-01-23 01:00:00,short,89064.5,89902.0,100,0.1,8906.45,100.0,-83.75,-88.86,-7464.55,-0.09,0.0,0.0,837.5,0.94,-5504.77,-462400.58,-5.5,890.65,0.1,5,0.01,0,0.0,5.11,90215.12
40,RE_ENTRY,SL_HIT,2026-01-23 09:00:00,2026-01-23 16:00:00,short,88949.0,90463.5,100,0.1,8894.9,100.0,-151.45,-156.56,-13150.93,-0.16,0.0,0.0,1514.5,1.7,-5661.33,-475551.51,-5.66,889.49,0.1,5,0.01,0,0.0,5.11,90036.85
41,RE_ENTRY,DOUBLE_TOP,2026-01-25 08:00:00,2026-01-26 14:00:00,short,88263.0,88146.5,100,0.1,8826.3,100.0,11.65,6.51,547.05,0.01,116.5,0.13,0.0,0.0,-5654.82,-475004.46,-5.65,882.63,0.1,5,0.04,0,0.0,5.14,89882.12
42,RE_ENTRY,SL_HIT,2026-01-26 20:00:00,2026-01-26 23:00:00,short,87605.0,88639.0,100,0.1,8760.5,100.0,-103.4,-108.5,-9114.32,-0.11,0.0,0.0,1034.0,1.18,-5763.32,-484118.78,-5.76,876.05,0.1,5,0.0,0,0.0,5.1,88503.56
43,RE_ENTRY,SL_HIT,2026-01-27 17:00:00,2026-01-27 20:00:00,short,87518.5,89478.5,100,0.1,8751.85,100.0,-196.0,-201.1,-16892.72,-0.2,0.0,0.0,1960.0,2.24,-5964.42,-501011.49,-5.96,875.19,0.1,5,0.0,0,0.0,5.1,88745.92
44,RE_ENTRY,DOUBLE_TOP,2026-01-31 19:00:00,2026-02-01 09:00:00,short,77715.0,79005.0,100,0.1,7771.5,100.0,-129.0,-134.12,-11265.87,-0.13,0.0,0.0,1290.0,1.66,-6098.54,-512277.36,-6.1,777.15,0.1,5,0.02,0,0.0,5.12,84334.81
45,RE_ENTRY,DOUBLE_TOP,2026-02-03 02:00:00,2026-02-03 07:00:00,short,77782.0,78757.0,100,0.1,7778.2,100.0,-97.5,-102.61,-8618.93,-0.1,0.0,0.0,975.0,1.25,-6201.15,-520896.29,-6.2,777.82,0.1,5,0.01,0,0.0,5.11,79158.06
46,RE_ENTRY,DOUBLE_TOP,2026-02-04 17:00:00,2026-02-06 01:00:00,short,72551.0,65672.0,100,0.1,7255.1,100.0,687.9,682.76,57351.84,0.68,6879.0,9.48,0.0,0.0,-5518.39,-463544.45,-5.52,725.51,0.1,5,0.04,0,0.0,5.14,76739.94
47,RE_ENTRY,SL_HIT,2026-02-07 00:00:00,2026-02-07 04:00:00,short,69924.5,71673.5,100,0.1,6992.45,100.0,-174.9,-180.0,-15120.42,-0.18,0.0,0.0,1749.0,2.5,-5698.39,-478664.86,-5.7,699.25,0.1,5,0.01,0,0.0,5.1,71435.99
48,FIRST_ENTRY,SL_HIT,2026-02-14 05:00:00,2026-02-14 07:00:00,short,68745.5,69325.5,100,0.1,6874.55,100.0,-58.0,-63.1,-5300.61,-0.06,0.0,0.0,580.0,0.84,-5761.49,-483965.47,-5.76,687.46,0.1,5,0.0,0,0.0,5.1,69175.11
49,FIRST_ENTRY,DOUBLE_TOP,2026-02-26 07:00:00,2026-02-26 09:00:00,short,67806.0,68560.0,100,0.1,6780.6,100.0,-75.4,-80.5,-6762.21,-0.08,0.0,0.0,754.0,1.11,-5842.0,-490727.68,-5.84,678.06,0.1,5,0.0,0,0.0,5.1,68642.31
50,FIRST_ENTRY,DOUBLE_TOP,2026-03-20 14:00:00,2026-03-23 05:00:00,short,69712.0,68871.5,100,0.1,6971.2,100.0,84.05,78.87,6625.19,0.08,840.5,1.21,0.0,0.0,-5763.13,-484102.5,-5.76,697.12,0.1,5,0.08,0,0.0,5.18,71113.51
51,RE_ENTRY,SL_HIT,2026-03-29 17:00:00,2026-03-30 00:00:00,short,66364.0,67043.5,100,0.1,6636.4,100.0,-67.95,-73.06,-6136.94,-0.07,0.0,0.0,679.5,1.02,-5836.18,-490239.43,-5.84,663.64,0.1,5,0.01,0,0.0,5.11,66887.18
52,RE_ENTRY,SL_HIT,2026-03-30 19:00:00,2026-03-31 01:00:00,short,66524.5,68380.0,100,0.1,6652.45,100.0,-185.55,-190.66,-16015.23,-0.19,0.0,0.0,1855.5,2.79,-6026.84,-506254.66,-6.03,665.25,0.1,5,0.01,0,0.0,5.11,67967.3
53,FIRST_ENTRY,DOUBLE_TOP,2026-05-15 05:00:00,2026-05-19 07:00:00,short,80321.5,77200.5,100,0.1,8032.15,100.0,312.1,306.88,25777.71,0.31,3121.0,3.89,0.0,0.0,-5719.96,-480476.95,-5.72,803.22,0.1,5,0.12,0,0.0,5.22,81592.21
54,RE_ENTRY,SL_HIT,2026-05-19 14:00:00,2026-05-20 06:00:00,short,76366.0,77389.0,100,0.1,7636.6,100.0,-102.3,-107.42,-9023.28,-0.11,0.0,0.0,1023.0,1.34,-5827.38,-489500.23,-5.83,763.66,0.1,5,0.02,0,0.0,5.12,77316.3
55,RE_ENTRY,SL_HIT,2026-05-21 14:00:00,2026-05-21 17:00:00,short,76944.0,78065.0,100,0.1,7694.4,100.0,-112.1,-117.2,-9845.12,-0.12,0.0,0.0,1121.0,1.46,-5944.59,-499345.35,-5.94,769.44,0.1,5,0.0,0,0.0,5.1,78047.4
56,RE_ENTRY,DOUBLE_TOP,2026-05-23 07:00:00,2026-05-24 11:00:00,short,74573.5,77289.5,100,0.1,7457.35,100.0,-271.6,-276.74,-23245.74,-0.28,0.0,0.0,2716.0,3.64,-6221.32,-522591.09,-6.22,745.74,0.1,5,0.04,0,0.0,5.13,77857.61
57,RE_ENTRY,SL_HIT,2026-05-24 21:00:00,2026-05-25 02:00:00,short,76106.0,77452.0,100,0.1,7610.6,100.0,-134.6,-139.71,-11735.32,-0.14,0.0,0.0,1346.0,1.77,-6361.03,-534326.41,-6.36,761.06,0.1,5,0.01,0,0.0,5.11,77405.43
58,RE_ENTRY,DOUBLE_TOP,2026-05-27 04:00:00,2026-05-28 21:00:00,short,75543.0,73804.0,100,0.1,7554.3,100.0,173.9,168.75,14174.9,0.17,1739.0,2.3,0.0,0.0,-6192.28,-520151.52,-6.19,755.43,0.1,5,0.05,0,0.0,5.15,77515.1
59,RE_ENTRY,SL_HIT,2026-05-29 13:00:00,2026-05-29 15:00:00,short,73122.5,74184.5,100,0.1,7312.25,100.0,-106.2,-111.3,-9349.41,-0.11,0.0,0.0,1062.0,1.45,-6303.58,-529500.93,-6.3,731.23,0.1,5,0.0,0,0.0,5.1,73780.0
60,RE_ENTRY,DOUBLE_TOP,2026-06-01 01:00:00,2026-06-03 05:00:00,short,73264.5,67297.5,100,0.1,7326.45,100.0,596.7,591.54,49688.94,0.59,5967.0,8.14,0.0,0.0,-5712.05,-479811.99,-5.71,732.65,0.1,5,0.07,0,0.0,5.17,74033.88
61,RE_ENTRY,DOUBLE_TOP,2026-06-03 20:00:00,2026-06-05 20:00:00,short,64979.5,61600.0,100,0.1,6497.95,100.0,337.95,332.79,27954.36,0.33,3379.5,5.2,0.0,0.0,-5379.26,-451857.63,-5.38,649.8,0.1,5,0.06,0,0.0,5.16,67367.9
