anildalabanjan933/crypto_tradingsystem/output/trade_log_RenkoBreakoutStrategy_BTCUSD_20260625_133913.csv
trade_number,entry_type,exit_type,entry_datetime,exit_datetime,direction,entry_price,exit_price,size_qty,actual_quantity,size_value,lot_notional_usd,gross_pnl,net_pnl,net_pnl_inr,net_pnl_pct,favorable_excursion,favorable_excursion_pct,adverse_excursion,adverse_excursion_pct,cumulative_pnl,cumulative_pnl_inr,cumulative_pnl_pct,margin_required,taker_fees_usd,slippage_usd,slippage_applied,funding_usd,insurance_usd,tax_usd,total_charges_usd,stop_loss
1,BUY_A,ST_FLIP_RED,2025-06-28 02:00:00,2025-06-30 20:00:00,long,107337.5,107137.5,100,0.1,10733.75,100.0,-20,-30.18,-2535.33,-0.03,0,0.0,200,0.19,-30.18,-2535.33,-0.03,1073.38,0.1,10,5.0,0.08,0,0.0,10.18,0
2,BUY_A,ST_FLIP_RED,2025-07-02 14:00:00,2025-07-03 14:00:00,long,108537.5,109137.5,100,0.1,10853.75,100.0,60,49.87,4189.08,0.05,600,0.55,0,0.0,19.69,1653.75,0.02,1085.38,0.1,10,5.0,0.03,0,0.0,10.13,0
3,BUY_A,ST_FLIP_RED,2025-07-06 20:00:00,2025-07-07 14:00:00,long,109137.5,108337.5,100,0.1,10913.75,100.0,-80,-90.12,-7570.29,-0.09,0,0.0,800,0.73,-70.44,-5916.54,-0.07,1091.38,0.1,10,5.0,0.02,0,0.0,10.12,0
4,BUY_A,ST_FLIP_RED,2025-07-08 16:00:00,2025-07-11 14:00:00,long,108937.5,117337.5,100,0.1,10893.75,100.0,840,829.81,69704.25,0.83,8400,7.71,0,0.0,759.38,63787.71,0.76,1089.38,0.1,10,5.0,0.09,0,0.0,10.19,0
5,BUY_A,ST_FLIP_RED,2025-07-12 02:00:00,2025-07-14 10:00:00,long,117937.5,121737.5,100,0.1,11793.75,100.0,380,369.83,31065.72,0.37,3800,3.22,0,0.0,1129.21,94853.43,1.13,1179.38,0.1,10,5.0,0.07,0,0.0,10.17,0
6,BUY_A,ST_FLIP_RED,2025-07-15 16:00:00,2025-07-15 18:00:00,long,116937.5,116537.5,100,0.1,11693.75,100.0,-40,-50.1,-4208.61,-0.05,0,0.0,400,0.34,1079.11,90644.82,1.08,1169.38,0.1,10,5.0,0.0,0,0.0,10.1,0
7,BUY_A,ST_FLIP_RED,2025-07-15 20:00:00,2025-07-17 00:00:00,long,117337.5,118137.5,100,0.1,11733.75,100.0,80,69.86,5868.66,0.07,800,0.68,0,0.0,1148.97,96513.48,1.15,1173.38,0.1,10,5.0,0.04,0,0.0,10.13,0
8,BUY_A,ST_FLIP_RED,2025-07-17 08:00:00,2025-07-17 22:00:00,long,118737.5,119137.5,100,0.1,11873.75,100.0,40,29.88,2510.13,0.03,400,0.34,0,0.0,1178.85,99023.61,1.18,1187.38,0.1,10,5.0,0.02,0,0.0,10.12,0
9,BUY_A,ST_FLIP_RED,2025-07-18 00:00:00,2025-07-18 06:00:00,long,120337.5,119537.5,100,0.1,12033.75,100.0,-80,-90.11,-7569.03,-0.09,0,0.0,800,0.66,1088.74,91454.58,1.09,1203.38,0.1,10,5.0,0.01,0,0.0,10.11,0
10,BUY_A,ST_FLIP_RED,2025-07-20 02:00:00,2025-07-20 22:00:00,long,117937.5,117337.5,100,0.1,11793.75,100.0,-60,-70.12,-5890.5,-0.07,0,0.0,600,0.51,1018.62,85564.08,1.02,1179.38,0.1,10,5.0,0.03,0,0.0,10.12,0
11,BUY_A,ST_FLIP_RED,2025-07-21 06:00:00,2025-07-21 10:00:00,long,118737.5,118337.5,100,0.1,11873.75,100.0,-40,-50.11,-4208.82,-0.05,0,0.0,400,0.34,968.51,81355.26,0.97,1187.38,0.1,10,5.0,0.01,0,0.0,10.11,0
12,BUY_A,ST_FLIP_RED,2025-07-22 08:00:00,2025-07-22 12:00:00,long,118337.5,118137.5,100,0.1,11833.75,100.0,-20,-30.11,-2528.82,-0.03,0,0.0,200,0.17,938.41,78826.44,0.94,1183.38,0.1,10,5.0,0.01,0,0.0,10.11,0
13,BUY_A,ST_FLIP_RED,2025-07-22 20:00:00,2025-07-23 02:00:00,long,119337.5,118937.5,100,0.1,11933.75,100.0,-40,-50.11,-4209.03,-0.05,0,0.0,400,0.34,888.3,74617.41,0.89,1193.38,0.1,10,5.0,0.01,0,0.0,10.11,0
14,BUY_A,ST_FLIP_RED,2025-07-23 18:00:00,2025-07-24 04:00:00,long,118537.5,117737.5,100,0.1,11853.75,100.0,-80,-90.11,-7569.45,-0.09,0,0.0,800,0.67,798.19,67047.96,0.8,1185.38,0.1,10,5.0,0.01,0,0.0,10.11,0
15,BUY_A,ST_FLIP_RED,2025-07-25 16:00:00,2025-07-28 14:00:00,long,115937.5,118337.5,100,0.1,11593.75,100.0,240,229.81,19304.25,0.23,2400,2.07,0,0.0,1028.0,86352.21,1.03,1159.38,0.1,10,5.0,0.09,0,0.0,10.19,0
16,BUY_A,ST_FLIP_RED,2025-07-30 14:00:00,2025-07-31 16:00:00,long,117937.5,117537.5,100,0.1,11793.75,100.0,-40,-50.13,-4211.13,-0.05,0,0.0,400,0.34,977.87,82141.08,0.98,1179.38,0.1,10,5.0,0.03,0,0.0,10.13,0
17,BUY_A,ST_FLIP_RED,2025-08-01 20:00:00,2025-08-05 06:00:00,long,113937.5,114137.5,100,0.1,11393.75,100.0,20,9.8,822.99,0.01,200,0.18,0,0.0,987.67,82964.07,0.99,1139.38,0.1,10,5.0,0.1,0,0.0,10.2,0
18,BUY_A,ST_FLIP_RED,2025-08-06 04:00:00,2025-08-08 14:00:00,long,113937.5,116337.5,100,0.1,11393.75,100.0,240,229.83,19305.51,0.23,2400,2.11,0,0.0,1217.49,102269.58,1.22,1139.38,0.1,10,5.0,0.07,0,0.0,10.17,0
19,BUY_A,ST_FLIP_RED,2025-08-09 08:00:00,2025-08-11 10:00:00,long,116937.5,120937.5,100,0.1,11693.75,100.0,400,389.84,32746.35,0.39,4000,3.42,0,0.0,1607.33,135015.93,1.61,1169.38,0.1,10,5.0,0.06,0,0.0,10.16,0
20,BUY_A,ST_FLIP_RED,2025-08-12 18:00:00,2025-08-13 14:00:00,long,119737.5,120737.5,100,0.1,11973.75,100.0,100,89.88,7549.5,0.09,1000,0.84,0,0.0,1697.21,142565.43,1.7,1197.38,0.1,10,5.0,0.03,0,0.0,10.12,0
21,BUY_A,ST_FLIP_RED,2025-08-13 16:00:00,2025-08-14 04:00:00,long,121937.5,122337.5,100,0.1,12193.75,100.0,40,29.88,2510.34,0.03,400,0.33,0,0.0,1727.09,145075.77,1.73,1219.38,0.1,10,5.0,0.01,0,0.0,10.12,0
22,BUY_A,ST_FLIP_RED,2025-08-16 00:00:00,2025-08-18 00:00:00,long,117537.5,117137.5,100,0.1,11753.75,100.0,-40,-50.16,-4213.44,-0.05,0,0.0,400,0.34,1676.93,140862.33,1.68,1175.38,0.1,10,5.0,0.06,0,0.0,10.16,0
23,BUY_A,ST_FLIP_RED,2025-08-20 14:00:00,2025-08-21 08:00:00,long,112937.5,113537.5,100,0.1,11293.75,100.0,60,49.88,4189.71,0.05,600,0.53,0,0.0,1726.81,145052.04,1.73,1129.38,0.1,10,5.0,0.02,0,0.0,10.12,0
24,BUY_A,ST_FLIP_RED,2025-08-22 14:00:00,2025-08-23 02:00:00,long,112737.5,115937.5,100,0.1,11273.75,100.0,320,309.88,26030.34,0.31,3200,2.84,0,0.0,2036.69,171082.38,2.04,1127.38,0.1,10,5.0,0.01,0,0.0,10.12,0
25,BUY_A,ST_FLIP_RED,2025-08-24 22:00:00,2025-08-25 18:00:00,long,113537.5,111337.5,100,0.1,11353.75,100.0,-220,-230.12,-19330.5,-0.23,0,0.0,2200,1.94,1806.57,151751.88,1.81,1135.38,0.1,10,5.0,0.03,0,0.0,10.12,0
26,BUY_A,ST_FLIP_RED,2025-08-26 18:00:00,2025-08-27 06:00:00,long,110937.5,110537.5,100,0.1,11093.75,100.0,-40,-50.12,-4209.66,-0.05,0,0.0,400,0.36,1756.45,147542.22,1.76,1109.38,0.1,10,5.0,0.01,0,0.0,10.12,0
27,BUY_A,ST_FLIP_RED,2025-08-27 10:00:00,2025-08-28 18:00:00,long,111337.5,111937.5,100,0.1,11133.75,100.0,60,49.86,4188.24,0.05,600,0.54,0,0.0,1806.31,151730.46,1.81,1113.38,0.1,10,5.0,0.04,0,0.0,10.14,0
28,BUY_A,ST_FLIP_RED,2025-08-31 16:00:00,2025-08-31 22:00:00,long,109137.5,108337.5,100,0.1,10913.75,100.0,-80,-90.11,-7569.03,-0.09,0,0.0,800,0.73,1716.21,144161.43,1.72,1091.38,0.1,10,5.0,0.01,0,0.0,10.11,0
29,BUY_A,ST_FLIP_RED,2025-09-01 06:00:00,2025-09-01 20:00:00,long,108937.5,108537.5,100,0.1,10893.75,100.0,-40,-50.12,-4209.87,-0.05,0,0.0,400,0.37,1666.09,139951.56,1.67,1089.38,0.1,10,5.0,0.02,0,0.0,10.12,0
30,BUY_A,ST_FLIP_RED,2025-09-01 22:00:00,2025-09-04 02:00:00,long,108937.5,111137.5,100,0.1,10893.75,100.0,220,209.84,17626.14,0.21,2200,2.02,0,0.0,1875.92,157577.7,1.88,1089.38,0.1,10,5.0,0.07,0,0.0,10.16,0
31,BUY_A,ST_FLIP_RED,2025-09-05 06:00:00,2025-09-05 14:00:00,long,112337.5,111937.5,100,0.1,11233.75,100.0,-40,-50.11,-4209.24,-0.05,0,0.0,400,0.36,1825.81,153368.46,1.83,1123.38,0.1,10,5.0,0.01,0,0.0,10.11,0
32,BUY_A,ST_FLIP_RED,2025-09-07 02:00:00,2025-09-09 00:00:00,long,110737.5,111537.5,100,0.1,11073.75,100.0,80,69.84,5866.77,0.07,800,0.72,0,0.0,1895.66,159235.23,1.9,1107.38,0.1,10,5.0,0.06,0,0.0,10.16,0
33,BUY_A,ST_FLIP_RED,2025-09-09 06:00:00,2025-09-09 14:00:00,long,112737.5,111937.5,100,0.1,11273.75,100.0,-80,-90.11,-7569.24,-0.09,0,0.0,800,0.71,1805.55,151665.99,1.81,1127.38,0.1,10,5.0,0.01,0,0.0,10.11,0
34,BUY_A,ST_FLIP_RED,2025-09-10 02:00:00,2025-09-13 16:00:00,long,111337.5,115537.5,100,0.1,11133.75,100.0,420,409.79,34422.57,0.41,4200,3.77,0,0.0,2215.34,186088.56,2.22,1113.38,0.1,10,5.0,0.11,0,0.0,10.21,0
35,BUY_A,ST_FLIP_RED,2025-09-14 20:00:00,2025-09-15 08:00:00,long,115937.5,115337.5,100,0.1,11593.75,100.0,-60,-70.11,-5889.66,-0.07,0,0.0,600,0.52,2145.23,180198.9,2.15,1159.38,0.1,10,5.0,0.01,0,0.0,10.12,0
36,BUY_A,ST_FLIP_RED,2025-09-16 14:00:00,2025-09-17 14:00:00,long,115737.5,115937.5,100,0.1,11573.75,100.0,20,9.87,829.08,0.01,200,0.17,0,0.0,2155.1,181027.98,2.16,1157.38,0.1,10,5.0,0.03,0,0.0,10.13,0
37,BUY_A,ST_FLIP_RED,2025-09-18 02:00:00,2025-09-19 08:00:00,long,117337.5,116537.5,100,0.1,11733.75,100.0,-80,-90.14,-7571.55,-0.09,0,0.0,800,0.68,2064.96,173456.43,2.06,1173.38,0.1,10,5.0,0.04,0,0.0,10.14,0
38,BUY_A,ST_FLIP_RED,2025-09-21 06:00:00,2025-09-25 00:00:00,long,115737.5,112537.5,100,0.1,11573.75,100.0,-320,-330.21,-27737.85,-0.33,0,0.0,3200,2.76,1734.75,145718.58,1.73,1157.38,0.1,10,5.0,0.11,0,0.0,10.21,0
39,BUY_A,ST_FLIP_RED,2025-09-26 00:00:00,2025-09-30 08:00:00,long,109537.5,113337.5,100,0.1,10953.75,100.0,380,369.77,31060.68,0.37,3800,3.47,0,0.0,2104.52,176779.26,2.1,1095.38,0.1,10,5.0,0.13,0,0.0,10.23,0
40,BUY_A,ST_FLIP_RED,2025-09-30 18:00:00,2025-10-03 00:00:00,long,113337.5,119737.5,100,0.1,11333.75,100.0,640,629.83,52905.93,0.63,6400,5.65,0,0.0,2734.35,229685.19,2.73,1133.38,0.1,10,5.0,0.07,0,0.0,10.17,0
41,BUY_A,ST_FLIP_RED,2025-10-03 08:00:00,2025-10-05 08:00:00,long,120337.5,123937.5,100,0.1,12033.75,100.0,360,349.84,29386.56,0.35,3600,2.99,0,0.0,3084.19,259071.75,3.08,1203.38,0.1,10,5.0,0.06,0,0.0,10.16,0
42,BUY_A,ST_FLIP_RED,2025-10-05 22:00:00,2025-10-07 02:00:00,long,123137.5,124337.5,100,0.1,12313.75,100.0,120,109.86,9228.66,0.11,1200,0.97,0,0.0,3194.05,268300.41,3.19,1231.38,0.1,10,5.0,0.04,0,0.0,10.13,0
43,BUY_A,ST_FLIP_RED,2025-10-08 00:00:00,2025-10-09 00:00:00,long,121537.5,123137.5,100,0.1,12153.75,100.0,160,149.87,12589.08,0.15,1600,1.32,0,0.0,3343.92,280889.49,3.34,1215.38,0.1,10,5.0,0.03,0,0.0,10.13,0
44,BUY_A,ST_FLIP_RED,2025-10-10 04:00:00,2025-10-11 06:00:00,long,121337.5,111337.5,100,0.1,12133.75,100.0,-1000,-1010.13,-84851.13,-1.01,0,0.0,10000,8.24,2333.79,196038.36,2.33,1213.38,0.1,10,5.0,0.03,0,0.0,10.13,0
45,BUY_A,ST_FLIP_RED,2025-10-11 08:00:00,2025-10-11 20:00:00,long,110737.5,111137.5,100,0.1,11073.75,100.0,40,29.88,2510.34,0.03,400,0.36,0,0.0,2363.68,198548.7,2.36,1107.38,0.1,10,5.0,0.01,0,0.0,10.12,0
46,BUY_A,ST_FLIP_RED,2025-10-12 14:00:00,2025-10-13 10:00:00,long,111737.5,114537.5,100,0.1,11173.75,100.0,280,269.88,22669.5,0.27,2800,2.51,0,0.0,2633.55,221218.2,2.63,1117.38,0.1,10,5.0,0.03,0,0.0,10.12,0
47,BUY_A,ST_FLIP_RED,2025-10-13 18:00:00,2025-10-14 00:00:00,long,115337.5,114737.5,100,0.1,11533.75,100.0,-60,-70.11,-5889.03,-0.07,0,0.0,600,0.52,2563.44,215329.17,2.56,1153.38,0.1,10,5.0,0.01,0,0.0,10.11,0
48,BUY_A,ST_FLIP_RED,2025-10-15 04:00:00,2025-10-20 00:00:00,long,112537.5,107937.5,100,0.1,11253.75,100.0,-460,-470.25,-39500.58,-0.47,0,0.0,4600,4.09,2093.2,175828.59,2.09,1125.38,0.1,10,5.0,0.14,0,0.0,10.24,0
49,BUY_A,ST_FLIP_RED,2025-10-20 02:00:00,2025-10-21 00:00:00,long,109137.5,109937.5,100,0.1,10913.75,100.0,80,69.87,5869.29,0.07,800,0.73,0,0.0,2163.07,181697.88,2.16,1091.38,0.1,10,5.0,0.03,0,0.0,10.13,0
50,BUY_A,ST_FLIP_RED,2025-10-21 10:00:00,2025-10-21 16:00:00,long,107937.5,112337.5,100,0.1,10793.75,100.0,440,429.89,36110.97,0.43,4400,4.08,0,0.0,2592.96,217808.85,2.59,1079.38,0.1,10,5.0,0.01,0,0.0,10.11,0
51,BUY_A,ST_FLIP_RED,2025-10-23 00:00:00,2025-10-23 18:00:00,long,107937.5,110137.5,100,0.1,10793.75,100.0,220,209.88,17629.71,0.21,2200,2.04,0,0.0,2802.84,235438.56,2.8,1079.38,0.1,10,5.0,0.02,0,0.0,10.12,0
52,BUY_A,ST_FLIP_RED,2025-10-25 04:00:00,2025-10-27 20:00:00,long,111337.5,114537.5,100,0.1,11133.75,100.0,320,309.82,26024.88,0.31,3200,2.87,0,0.0,3112.66,261463.44,3.11,1113.38,0.1,10,5.0,0.08,0,0.0,10.18,0
53,BUY_A,ST_FLIP_RED,2025-10-28 16:00:00,2025-10-28 18:00:00,long,115337.5,114337.5,100,0.1,11533.75,100.0,-100,-110.1,-9248.61,-0.11,0,0.0,1000,0.87,3002.56,252214.83,3.0,1153.38,0.1,10,5.0,0.0,0,0.0,10.1,0
54,BUY_A,ST_FLIP_RED,2025-10-29 20:00:00,2025-10-29 22:00:00,long,111537.5,110737.5,100,0.1,11153.75,100.0,-80,-90.1,-7568.61,-0.09,0,0.0,800,0.72,2912.46,244646.22,2.91,1115.38,0.1,10,5.0,0.0,0,0.0,10.1,0
55,BUY_A,ST_FLIP_RED,2025-10-30 06:00:00,2025-10-30 08:00:00,long,110737.5,110137.5,100,0.1,11073.75,100.0,-60,-70.1,-5888.61,-0.07,0,0.0,600,0.54,2842.35,238757.61,2.84,1107.38,0.1,10,5.0,0.0,0,0.0,10.1,0
56,BUY_A,ST_FLIP_RED,2025-10-31 00:00:00,2025-10-31 16:00:00,long,109537.5,109337.5,100,0.1,10953.75,100.0,-20,-30.12,-2530.08,-0.03,0,0.0,200,0.18,2812.23,236227.53,2.81,1095.38,0.1,10,5.0,0.02,0,0.0,10.12,0
57,BUY_A,ST_FLIP_RED,2025-11-02 04:00:00,2025-11-02 14:00:00,long,110337.5,110137.5,100,0.1,11033.75,100.0,-20,-30.11,-2529.45,-0.03,0,0.0,200,0.18,2782.12,233698.08,2.78,1103.38,0.1,10,5.0,0.01,0,0.0,10.11,0
58,BUY_A,ST_FLIP_RED,2025-11-03 16:00:00,2025-11-04 04:00:00,long,106137.5,106537.5,100,0.1,10613.75,100.0,40,29.88,2510.34,0.03,400,0.38,0,0.0,2812.01,236208.42,2.81,1061.38,0.1,10,5.0,0.01,0,0.0,10.12,0
59,BUY_A,ST_FLIP_RED,2025-11-04 22:00:00,2025-11-05 00:00:00,long,101337.5,100537.5,100,0.1,10133.75,100.0,-80,-90.1,-7568.61,-0.09,0,0.0,800,0.79,2721.9,228639.81,2.72,1013.38,0.1,10,5.0,0.0,0,0.0,10.1,0
60,BUY_A,ST_FLIP_RED,2025-11-05 02:00:00,2025-11-06 04:00:00,long,100937.5,102937.5,100,0.1,10093.75,100.0,200,189.87,15948.87,0.19,2000,1.98,0,0.0,2911.77,244588.68,2.91,1009.38,0.1,10,5.0,0.03,0,0.0,10.13,0
61,BUY_A,ST_FLIP_RED,2025-11-07 16:00:00,2025-11-08 02:00:00,long,101337.5,102737.5,100,0.1,10133.75,100.0,140,129.89,10910.55,0.13,1400,1.38,0,0.0,3041.66,255499.23,3.04,1013.38,0.1,10,5.0,0.01,0,0.0,10.11,0
62,BUY_A,ST_FLIP_RED,2025-11-09 10:00:00,2025-11-10 14:00:00,long,101937.5,105337.5,100,0.1,10193.75,100.0,340,329.87,27708.66,0.33,3400,3.34,0,0.0,3371.52,283207.89,3.37,1019.38,0.1,10,5.0,0.04,0,0.0,10.13,0
63,BUY_A,ST_FLIP_RED,2025-11-14 14:00:00,2025-11-14 16:00:00,long,96337.5,95937.5,100,0.1,9633.75,100.0,-40,-50.1,-4208.61,-0.05,0,0.0,400,0.42,3321.42,278999.28,3.32,963.38,0.1,10,5.0,0.0,0,0.0,10.1,0
64,BUY_A,ST_FLIP_RED,2025-11-15 00:00:00,2025-11-15 20:00:00,long,95737.5,95337.5,100,0.1,9573.75,100.0,-40,-50.12,-4210.5,-0.05,0,0.0,400,0.42,3271.3,274788.78,3.27,957.38,0.1,10,5.0,0.03,0,0.0,10.12,0
65,BUY_A,ST_FLIP_RED,2025-11-16 02:00:00,2025-11-16 14:00:00,long,95537.5,95337.5,100,0.1,9553.75,100.0,-20,-30.12,-2529.66,-0.03,0,0.0,200,0.21,3241.18,272259.12,3.24,955.38,0.1,10,5.0,0.01,0,0.0,10.12,0
66,BUY_A,ST_FLIP_RED,2025-11-18 08:00:00,2025-11-19 02:00:00,long,90937.5,92137.5,100,0.1,9093.75,100.0,120,109.88,9229.71,0.11,1200,1.32,0,0.0,3351.06,281488.83,3.35,909.38,0.1,10,5.0,0.02,0,0.0,10.12,0
67,BUY_A,ST_FLIP_RED,2025-11-19 20:00:00,2025-11-20 12:00:00,long,90737.5,91537.5,100,0.1,9073.75,100.0,80,69.88,5869.92,0.07,800,0.88,0,0.0,3420.94,287358.75,3.42,907.38,0.1,10,5.0,0.02,0,0.0,10.12,0
68,BUY_A,ST_FLIP_RED,2025-11-21 16:00:00,2025-11-22 08:00:00,long,83137.5,84137.5,100,0.1,8313.75,100.0,100,89.88,7549.92,0.09,1000,1.2,0,0.0,3510.82,294908.67,3.51,831.38,0.1,10,5.0,0.02,0,0.0,10.12,0
69,BUY_A,ST_FLIP_RED,2025-11-23 00:00:00,2025-11-23 22:00:00,long,85537.5,86937.5,100,0.1,8553.75,100.0,140,129.87,10909.29,0.13,1400,1.64,0,0.0,3640.69,305817.96,3.64,855.38,0.1,10,5.0,0.03,0,0.0,10.13,0
70,BUY_A,ST_FLIP_RED,2025-11-24 16:00:00,2025-11-25 00:00:00,long,87137.5,87537.5,100,0.1,8713.75,100.0,40,29.89,2510.76,0.03,400,0.46,0,0.0,3670.58,308328.72,3.67,871.38,0.1,10,5.0,0.01,0,0.0,10.11,0
71,BUY_A,ST_FLIP_RED,2025-11-26 00:00:00,2025-11-28 16:00:00,long,87537.5,91337.5,100,0.1,8753.75,100.0,380,369.82,31064.88,0.37,3800,4.34,0,0.0,4040.4,339393.6,4.04,875.38,0.1,10,5.0,0.08,0,0.0,10.18,0
72,BUY_A,ST_FLIP_RED,2025-11-29 14:00:00,2025-11-30 22:00:00,long,90937.5,90337.5,100,0.1,9093.75,100.0,-60,-70.14,-5891.76,-0.07,0,0.0,600,0.66,3970.26,333501.84,3.97,909.38,0.1,10,5.0,0.04,0,0.0,10.14,0
73,BUY_A,ST_FLIP_RED,2025-12-01 20:00:00,2025-12-03 14:00:00,long,85137.5,92537.5,100,0.1,8513.75,100.0,740,729.85,61307.19,0.73,7400,8.69,0,0.0,4700.11,394809.03,4.7,851.38,0.1,10,5.0,0.05,0,0.0,10.15,0
74,BUY_A,ST_FLIP_RED,2025-12-07 18:00:00,2025-12-07 20:00:00,long,91337.5,90337.5,100,0.1,9133.75,100.0,-100,-110.1,-9248.61,-0.11,0,0.0,1000,1.09,4590.01,385560.42,4.59,913.38,0.1,10,5.0,0.0,0,0.0,10.1,0
75,BUY_A,ST_FLIP_RED,2025-12-08 00:00:00,2025-12-08 14:00:00,long,90937.5,90737.5,100,0.1,9093.75,100.0,-20,-30.12,-2529.87,-0.03,0,0.0,200,0.22,4559.89,383030.55,4.56,909.38,0.1,10,5.0,0.02,0,0.0,10.12,0
76,BUY_A,ST_FLIP_RED,2025-12-09 10:00:00,2025-12-09 20:00:00,long,90337.5,92737.5,100,0.1,9033.75,100.0,240,229.89,19310.55,0.23,2400,2.66,0,0.0,4789.78,402341.1,4.79,903.38,0.1,10,5.0,0.01,0,0.0,10.11,0
77,BUY_A,ST_FLIP_RED,2025-12-10 16:00:00,2025-12-12 14:00:00,long,92537.5,91737.5,100,0.1,9253.75,100.0,-80,-90.16,-7573.23,-0.09,0,0.0,800,0.86,4699.62,394767.87,4.7,925.38,0.1,10,5.0,0.06,0,0.0,10.16,0
78,BUY_A,ST_FLIP_RED,2025-12-15 00:00:00,2025-12-15 14:00:00,long,88737.5,88737.5,100,0.1,8873.75,100.0,0,-10.12,-849.87,-0.01,0,0.0,0,0.0,4689.5,393918.0,4.69,887.38,0.1,10,5.0,0.02,0,0.0,10.12,0
79,BUY_A,ST_FLIP_RED,2025-12-16 08:00:00,2025-12-16 16:00:00,long,86137.5,87137.5,100,0.1,8613.75,100.0,100,89.89,7550.76,0.09,1000,1.16,0,0.0,4779.39,401468.76,4.78,861.38,0.1,10,5.0,0.01,0,0.0,10.11,0
80,BUY_A,ST_FLIP_RED,2025-12-17 12:00:00,2025-12-18 16:00:00,long,87537.5,87737.5,100,0.1,8753.75,100.0,20,9.87,828.66,0.01,200,0.23,0,0.0,4789.26,402297.42,4.79,875.38,0.1,10,5.0,0.04,0,0.0,10.13,0
81,BUY_A,ST_FLIP_RED,2025-12-19 02:00:00,2025-12-19 16:00:00,long,85537.5,87137.5,100,0.1,8553.75,100.0,160,149.88,12590.13,0.15,1600,1.87,0,0.0,4939.14,414887.55,4.94,855.38,0.1,10,5.0,0.02,0,0.0,10.12,0
82,BUY_A,ST_FLIP_RED,2025-12-21 08:00:00,2025-12-21 12:00:00,long,88337.5,87737.5,100,0.1,8833.75,100.0,-60,-70.11,-5888.82,-0.07,0,0.0,600,0.68,4869.03,408998.73,4.87,883.38,0.1,10,5.0,0.01,0,0.0,10.11,0
83,BUY_A,ST_FLIP_RED,2025-12-22 06:00:00,2025-12-22 18:00:00,long,88937.5,88737.5,100,0.1,8893.75,100.0,-20,-30.12,-2529.66,-0.03,0,0.0,200,0.22,4838.92,406469.07,4.84,889.38,0.1,10,5.0,0.01,0,0.0,10.12,0
84,BUY_A,ST_FLIP_RED,2025-12-23 18:00:00,2025-12-25 22:00:00,long,87937.5,87337.5,100,0.1,8793.75,100.0,-60,-70.16,-5893.86,-0.07,0,0.0,600,0.68,4768.75,400575.21,4.77,879.38,0.1,10,5.0,0.07,0,0.0,10.16,0
85,BUY_A,ST_FLIP_RED,2025-12-26 02:00:00,2025-12-26 14:00:00,long,88537.5,87937.5,100,0.1,8853.75,100.0,-60,-70.11,-5889.66,-0.07,0,0.0,600,0.68,4698.64,394685.55,4.7,885.38,0.1,10,5.0,0.01,0,0.0,10.12,0
86,BUY_A,ST_FLIP_RED,2025-12-29 02:00:00,2025-12-29 08:00:00,long,89337.5,88937.5,100,0.1,8933.75,100.0,-40,-50.11,-4209.03,-0.05,0,0.0,400,0.45,4648.53,390476.52,4.65,893.38,0.1,10,5.0,0.01,0,0.0,10.11,0
87,BUY_A,ST_FLIP_RED,2025-12-31 10:00:00,2025-12-31 14:00:00,long,88937.5,87937.5,100,0.1,8893.75,100.0,-100,-110.11,-9248.82,-0.11,0,0.0,1000,1.12,4538.43,381227.7,4.54,889.38,0.1,10,5.0,0.01,0,0.0,10.11,0
88,BUY_A,ST_FLIP_RED,2026-01-02 08:00:00,2026-01-06 16:00:00,long,89337.5,93137.5,100,0.1,8933.75,100.0,380,369.77,31060.68,0.37,3800,4.25,0,0.0,4908.2,412288.38,4.91,893.38,0.1,10,5.0,0.13,0,0.0,10.23,0
89,BUY_A,ST_FLIP_RED,2026-01-06 22:00:00,2026-01-07 00:00:00,long,93337.5,92537.5,100,0.1,9333.75,100.0,-80,-90.1,-7568.61,-0.09,0,0.0,800,0.86,4818.09,404719.77,4.82,933.38,0.1,10,5.0,0.0,0,0.0,10.1,0
90,BUY_A,ST_FLIP_RED,2026-01-07 06:00:00,2026-01-09 18:00:00,long,92737.5,90137.5,100,0.1,9273.75,100.0,-260,-270.18,-22694.7,-0.27,0,0.0,2600,2.8,4547.92,382025.07,4.55,927.38,0.1,10,5.0,0.07,0,0.0,10.17,0
91,BUY_A,ST_FLIP_RED,2026-01-12 02:00:00,2026-01-12 08:00:00,long,91537.5,90937.5,100,0.1,9153.75,100.0,-60,-70.11,-5889.03,-0.07,0,0.0,600,0.66,4477.81,376136.04,4.48,915.38,0.1,10,5.0,0.01,0,0.0,10.11,0
92,BUY_A,ST_FLIP_RED,2026-01-13 04:00:00,2026-01-15 02:00:00,long,91737.5,96337.5,100,0.1,9173.75,100.0,460,449.84,37786.77,0.45,4600,5.01,0,0.0,4927.65,413922.81,4.93,917.38,0.1,10,5.0,0.06,0,0.0,10.16,0
93,BUY_A,ST_FLIP_RED,2026-01-17 12:00:00,2026-01-21 12:00:00,long,95337.5,88737.5,100,0.1,9533.75,100.0,-660,-670.22,-56298.48,-0.67,0,0.0,6600,6.92,4257.43,357624.33,4.26,953.38,0.1,10,5.0,0.12,0,0.0,10.22,0
94,BUY_A,ST_FLIP_RED,2026-01-21 14:00:00,2026-01-21 16:00:00,long,89137.5,89337.5,100,0.1,8913.75,100.0,20,9.9,831.39,0.01,200,0.22,0,0.0,4267.33,358455.72,4.27,891.38,0.1,10,5.0,0.0,0,0.0,10.1,0
95,BUY_A,ST_FLIP_RED,2026-01-23 00:00:00,2026-01-23 20:00:00,long,89937.5,89337.5,100,0.1,8993.75,100.0,-60,-70.12,-5890.5,-0.07,0,0.0,600,0.67,4197.21,352565.22,4.2,899.38,0.1,10,5.0,0.03,0,0.0,10.12,0
96,BUY_A,ST_FLIP_RED,2026-01-26 04:00:00,2026-01-27 16:00:00,long,87537.5,87737.5,100,0.1,8753.75,100.0,20,9.86,827.82,0.01,200,0.23,0,0.0,4207.06,353393.04,4.21,875.38,0.1,10,5.0,0.04,0,0.0,10.14,0
97,BUY_A,ST_FLIP_RED,2026-01-27 20:00:00,2026-01-29 00:00:00,long,88937.5,89137.5,100,0.1,8893.75,100.0,20,9.87,828.66,0.01,200,0.22,0,0.0,4216.93,354221.7,4.22,889.38,0.1,10,5.0,0.04,0,0.0,10.13,0
98,BUY_A,ST_FLIP_RED,2026-01-30 04:00:00,2026-01-31 06:00:00,long,82737.5,83337.5,100,0.1,8273.75,100.0,60,49.87,4188.87,0.05,600,0.73,0,0.0,4266.79,358410.57,4.27,827.38,0.1,10,5.0,0.03,0,0.0,10.13,0
99,BUY_A,ST_FLIP_RED,2026-02-01 08:00:00,2026-02-01 14:00:00,long,78537.5,77937.5,100,0.1,7853.75,100.0,-60,-70.11,-5889.03,-0.07,0,0.0,600,0.76,4196.69,352521.54,4.2,785.38,0.1,10,5.0,0.01,0,0.0,10.11,0
100,BUY_A,ST_FLIP_RED,2026-02-02 06:00:00,2026-02-03 16:00:00,long,76337.5,77937.5,100,0.1,7633.75,100.0,160,149.86,12588.03,0.15,1600,2.1,0,0.0,4346.54,365109.57,4.35,763.38,0.1,10,5.0,0.04,0,0.0,10.14,0
101,BUY_A,ST_FLIP_RED,2026-02-04 00:00:00,2026-02-04 12:00:00,long,75937.5,75337.5,100,0.1,7593.75,100.0,-60,-70.11,-5889.66,-0.07,0,0.0,600,0.79,4276.43,359219.91,4.28,759.38,0.1,10,5.0,0.01,0,0.0,10.12,0
102,BUY_A,ST_FLIP_RED,2026-02-04 22:00:00,2026-02-05 10:00:00,long,73337.5,70737.5,100,0.1,7333.75,100.0,-260,-270.12,-22689.66,-0.27,0,0.0,2600,3.55,4006.31,336530.25,4.01,733.38,0.1,10,5.0,0.01,0,0.0,10.12,0
103,BUY_A,ST_FLIP_RED,2026-02-06 04:00:00,2026-02-06 06:00:00,long,64937.5,65537.5,100,0.1,6493.75,100.0,60,49.9,4191.39,0.05,600,0.92,0,0.0,4056.21,340721.64,4.06,649.38,0.1,10,5.0,0.0,0,0.0,10.1,0
104,BUY_A,ST_FLIP_RED,2026-02-06 12:00:00,2026-02-07 06:00:00,long,66737.5,69737.5,100,0.1,6673.75,100.0,300,289.88,24349.71,0.29,3000,4.5,0,0.0,4346.09,365071.35,4.35,667.38,0.1,10,5.0,0.02,0,0.0,10.12,0
105,BUY_A,ST_FLIP_RED,2026-02-08 10:00:00,2026-02-08 22:00:00,long,70937.5,70337.5,100,0.1,7093.75,100.0,-60,-70.11,-5889.66,-0.07,0,0.0,600,0.85,4275.97,359181.69,4.28,709.38,0.1,10,5.0,0.01,0,0.0,10.12,0
106,BUY_A,ST_FLIP_RED,2026-02-11 18:00:00,2026-02-12 14:00:00,long,66737.5,67137.5,100,0.1,6673.75,100.0,40,29.88,2509.5,0.03,400,0.6,0,0.0,4305.85,361691.19,4.31,667.38,0.1,10,5.0,0.03,0,0.0,10.12,0
107,BUY_A,ST_FLIP_RED,2026-02-13 14:00:00,2026-02-14 12:00:00,long,68537.5,69337.5,100,0.1,6853.75,100.0,80,69.87,5869.29,0.07,800,1.17,0,0.0,4375.72,367560.48,4.38,685.38,0.1,10,5.0,0.03,0,0.0,10.13,0
108,BUY_A,ST_FLIP_RED,2026-02-15 06:00:00,2026-02-15 12:00:00,long,70537.5,69737.5,100,0.1,7053.75,100.0,-80,-90.11,-7569.03,-0.09,0,0.0,800,1.13,4285.61,359991.45,4.29,705.38,0.1,10,5.0,0.01,0,0.0,10.11,0
109,BUY_A,ST_FLIP_RED,2026-02-16 08:00:00,2026-02-17 10:00:00,long,68737.5,67937.5,100,0.1,6873.75,100.0,-80,-90.13,-7571.13,-0.09,0,0.0,800,1.16,4195.48,352420.32,4.2,687.38,0.1,10,5.0,0.03,0,0.0,10.13,0
110,BUY_A,ST_FLIP_RED,2026-02-18 06:00:00,2026-02-20 10:00:00,long,67737.5,67137.5,100,0.1,6773.75,100.0,-60,-70.16,-5893.86,-0.07,0,0.0,600,0.89,4125.32,346526.46,4.13,677.38,0.1,10,5.0,0.07,0,0.0,10.16,0
111,BUY_A,ST_FLIP_RED,2026-02-21 14:00:00,2026-02-22 16:00:00,long,68337.5,67537.5,100,0.1,6833.75,100.0,-80,-90.13,-7571.13,-0.09,0,0.0,800,1.17,4035.18,338955.33,4.04,683.38,0.1,10,5.0,0.03,0,0.0,10.13,0
112,BUY_A,ST_FLIP_RED,2026-02-25 00:00:00,2026-02-25 04:00:00,long,64537.5,64737.5,100,0.1,6453.75,100.0,20,9.89,831.18,0.01,200,0.31,0,0.0,4045.08,339786.51,4.05,645.38,0.1,10,5.0,0.01,0,0.0,10.11,0
113,BUY_A,ST_FLIP_RED,2026-02-25 12:00:00,2026-02-25 22:00:00,long,65737.5,67937.5,100,0.1,6573.75,100.0,220,209.89,17630.55,0.21,2200,3.35,0,0.0,4254.97,357417.06,4.25,657.38,0.1,10,5.0,0.01,0,0.0,10.11,0
114,BUY_A,ST_FLIP_RED,2026-02-26 08:00:00,2026-03-01 08:00:00,long,68337.5,66337.5,100,0.1,6833.75,100.0,-200,-210.19,-17655.96,-0.21,0,0.0,2000,2.93,4044.78,339761.1,4.04,683.38,0.1,10,5.0,0.09,0,0.0,10.19,0
115,BUY_A,ST_FLIP_RED,2026-03-02 00:00:00,2026-03-03 04:00:00,long,66537.5,68337.5,100,0.1,6653.75,100.0,180,169.87,14268.66,0.17,1800,2.71,0,0.0,4214.64,354029.76,4.21,665.38,0.1,10,5.0,0.04,0,0.0,10.13,0
116,BUY_A,ST_FLIP_RED,2026-03-04 04:00:00,2026-03-04 22:00:00,long,68137.5,72537.5,100,0.1,6813.75,100.0,440,429.88,36109.71,0.43,4400,6.46,0,0.0,4644.52,390139.47,4.64,681.38,0.1,10,5.0,0.02,0,0.0,10.12,0
117,BUY_A,ST_FLIP_RED,2026-03-06 06:00:00,2026-03-10 12:00:00,long,70737.5,69937.5,100,0.1,7073.75,100.0,-80,-90.23,-7579.11,-0.09,0,0.0,800,1.13,4554.29,382560.36,4.55,707.38,0.1,10,5.0,0.13,0,0.0,10.23,0
118,BUY_A,ST_FLIP_RED,2026-03-10 14:00:00,2026-03-10 18:00:00,long,71137.5,70337.5,100,0.1,7113.75,100.0,-80,-90.11,-7568.82,-0.09,0,0.0,800,1.12,4464.19,374991.54,4.46,711.38,0.1,10,5.0,0.01,0,0.0,10.11,0
119,BUY_A,ST_FLIP_RED,2026-03-12 10:00:00,2026-03-13 14:00:00,long,70537.5,72337.5,100,0.1,7053.75,100.0,180,169.87,14268.66,0.17,1800,2.55,0,0.0,4634.05,389260.2,4.63,705.38,0.1,10,5.0,0.04,0,0.0,10.13,0
120,BUY_A,ST_FLIP_RED,2026-03-16 02:00:00,2026-03-16 14:00:00,long,73537.5,73137.5,100,0.1,7353.75,100.0,-40,-50.12,-4209.66,-0.05,0,0.0,400,0.54,4583.94,385050.54,4.58,735.38,0.1,10,5.0,0.01,0,0.0,10.12,0
121,BUY_A,ST_FLIP_RED,2026-03-16 20:00:00,2026-03-17 02:00:00,long,74337.5,74537.5,100,0.1,7433.75,100.0,20,9.89,830.97,0.01,200,0.27,0,0.0,4593.83,385881.51,4.59,743.38,0.1,10,5.0,0.01,0,0.0,10.11,0
122,BUY_A,ST_FLIP_RED,2026-03-18 02:00:00,2026-03-21 22:00:00,long,74337.5,69537.5,100,0.1,7433.75,100.0,-480,-490.21,-41178.06,-0.49,0,0.0,4800,6.46,4103.61,344703.45,4.1,743.38,0.1,10,5.0,0.12,0,0.0,10.21,0
123,BUY_A,ST_FLIP_RED,2026-03-22 14:00:00,2026-03-23 14:00:00,long,68937.5,70337.5,100,0.1,6893.75,100.0,140,129.87,10909.08,0.13,1400,2.03,0,0.0,4233.48,355612.53,4.23,689.38,0.1,10,5.0,0.03,0,0.0,10.13,0
124,BUY_A,ST_FLIP_RED,2026-03-24 06:00:00,2026-03-24 12:00:00,long,71137.5,70137.5,100,0.1,7113.75,100.0,-100,-110.11,-9249.03,-0.11,0,0.0,1000,1.41,4123.38,346363.5,4.12,711.38,0.1,10,5.0,0.01,0,0.0,10.11,0
125,BUY_A,ST_FLIP_RED,2026-03-25 10:00:00,2026-03-26 04:00:00,long,71537.5,70537.5,100,0.1,7153.75,100.0,-100,-110.12,-9250.29,-0.11,0,0.0,1000,1.4,4013.25,337113.21,4.01,715.38,0.1,10,5.0,0.02,0,0.0,10.12,0
126,BUY_A,ST_FLIP_RED,2026-03-27 22:00:00,2026-03-31 08:00:00,long,66537.5,66937.5,100,0.1,6653.75,100.0,40,29.8,2502.99,0.03,400,0.6,0,0.0,4043.05,339616.2,4.04,665.38,0.1,10,5.0,0.1,0,0.0,10.2,0
127,BUY_A,ST_FLIP_RED,2026-03-31 16:00:00,2026-04-02 00:00:00,long,67137.5,67737.5,100,0.1,6713.75,100.0,60,49.86,4188.24,0.05,600,0.89,0,0.0,4092.91,343804.44,4.09,671.38,0.1,10,5.0,0.04,0,0.0,10.14,0
128,BUY_A,ST_FLIP_RED,2026-04-05 14:00:00,2026-04-06 22:00:00,long,67137.5,68737.5,100,0.1,6713.75,100.0,160,149.86,12588.24,0.15,1600,2.38,0,0.0,4242.77,356392.68,4.24,671.38,0.1,10,5.0,0.04,0,0.0,10.14,0
129,BUY_A,ST_FLIP_RED,2026-04-07 16:00:00,2026-04-12 00:00:00,long,68737.5,72337.5,100,0.1,6873.75,100.0,360,349.77,29380.68,0.35,3600,5.24,0,0.0,4592.54,385773.36,4.59,687.38,0.1,10,5.0,0.13,0,0.0,10.23,0
130,BUY_A,ST_FLIP_RED,2026-04-13 00:00:00,2026-04-14 18:00:00,long,70937.5,74337.5,100,0.1,7093.75,100.0,340,329.85,27707.19,0.33,3400,4.79,0,0.0,4922.39,413480.55,4.92,709.38,0.1,10,5.0,0.05,0,0.0,10.15,0
131,BUY_A,ST_FLIP_RED,2026-04-15 10:00:00,2026-04-16 12:00:00,long,74337.5,73937.5,100,0.1,7433.75,100.0,-40,-50.13,-4211.13,-0.05,0,0.0,400,0.54,4872.26,409269.42,4.87,743.38,0.1,10,5.0,0.03,0,0.0,10.13,0
132,BUY_A,ST_FLIP_RED,2026-04-16 18:00:00,2026-04-18 10:00:00,long,74737.5,76537.5,100,0.1,7473.75,100.0,180,169.85,14267.4,0.17,1800,2.41,0,0.0,5042.11,423536.82,5.04,747.38,0.1,10,5.0,0.05,0,0.0,10.15,0
133,BUY_A,ST_FLIP_RED,2026-04-20 00:00:00,2026-04-21 18:00:00,long,74537.5,75137.5,100,0.1,7453.75,100.0,60,49.85,4187.19,0.05,600,0.8,0,0.0,5091.95,427724.01,5.09,745.38,0.1,10,5.0,0.05,0,0.0,10.15,0
134,BUY_A,ST_FLIP_RED,2026-04-22 02:00:00,2026-04-23 02:00:00,long,76537.5,78137.5,100,0.1,7653.75,100.0,160,149.87,12589.08,0.15,1600,2.09,0,0.0,5241.82,440313.09,5.24,765.38,0.1,10,5.0,0.03,0,0.0,10.13,0
135,BUY_A,ST_FLIP_RED,2026-04-23 22:00:00,2026-04-27 04:00:00,long,78137.5,78137.5,100,0.1,7813.75,100.0,0,-10.2,-856.59,-0.01,0,0.0,0,0.0,5231.63,439456.5,5.23,781.38,0.1,10,5.0,0.1,0,0.0,10.2,0
136,BUY_A,ST_FLIP_RED,2026-04-29 02:00:00,2026-04-29 14:00:00,long,76537.5,76537.5,100,0.1,7653.75,100.0,0,-10.12,-849.66,-0.01,0,0.0,0,0.0,5221.51,438606.84,5.22,765.38,0.1,10,5.0,0.01,0,0.0,10.12,0
137,BUY_A,ST_FLIP_RED,2026-04-30 12:00:00,2026-05-04 10:00:00,long,76137.5,79137.5,100,0.1,7613.75,100.0,300,289.78,24341.73,0.29,3000,3.94,0,0.0,5511.29,462948.57,5.51,761.38,0.1,10,5.0,0.12,0,0.0,10.22,0
138,BUY_A,ST_FLIP_RED,2026-05-04 16:00:00,2026-05-07 00:00:00,long,80337.5,81337.5,100,0.1,8033.75,100.0,100,89.83,7545.72,0.09,1000,1.24,0,0.0,5601.12,470494.29,5.6,803.38,0.1,10,5.0,0.07,0,0.0,10.17,0
139,BUY_A,ST_FLIP_RED,2026-05-08 14:00:00,2026-05-11 00:00:00,long,79937.5,81337.5,100,0.1,7993.75,100.0,140,129.83,10905.51,0.13,1400,1.75,0,0.0,5730.95,481399.8,5.73,799.38,0.1,10,5.0,0.07,0,0.0,10.17,0
140,BUY_A,ST_FLIP_RED,2026-05-13 00:00:00,2026-05-15 04:00:00,long,80737.5,80537.5,100,0.1,8073.75,100.0,-20,-30.16,-2533.86,-0.03,0,0.0,200,0.25,5700.79,478865.94,5.7,807.38,0.1,10,5.0,0.07,0,0.0,10.16,0
141,BUY_A,ST_FLIP_RED,2026-05-19 06:00:00,2026-05-22 16:00:00,long,76937.5,76737.5,100,0.1,7693.75,100.0,-20,-30.2,-2537.01,-0.03,0,0.0,200,0.26,5670.58,476328.93,5.67,769.38,0.1,10,5.0,0.1,0,0.0,10.2,0
142,BUY_A,ST_FLIP_RED,2026-05-24 22:00:00,2026-05-26 00:00:00,long,76737.5,76537.5,100,0.1,7673.75,100.0,-20,-30.13,-2531.13,-0.03,0,0.0,200,0.26,5640.45,473797.8,5.64,767.38,0.1,10,5.0,0.03,0,0.0,10.13,0
143,BUY_A,ST_FLIP_RED,2026-05-29 04:00:00,2026-06-01 10:00:00,long,73537.5,72737.5,100,0.1,7353.75,100.0,-80,-90.2,-7576.59,-0.09,0,0.0,800,1.09,5550.25,466221.21,5.55,735.38,0.1,10,5.0,0.1,0,0.0,10.2,0
144,BUY_A,ST_FLIP_RED,2026-06-01 22:00:00,2026-06-03 14:00:00,long,71337.5,66337.5,100,0.1,7133.75,100.0,-500,-510.15,-42852.6,-0.51,0,0.0,5000,7.01,5040.1,423368.61,5.04,713.38,0.1,10,5.0,0.05,0,0.0,10.15,0
145,BUY_A,ST_FLIP_RED,2026-06-04 02:00:00,2026-06-04 08:00:00,long,63737.5,63537.5,100,0.1,6373.75,100.0,-20,-30.11,-2529.03,-0.03,0,0.0,200,0.31,5010.0,420839.58,5.01,637.38,0.1,10,5.0,0.01,0,0.0,10.11,0
146,BUY_A,ST_FLIP_RED,2026-06-04 12:00:00,2026-06-04 20:00:00,long,63537.5,63337.5,100,0.1,6353.75,100.0,-20,-30.11,-2529.24,-0.03,0,0.0,200,0.31,4979.89,418310.34,4.98,635.38,0.1,10,5.0,0.01,0,0.0,10.11,0
147,BUY_A,ST_FLIP_RED,2026-06-05 20:00:00,2026-06-06 02:00:00,long,61737.5,60737.5,100,0.1,6173.75,100.0,-100,-110.11,-9249.03,-0.11,0,0.0,1000,1.62,4869.78,409061.31,4.87,617.38,0.1,10,5.0,0.01,0,0.0,10.11,0
