anildalabanjan933/crypto_tradingsystem/output/trade_log_RenkoReversalStrategy_BTCUSD_20260624_151618.csv
trade_number,entry_type,exit_type,entry_datetime,exit_datetime,direction,entry_price,exit_price,size_qty,actual_quantity,size_value,lot_notional_usd,gross_pnl,net_pnl,net_pnl_inr,net_pnl_pct,favorable_excursion,favorable_excursion_pct,adverse_excursion,adverse_excursion_pct,cumulative_pnl,cumulative_pnl_inr,cumulative_pnl_pct,margin_required,taker_fees_usd,slippage_usd,slippage_applied,funding_usd,insurance_usd,tax_usd,total_charges_usd,stop_loss
1,SELL,ST_FLIP_GREEN,2025-06-25T14:00:00,2025-06-26T02:00:00,short,106798,107798,100,0.1,10679.8,100.0,-100,-104.11,-8745.24,-0.1,0,0.0,1000,0.94,-104.11,-8745.24,-0.1,1067.98,0.1,4,2.0,0.01,0,0.0,4.11,107198
2,BUY,ST_FLIP_RED,2025-06-26T02:00:00,2025-06-30T20:00:00,long,107798,107198,100,0.1,10779.8,100.0,-60,-64.11,-5385.24,-0.06,0,0.0,600,0.56,-168.22,-14130.48,-0.17,1077.98,0.1,4,2.0,0.01,0,0.0,4.11,107398
3,BUY,ST_FLIP_RED,2025-07-02T04:00:00,2025-07-03T14:00:00,long,106398,109198,100,0.1,10639.8,100.0,280,275.89,23174.76,0.28,2800,2.63,0,0.0,107.67,9044.28,0.11,1063.98,0.1,4,2.0,0.01,0,0.0,4.11,105998
4,SELL,ST_FLIP_GREEN,2025-07-03T14:00:00,2025-07-06T12:00:00,short,109198,108598,100,0.1,10919.8,100.0,60,55.89,4694.76,0.06,600,0.55,0,0.0,163.56,13739.04,0.16,1091.98,0.1,4,2.0,0.01,0,0.0,4.11,109598
5,BUY,ST_FLIP_RED,2025-07-06T12:00:00,2025-07-07T16:00:00,long,108598,108198,100,0.1,10859.8,100.0,-40,-44.11,-3705.24,-0.04,0,0.0,400,0.37,119.45,10033.8,0.12,1085.98,0.1,4,2.0,0.01,0,0.0,4.11,108198
6,SELL,ST_FLIP_GREEN,2025-07-07T16:00:00,2025-07-08T12:00:00,short,108198,108798,100,0.1,10819.8,100.0,-60,-64.11,-5385.24,-0.06,0,0.0,600,0.55,55.34,4648.56,0.06,1081.98,0.1,4,2.0,0.01,0,0.0,4.11,108598
7,BUY,ST_FLIP_RED,2025-07-08T12:00:00,2025-07-09T20:00:00,long,108798,110598,100,0.1,10879.8,100.0,180,175.89,14774.76,0.18,1800,1.65,0,0.0,231.23,19423.32,0.23,1087.98,0.1,4,2.0,0.01,0,0.0,4.11,108398
8,SELL,ST_FLIP_GREEN,2025-07-09T20:00:00,2025-07-10T16:00:00,short,110598,111598,100,0.1,11059.8,100.0,-100,-104.11,-8745.24,-0.1,0,0.0,1000,0.9,127.12,10678.08,0.13,1105.98,0.1,4,2.0,0.01,0,0.0,4.11,110998
9,BUY,ST_FLIP_RED,2025-07-10T16:00:00,2025-07-11T14:00:00,long,111598,117398,100,0.1,11159.8,100.0,580,575.89,48374.76,0.58,5800,5.2,0,0.0,703.01,59052.84,0.7,1115.98,0.1,4,2.0,0.01,0,0.0,4.11,111198
10,SELL,ST_FLIP_GREEN,2025-07-11T14:00:00,2025-07-11T18:00:00,short,117398,117998,100,0.1,11739.8,100.0,-60,-64.11,-5385.24,-0.06,0,0.0,600,0.51,638.9,53667.6,0.64,1173.98,0.1,4,2.0,0.01,0,0.0,4.11,117798
11,BUY,ST_FLIP_RED,2025-07-11T18:00:00,2025-07-14T10:00:00,long,117998,121598,100,0.1,11799.8,100.0,360,355.89,29894.76,0.36,3600,3.05,0,0.0,994.79,83562.36,0.99,1179.98,0.1,4,2.0,0.01,0,0.0,4.11,117598
12,SELL,ST_FLIP_GREEN,2025-07-14T10:00:00,2025-07-15T12:00:00,short,121598,117798,100,0.1,12159.8,100.0,380,375.89,31574.76,0.38,3800,3.13,0,0.0,1370.68,115137.12,1.37,1215.98,0.1,4,2.0,0.01,0,0.0,4.11,121998
13,BUY,ST_FLIP_RED,2025-07-15T12:00:00,2025-07-15T14:00:00,long,117798,117198,100,0.1,11779.8,100.0,-60,-64.11,-5385.24,-0.06,0,0.0,600,0.51,1306.57,109751.88,1.31,1177.98,0.1,4,2.0,0.01,0,0.0,4.11,117398
14,SELL,ST_FLIP_GREEN,2025-07-15T14:00:00,2025-07-15T16:00:00,short,117198,117398,100,0.1,11719.8,100.0,-20,-24.11,-2025.24,-0.02,0,0.0,200,0.17,1282.46,107726.64,1.28,1171.98,0.1,4,2.0,0.01,0,0.0,4.11,117598
15,BUY,ST_FLIP_RED,2025-07-15T16:00:00,2025-07-15T18:00:00,long,117398,116598,100,0.1,11739.8,100.0,-80,-84.11,-7065.24,-0.08,0,0.0,800,0.68,1198.35,100661.4,1.2,1173.98,0.1,4,2.0,0.01,0,0.0,4.11,116998
16,SELL,ST_FLIP_GREEN,2025-07-15T18:00:00,2025-07-15T20:00:00,short,116598,117398,100,0.1,11659.8,100.0,-80,-84.11,-7065.24,-0.08,0,0.0,800,0.69,1114.24,93596.16,1.11,1165.98,0.1,4,2.0,0.01,0,0.0,4.11,116998
17,BUY,ST_FLIP_RED,2025-07-15T20:00:00,2025-07-17T00:00:00,long,117398,118198,100,0.1,11739.8,100.0,80,75.89,6374.76,0.08,800,0.68,0,0.0,1190.13,99970.92,1.19,1173.98,0.1,4,2.0,0.01,0,0.0,4.11,116998
18,SELL,ST_FLIP_GREEN,2025-07-17T00:00:00,2025-07-17T16:00:00,short,118198,118998,100,0.1,11819.8,100.0,-80,-84.11,-7065.24,-0.08,0,0.0,800,0.68,1106.02,92905.68,1.11,1181.98,0.1,4,2.0,0.01,0,0.0,4.11,118598
19,SELL,ST_FLIP_GREEN,2025-07-17T22:00:00,2025-07-18T00:00:00,short,119198,119998,100,0.1,11919.8,100.0,-80,-84.11,-7065.24,-0.08,0,0.0,800,0.67,1021.91,85840.44,1.02,1191.98,0.1,4,2.0,0.01,0,0.0,4.11,119598
20,BUY,ST_FLIP_RED,2025-07-18T00:00:00,2025-07-18T06:00:00,long,119998,119598,100,0.1,11999.8,100.0,-40,-44.11,-3705.24,-0.04,0,0.0,400,0.33,977.8,82135.2,0.98,1199.98,0.1,4,2.0,0.01,0,0.0,4.11,119598
21,SELL,ST_FLIP_GREEN,2025-07-18T06:00:00,2025-07-20T14:00:00,short,119598,118398,100,0.1,11959.8,100.0,120,115.89,9734.76,0.12,1200,1.0,0,0.0,1093.69,91869.96,1.09,1195.98,0.1,4,2.0,0.01,0,0.0,4.11,119998
22,BUY,ST_FLIP_RED,2025-07-20T14:00:00,2025-07-20T22:00:00,long,118398,117398,100,0.1,11839.8,100.0,-100,-104.11,-8745.24,-0.1,0,0.0,1000,0.84,989.58,83124.72,0.99,1183.98,0.1,4,2.0,0.01,0,0.0,4.11,117998
23,SELL,ST_FLIP_GREEN,2025-07-21T10:00:00,2025-07-22T06:00:00,short,118198,117798,100,0.1,11819.8,100.0,40,35.89,3014.76,0.04,400,0.34,0,0.0,1025.47,86139.48,1.03,1181.98,0.1,4,2.0,0.01,0,0.0,4.11,118598
24,BUY,ST_FLIP_RED,2025-07-22T06:00:00,2025-07-22T12:00:00,long,117798,117998,100,0.1,11779.8,100.0,20,15.89,1334.76,0.02,200,0.17,0,0.0,1041.36,87474.24,1.04,1177.98,0.1,4,2.0,0.01,0,0.0,4.11,117398
25,SELL,ST_FLIP_GREEN,2025-07-22T12:00:00,2025-07-22T16:00:00,short,117998,119198,100,0.1,11799.8,100.0,-120,-124.11,-10425.24,-0.12,0,0.0,1200,1.02,917.25,77049.0,0.92,1179.98,0.1,4,2.0,0.01,0,0.0,4.11,118398
26,BUY,ST_FLIP_RED,2025-07-22T16:00:00,2025-07-23T02:00:00,long,119198,118998,100,0.1,11919.8,100.0,-20,-24.11,-2025.24,-0.02,0,0.0,200,0.17,893.14,75023.76,0.89,1191.98,0.1,4,2.0,0.01,0,0.0,4.11,118798
27,SELL,ST_FLIP_GREEN,2025-07-23T02:00:00,2025-07-23T14:00:00,short,118998,118398,100,0.1,11899.8,100.0,60,55.89,4694.76,0.06,600,0.5,0,0.0,949.03,79718.52,0.95,1189.98,0.1,4,2.0,0.01,0,0.0,4.11,119398
28,BUY,ST_FLIP_RED,2025-07-23T14:00:00,2025-07-24T04:00:00,long,118398,117798,100,0.1,11839.8,100.0,-60,-64.11,-5385.24,-0.06,0,0.0,600,0.51,884.92,74333.28,0.88,1183.98,0.1,4,2.0,0.01,0,0.0,4.11,117998
29,BUY,ST_FLIP_RED,2025-07-24T14:00:00,2025-07-25T00:00:00,long,118598,117998,100,0.1,11859.8,100.0,-60,-64.11,-5385.24,-0.06,0,0.0,600,0.51,820.81,68948.04,0.82,1185.98,0.1,4,2.0,0.01,0,0.0,4.11,118198
30,SELL,ST_FLIP_GREEN,2025-07-25T00:00:00,2025-07-25T10:00:00,short,117998,116398,100,0.1,11799.8,100.0,160,155.89,13094.76,0.16,1600,1.36,0,0.0,976.7,82042.8,0.98,1179.98,0.1,4,2.0,0.01,0,0.0,4.11,118398
31,BUY,ST_FLIP_RED,2025-07-25T10:00:00,2025-07-28T14:00:00,long,116398,118398,100,0.1,11639.8,100.0,200,195.89,16454.76,0.2,2000,1.72,0,0.0,1172.59,98497.56,1.17,1163.98,0.1,4,2.0,0.01,0,0.0,4.11,115998
32,SELL,ST_FLIP_GREEN,2025-07-28T14:00:00,2025-07-29T02:00:00,short,118398,118798,100,0.1,11839.8,100.0,-40,-44.11,-3705.24,-0.04,0,0.0,400,0.34,1128.48,94792.32,1.13,1183.98,0.1,4,2.0,0.01,0,0.0,4.11,118798
33,BUY,ST_FLIP_RED,2025-07-29T02:00:00,2025-07-29T14:00:00,long,118798,117598,100,0.1,11879.8,100.0,-120,-124.11,-10425.24,-0.12,0,0.0,1200,1.01,1004.37,84367.08,1.0,1187.98,0.1,4,2.0,0.01,0,0.0,4.11,118398
34,SELL,ST_FLIP_GREEN,2025-07-29T14:00:00,2025-07-31T00:00:00,short,117598,117998,100,0.1,11759.8,100.0,-40,-44.11,-3705.24,-0.04,0,0.0,400,0.34,960.26,80661.84,0.96,1175.98,0.1,4,2.0,0.01,0,0.0,4.11,117998
35,SELL,ST_FLIP_GREEN,2025-07-31T16:00:00,2025-08-01T14:00:00,short,117598,115398,100,0.1,11759.8,100.0,220,215.89,18134.76,0.22,2200,1.87,0,0.0,1176.15,98796.6,1.18,1175.98,0.1,4,2.0,0.01,0,0.0,4.11,117998
36,BUY,ST_FLIP_RED,2025-08-01T14:00:00,2025-08-01T16:00:00,long,115398,114398,100,0.1,11539.8,100.0,-100,-104.11,-8745.24,-0.1,0,0.0,1000,0.87,1072.04,90051.36,1.07,1153.98,0.1,4,2.0,0.01,0,0.0,4.11,114998
37,SELL,ST_FLIP_GREEN,2025-08-01T16:00:00,2025-08-03T00:00:00,short,114398,113198,100,0.1,11439.8,100.0,120,115.89,9734.76,0.12,1200,1.05,0,0.0,1187.93,99786.12,1.19,1143.98,0.1,4,2.0,0.01,0,0.0,4.11,114798
38,BUY,ST_FLIP_RED,2025-08-03T00:00:00,2025-08-05T06:00:00,long,113198,113998,100,0.1,11319.8,100.0,80,75.89,6374.76,0.08,800,0.71,0,0.0,1263.82,106160.88,1.26,1131.98,0.1,4,2.0,0.01,0,0.0,4.11,112798
39,SELL,ST_FLIP_GREEN,2025-08-05T06:00:00,2025-08-05T22:00:00,short,113998,113998,100,0.1,11399.8,100.0,0,-4.11,-345.24,-0.0,0,0.0,0,0.0,1259.71,105815.64,1.26,1139.98,0.1,4,2.0,0.01,0,0.0,4.11,114398
40,BUY,ST_FLIP_RED,2025-08-05T22:00:00,2025-08-08T14:00:00,long,113998,116398,100,0.1,11399.8,100.0,240,235.89,19814.76,0.24,2400,2.11,0,0.0,1495.6,125630.4,1.5,1139.98,0.1,4,2.0,0.01,0,0.0,4.11,113598
41,SELL,ST_FLIP_GREEN,2025-08-08T14:00:00,2025-08-09T08:00:00,short,116398,117198,100,0.1,11639.8,100.0,-80,-84.11,-7065.24,-0.08,0,0.0,800,0.69,1411.49,118565.16,1.41,1163.98,0.1,4,2.0,0.01,0,0.0,4.11,116798
42,BUY,ST_FLIP_RED,2025-08-09T08:00:00,2025-08-11T10:00:00,long,117198,120998,100,0.1,11719.8,100.0,380,375.89,31574.76,0.38,3800,3.24,0,0.0,1787.38,150139.92,1.79,1171.98,0.1,4,2.0,0.01,0,0.0,4.11,116798
43,SELL,ST_FLIP_GREEN,2025-08-11T10:00:00,2025-08-12T14:00:00,short,120998,119398,100,0.1,12099.8,100.0,160,155.89,13094.76,0.16,1600,1.32,0,0.0,1943.27,163234.68,1.94,1209.98,0.1,4,2.0,0.01,0,0.0,4.11,121398
44,BUY,ST_FLIP_RED,2025-08-12T14:00:00,2025-08-14T04:00:00,long,119398,122398,100,0.1,11939.8,100.0,300,295.89,24854.76,0.3,3000,2.51,0,0.0,2239.16,188089.44,2.24,1193.98,0.1,4,2.0,0.01,0,0.0,4.11,118998
45,SELL,ST_FLIP_GREEN,2025-08-14T04:00:00,2025-08-17T08:00:00,short,122398,117998,100,0.1,12239.8,100.0,440,435.89,36614.76,0.44,4400,3.59,0,0.0,2675.05,224704.2,2.68,1223.98,0.1,4,2.0,0.01,0,0.0,4.11,122798
46,BUY,ST_FLIP_RED,2025-08-17T08:00:00,2025-08-18T00:00:00,long,117998,117198,100,0.1,11799.8,100.0,-80,-84.11,-7065.24,-0.08,0,0.0,800,0.68,2590.94,217638.96,2.59,1179.98,0.1,4,2.0,0.01,0,0.0,4.11,117598
47,BUY,ST_FLIP_RED,2025-08-18T14:00:00,2025-08-19T02:00:00,long,115998,115598,100,0.1,11599.8,100.0,-40,-44.11,-3705.24,-0.04,0,0.0,400,0.34,2546.83,213933.72,2.55,1159.98,0.1,4,2.0,0.01,0,0.0,4.11,115598
48,SELL,ST_FLIP_GREEN,2025-08-19T02:00:00,2025-08-20T16:00:00,short,115598,113798,100,0.1,11559.8,100.0,180,175.89,14774.76,0.18,1800,1.56,0,0.0,2722.72,228708.48,2.72,1155.98,0.1,4,2.0,0.01,0,0.0,4.11,115998
49,SELL,ST_FLIP_GREEN,2025-08-21T08:00:00,2025-08-22T04:00:00,short,113598,113198,100,0.1,11359.8,100.0,40,35.89,3014.76,0.04,400,0.35,0,0.0,2758.61,231723.24,2.76,1135.98,0.1,4,2.0,0.01,0,0.0,4.11,113998
50,BUY,ST_FLIP_RED,2025-08-22T04:00:00,2025-08-22T10:00:00,long,113198,112198,100,0.1,11319.8,100.0,-100,-104.11,-8745.24,-0.1,0,0.0,1000,0.88,2654.5,222978.0,2.65,1131.98,0.1,4,2.0,0.01,0,0.0,4.11,112798
51,SELL,ST_FLIP_GREEN,2025-08-22T10:00:00,2025-08-22T14:00:00,short,112198,113398,100,0.1,11219.8,100.0,-120,-124.11,-10425.24,-0.12,0,0.0,1200,1.07,2530.39,212552.76,2.53,1121.98,0.1,4,2.0,0.01,0,0.0,4.11,112598
52,SELL,ST_FLIP_GREEN,2025-08-23T02:00:00,2025-08-24T22:00:00,short,115798,113598,100,0.1,11579.8,100.0,220,215.89,18134.76,0.22,2200,1.9,0,0.0,2746.28,230687.52,2.75,1157.98,0.1,4,2.0,0.01,0,0.0,4.11,116198
53,BUY,ST_FLIP_RED,2025-08-24T22:00:00,2025-08-25T04:00:00,long,113598,112598,100,0.1,11359.8,100.0,-100,-104.11,-8745.24,-0.1,0,0.0,1000,0.88,2642.17,221942.28,2.64,1135.98,0.1,4,2.0,0.01,0,0.0,4.11,113198
54,SELL,ST_FLIP_GREEN,2025-08-25T04:00:00,2025-08-25T14:00:00,short,112598,112198,100,0.1,11259.8,100.0,40,35.89,3014.76,0.04,400,0.36,0,0.0,2678.06,224957.04,2.68,1125.98,0.1,4,2.0,0.01,0,0.0,4.11,112998
55,BUY,ST_FLIP_RED,2025-08-25T14:00:00,2025-08-25T18:00:00,long,112198,111398,100,0.1,11219.8,100.0,-80,-84.11,-7065.24,-0.08,0,0.0,800,0.71,2593.95,217891.8,2.59,1121.98,0.1,4,2.0,0.01,0,0.0,4.11,111798
56,SELL,ST_FLIP_GREEN,2025-08-25T18:00:00,2025-08-26T18:00:00,short,111398,110798,100,0.1,11139.8,100.0,60,55.89,4694.76,0.06,600,0.54,0,0.0,2649.84,222586.56,2.65,1113.98,0.1,4,2.0,0.01,0,0.0,4.11,111798
57,BUY,ST_FLIP_RED,2025-08-26T18:00:00,2025-08-27T06:00:00,long,110798,110598,100,0.1,11079.8,100.0,-20,-24.11,-2025.24,-0.02,0,0.0,200,0.18,2625.73,220561.32,2.63,1107.98,0.1,4,2.0,0.01,0,0.0,4.11,110398
58,SELL,ST_FLIP_GREEN,2025-08-27T06:00:00,2025-08-27T14:00:00,short,110598,111598,100,0.1,11059.8,100.0,-100,-104.11,-8745.24,-0.1,0,0.0,1000,0.9,2521.62,211816.08,2.52,1105.98,0.1,4,2.0,0.01,0,0.0,4.11,110998
59,BUY,ST_FLIP_RED,2025-08-27T14:00:00,2025-08-28T18:00:00,long,111598,111998,100,0.1,11159.8,100.0,40,35.89,3014.76,0.04,400,0.36,0,0.0,2557.51,214830.84,2.56,1115.98,0.1,4,2.0,0.01,0,0.0,4.11,111198
60,SELL,ST_FLIP_GREEN,2025-08-28T18:00:00,2025-08-30T10:00:00,short,111998,108598,100,0.1,11199.8,100.0,340,335.89,28214.76,0.34,3400,3.04,0,0.0,2893.4,243045.6,2.89,1119.98,0.1,4,2.0,0.01,0,0.0,4.11,112398
61,BUY,ST_FLIP_RED,2025-08-30T10:00:00,2025-08-31T22:00:00,long,108598,108198,100,0.1,10859.8,100.0,-40,-44.11,-3705.24,-0.04,0,0.0,400,0.37,2849.29,239340.36,2.85,1085.98,0.1,4,2.0,0.01,0,0.0,4.11,108198
62,SELL,ST_FLIP_GREEN,2025-08-31T22:00:00,2025-09-01T06:00:00,short,108198,108998,100,0.1,10819.8,100.0,-80,-84.11,-7065.24,-0.08,0,0.0,800,0.74,2765.18,232275.12,2.77,1081.98,0.1,4,2.0,0.01,0,0.0,4.11,108598
63,SELL,ST_FLIP_GREEN,2025-09-01T10:00:00,2025-09-01T22:00:00,short,108598,108598,100,0.1,10859.8,100.0,0,-4.11,-345.24,-0.0,0,0.0,0,0.0,2761.07,231929.88,2.76,1085.98,0.1,4,2.0,0.01,0,0.0,4.11,108998
64,BUY,ST_FLIP_RED,2025-09-01T22:00:00,2025-09-04T04:00:00,long,108598,110998,100,0.1,10859.8,100.0,240,235.89,19814.76,0.24,2400,2.21,0,0.0,2996.96,251744.64,3.0,1085.98,0.1,4,2.0,0.01,0,0.0,4.11,108198
65,BUY,ST_FLIP_RED,2025-09-04T20:00:00,2025-09-05T14:00:00,long,110598,111998,100,0.1,11059.8,100.0,140,135.89,11414.76,0.14,1400,1.27,0,0.0,3132.85,263159.4,3.13,1105.98,0.1,4,2.0,0.01,0,0.0,4.11,110198
66,BUY,ST_FLIP_RED,2025-09-05T18:00:00,2025-09-05T20:00:00,long,111598,110598,100,0.1,11159.8,100.0,-100,-104.11,-8745.24,-0.1,0,0.0,1000,0.9,3028.74,254414.16,3.03,1115.98,0.1,4,2.0,0.01,0,0.0,4.11,111198
67,SELL,ST_FLIP_GREEN,2025-09-05T20:00:00,2025-09-07T10:00:00,short,110598,111198,100,0.1,11059.8,100.0,-60,-64.11,-5385.24,-0.06,0,0.0,600,0.54,2964.63,249028.92,2.96,1105.98,0.1,4,2.0,0.01,0,0.0,4.11,110998
68,SELL,ST_FLIP_GREEN,2025-09-09T00:00:00,2025-09-09T06:00:00,short,111398,112198,100,0.1,11139.8,100.0,-80,-84.11,-7065.24,-0.08,0,0.0,800,0.72,2880.52,241963.68,2.88,1113.98,0.1,4,2.0,0.01,0,0.0,4.11,111798
69,BUY,ST_FLIP_RED,2025-09-09T06:00:00,2025-09-09T14:00:00,long,112198,111798,100,0.1,11219.8,100.0,-40,-44.11,-3705.24,-0.04,0,0.0,400,0.36,2836.41,238258.44,2.84,1121.98,0.1,4,2.0,0.01,0,0.0,4.11,111798
70,SELL,ST_FLIP_GREEN,2025-09-09T14:00:00,2025-09-10T06:00:00,short,111798,111798,100,0.1,11179.8,100.0,0,-4.11,-345.24,-0.0,0,0.0,0,0.0,2832.3,237913.2,2.83,1117.98,0.1,4,2.0,0.01,0,0.0,4.11,112198
71,BUY,ST_FLIP_RED,2025-09-10T06:00:00,2025-09-14T12:00:00,long,111798,115398,100,0.1,11179.8,100.0,360,355.89,29894.76,0.36,3600,3.22,0,0.0,3188.19,267807.96,3.19,1117.98,0.1,4,2.0,0.01,0,0.0,4.11,111398
72,SELL,ST_FLIP_GREEN,2025-09-14T12:00:00,2025-09-15T04:00:00,short,115398,116398,100,0.1,11539.8,100.0,-100,-104.11,-8745.24,-0.1,0,0.0,1000,0.87,3084.08,259062.72,3.08,1153.98,0.1,4,2.0,0.01,0,0.0,4.11,115798
73,BUY,ST_FLIP_RED,2025-09-16T04:00:00,2025-09-17T14:00:00,long,115798,115998,100,0.1,11579.8,100.0,20,15.89,1334.76,0.02,200,0.17,0,0.0,3099.97,260397.48,3.1,1157.98,0.1,4,2.0,0.01,0,0.0,4.11,115398
74,SELL,ST_FLIP_GREEN,2025-09-17T14:00:00,2025-09-18T02:00:00,short,115998,116598,100,0.1,11599.8,100.0,-60,-64.11,-5385.24,-0.06,0,0.0,600,0.52,3035.86,255012.24,3.04,1159.98,0.1,4,2.0,0.01,0,0.0,4.11,116398
75,BUY,ST_FLIP_RED,2025-09-18T02:00:00,2025-09-19T10:00:00,long,116598,116398,100,0.1,11659.8,100.0,-20,-24.11,-2025.24,-0.02,0,0.0,200,0.17,3011.75,252987.0,3.01,1165.98,0.1,4,2.0,0.01,0,0.0,4.11,116198
76,SELL,ST_FLIP_GREEN,2025-09-19T10:00:00,2025-09-24T04:00:00,short,116398,112798,100,0.1,11639.8,100.0,360,355.89,29894.76,0.36,3600,3.09,0,0.0,3367.64,282881.76,3.37,1163.98,0.1,4,2.0,0.01,0,0.0,4.11,116798
77,SELL,ST_FLIP_GREEN,2025-09-25T00:00:00,2025-09-26T00:00:00,short,112598,109798,100,0.1,11259.8,100.0,280,275.89,23174.76,0.28,2800,2.49,0,0.0,3643.53,306056.52,3.64,1125.98,0.1,4,2.0,0.01,0,0.0,4.11,112998
78,BUY,ST_FLIP_RED,2025-09-26T00:00:00,2025-09-30T08:00:00,long,109798,113398,100,0.1,10979.8,100.0,360,355.89,29894.76,0.36,3600,3.28,0,0.0,3999.42,335951.28,4.0,1097.98,0.1,4,2.0,0.01,0,0.0,4.11,109398
79,SELL,ST_FLIP_GREEN,2025-09-30T08:00:00,2025-09-30T18:00:00,short,113398,113798,100,0.1,11339.8,100.0,-40,-44.11,-3705.24,-0.04,0,0.0,400,0.35,3955.31,332246.04,3.96,1133.98,0.1,4,2.0,0.01,0,0.0,4.11,113798
80,BUY,ST_FLIP_RED,2025-09-30T18:00:00,2025-10-03T00:00:00,long,113798,119798,100,0.1,11379.8,100.0,600,595.89,50054.76,0.6,6000,5.27,0,0.0,4551.2,382300.8,4.55,1137.98,0.1,4,2.0,0.01,0,0.0,4.11,113398
81,SELL,ST_FLIP_GREEN,2025-10-03T00:00:00,2025-10-03T14:00:00,short,119798,120998,100,0.1,11979.8,100.0,-120,-124.11,-10425.24,-0.12,0,0.0,1200,1.0,4427.09,371875.56,4.43,1197.98,0.1,4,2.0,0.01,0,0.0,4.11,120198
82,SELL,ST_FLIP_GREEN,2025-10-05T08:00:00,2025-10-06T00:00:00,short,123998,123798,100,0.1,12399.8,100.0,20,15.89,1334.76,0.02,200,0.16,0,0.0,4442.98,373210.32,4.44,1239.98,0.1,4,2.0,0.01,0,0.0,4.11,124398
83,SELL,ST_FLIP_GREEN,2025-10-07T06:00:00,2025-10-08T08:00:00,short,124198,122198,100,0.1,12419.8,100.0,200,195.89,16454.76,0.2,2000,1.61,0,0.0,4638.87,389665.08,4.64,1241.98,0.1,4,2.0,0.01,0,0.0,4.11,124598
84,BUY,ST_FLIP_RED,2025-10-08T08:00:00,2025-10-09T00:00:00,long,122198,122998,100,0.1,12219.8,100.0,80,75.89,6374.76,0.08,800,0.65,0,0.0,4714.76,396039.84,4.71,1221.98,0.1,4,2.0,0.01,0,0.0,4.11,121798
85,SELL,ST_FLIP_GREEN,2025-10-09T00:00:00,2025-10-09T10:00:00,short,122998,122798,100,0.1,12299.8,100.0,20,15.89,1334.76,0.02,200,0.16,0,0.0,4730.65,397374.6,4.73,1229.98,0.1,4,2.0,0.01,0,0.0,4.11,123398
86,BUY,ST_FLIP_RED,2025-10-09T10:00:00,2025-10-09T14:00:00,long,122798,121798,100,0.1,12279.8,100.0,-100,-104.11,-8745.24,-0.1,0,0.0,1000,0.81,4626.54,388629.36,4.63,1227.98,0.1,4,2.0,0.01,0,0.0,4.11,122398
87,SELL,ST_FLIP_GREEN,2025-10-09T14:00:00,2025-10-11T02:00:00,short,121798,112198,100,0.1,12179.8,100.0,960,955.89,80294.76,0.96,9600,7.88,0,0.0,5582.43,468924.12,5.58,1217.98,0.1,4,2.0,0.01,0,0.0,4.11,122198
88,BUY,ST_FLIP_RED,2025-10-11T02:00:00,2025-10-11T06:00:00,long,112198,111398,100,0.1,11219.8,100.0,-80,-84.11,-7065.24,-0.08,0,0.0,800,0.71,5498.32,461858.88,5.5,1121.98,0.1,4,2.0,0.01,0,0.0,4.11,111798
89,SELL,ST_FLIP_GREEN,2025-10-11T06:00:00,2025-10-11T08:00:00,short,111398,111198,100,0.1,11139.8,100.0,20,15.89,1334.76,0.02,200,0.18,0,0.0,5514.21,463193.64,5.51,1113.98,0.1,4,2.0,0.01,0,0.0,4.11,111798
90,BUY,ST_FLIP_RED,2025-10-11T08:00:00,2025-10-11T20:00:00,long,111198,111198,100,0.1,11119.8,100.0,0,-4.11,-345.24,-0.0,0,0.0,0,0.0,5510.1,462848.4,5.51,1111.98,0.1,4,2.0,0.01,0,0.0,4.11,110798
91,SELL,ST_FLIP_GREEN,2025-10-11T20:00:00,2025-10-12T04:00:00,short,111198,110998,100,0.1,11119.8,100.0,20,15.89,1334.76,0.02,200,0.18,0,0.0,5525.99,464183.16,5.53,1111.98,0.1,4,2.0,0.01,0,0.0,4.11,111598
92,BUY,ST_FLIP_RED,2025-10-12T04:00:00,2025-10-13T02:00:00,long,110998,114598,100,0.1,11099.8,100.0,360,355.89,29894.76,0.36,3600,3.24,0,0.0,5881.88,494077.92,5.88,1109.98,0.1,4,2.0,0.01,0,0.0,4.11,110598
93,SELL,ST_FLIP_GREEN,2025-10-13T02:00:00,2025-10-13T12:00:00,short,114598,114998,100,0.1,11459.8,100.0,-40,-44.11,-3705.24,-0.04,0,0.0,400,0.35,5837.77,490372.68,5.84,1145.98,0.1,4,2.0,0.01,0,0.0,4.11,114998
94,BUY,ST_FLIP_RED,2025-10-13T12:00:00,2025-10-13T14:00:00,long,114998,114398,100,0.1,11499.8,100.0,-60,-64.11,-5385.24,-0.06,0,0.0,600,0.52,5773.66,484987.44,5.77,1149.98,0.1,4,2.0,0.01,0,0.0,4.11,114598
95,SELL,ST_FLIP_GREEN,2025-10-13T14:00:00,2025-10-13T16:00:00,short,114398,115198,100,0.1,11439.8,100.0,-80,-84.11,-7065.24,-0.08,0,0.0,800,0.7,5689.55,477922.2,5.69,1143.98,0.1,4,2.0,0.01,0,0.0,4.11,114798
96,BUY,ST_FLIP_RED,2025-10-13T16:00:00,2025-10-14T00:00:00,long,115198,114598,100,0.1,11519.8,100.0,-60,-64.11,-5385.24,-0.06,0,0.0,600,0.52,5625.44,472536.96,5.63,1151.98,0.1,4,2.0,0.01,0,0.0,4.11,114798
97,SELL,ST_FLIP_GREEN,2025-10-14T00:00:00,2025-10-14T14:00:00,short,114598,111998,100,0.1,11459.8,100.0,260,255.89,21494.76,0.26,2600,2.27,0,0.0,5881.33,494031.72,5.88,1145.98,0.1,4,2.0,0.01,0,0.0,4.11,114998
98,BUY,ST_FLIP_RED,2025-10-14T14:00:00,2025-10-15T02:00:00,long,111998,111998,100,0.1,11199.8,100.0,0,-4.11,-345.24,-0.0,0,0.0,0,0.0,5877.22,493686.48,5.88,1119.98,0.1,4,2.0,0.01,0,0.0,4.11,111598
99,BUY,ST_FLIP_RED,2025-10-17T10:00:00,2025-10-17T22:00:00,long,105598,106198,100,0.1,10559.8,100.0,60,55.89,4694.76,0.06,600,0.57,0,0.0,5933.11,498381.24,5.93,1055.98,0.1,4,2.0,0.01,0,0.0,4.11,105198
100,SELL,ST_FLIP_GREEN,2025-10-17T22:00:00,2025-10-18T00:00:00,short,106198,107198,100,0.1,10619.8,100.0,-100,-104.11,-8745.24,-0.1,0,0.0,1000,0.94,5829.0,489636.0,5.83,1061.98,0.1,4,2.0,0.01,0,0.0,4.11,106598
101,BUY,ST_FLIP_RED,2025-10-18T00:00:00,2025-10-20T00:00:00,long,107198,107998,100,0.1,10719.8,100.0,80,75.89,6374.76,0.08,800,0.75,0,0.0,5904.89,496010.76,5.9,1071.98,0.1,4,2.0,0.01,0,0.0,4.11,106798
102,SELL,ST_FLIP_GREEN,2025-10-20T00:00:00,2025-10-20T02:00:00,short,107998,108998,100,0.1,10799.8,100.0,-100,-104.11,-8745.24,-0.1,0,0.0,1000,0.93,5800.78,487265.52,5.8,1079.98,0.1,4,2.0,0.01,0,0.0,4.11,108398
103,BUY,ST_FLIP_RED,2025-10-20T02:00:00,2025-10-21T00:00:00,long,108998,109998,100,0.1,10899.8,100.0,100,95.89,8054.76,0.1,1000,0.92,0,0.0,5896.67,495320.28,5.9,1089.98,0.1,4,2.0,0.01,0,0.0,4.11,108598
104,SELL,ST_FLIP_GREEN,2025-10-21T00:00:00,2025-10-21T10:00:00,short,109998,108598,100,0.1,10999.8,100.0,140,135.89,11414.76,0.14,1400,1.27,0,0.0,6032.56,506735.04,6.03,1099.98,0.1,4,2.0,0.01,0,0.0,4.11,110398
105,BUY,ST_FLIP_RED,2025-10-21T10:00:00,2025-10-21T16:00:00,long,108598,112198,100,0.1,10859.8,100.0,360,355.89,29894.76,0.36,3600,3.31,0,0.0,6388.45,536629.8,6.39,1085.98,0.1,4,2.0,0.01,0,0.0,4.11,108198
106,SELL,ST_FLIP_GREEN,2025-10-21T16:00:00,2025-10-22T12:00:00,short,112198,108598,100,0.1,11219.8,100.0,360,355.89,29894.76,0.36,3600,3.21,0,0.0,6744.34,566524.56,6.74,1121.98,0.1,4,2.0,0.01,0,0.0,4.11,112598
107,BUY,ST_FLIP_RED,2025-10-22T12:00:00,2025-10-22T16:00:00,long,108598,107798,100,0.1,10859.8,100.0,-80,-84.11,-7065.24,-0.08,0,0.0,800,0.74,6660.23,559459.32,6.66,1085.98,0.1,4,2.0,0.01,0,0.0,4.11,108198
108,SELL,ST_FLIP_GREEN,2025-10-22T16:00:00,2025-10-23T00:00:00,short,107798,108198,100,0.1,10779.8,100.0,-40,-44.11,-3705.24,-0.04,0,0.0,400,0.37,6616.12,555754.08,6.62,1077.98,0.1,4,2.0,0.01,0,0.0,4.11,108198
109,BUY,ST_FLIP_RED,2025-10-23T00:00:00,2025-10-23T18:00:00,long,108198,109998,100,0.1,10819.8,100.0,180,175.89,14774.76,0.18,1800,1.66,0,0.0,6792.01,570528.84,6.79,1081.98,0.1,4,2.0,0.01,0,0.0,4.11,107798
110,SELL,ST_FLIP_GREEN,2025-10-23T18:00:00,2025-10-24T04:00:00,short,109998,110598,100,0.1,10999.8,100.0,-60,-64.11,-5385.24,-0.06,0,0.0,600,0.55,6727.9,565143.6,6.73,1099.98,0.1,4,2.0,0.01,0,0.0,4.11,110398
111,BUY,ST_FLIP_RED,2025-10-24T04:00:00,2025-10-24T14:00:00,long,110598,110198,100,0.1,11059.8,100.0,-40,-44.11,-3705.24,-0.04,0,0.0,400,0.36,6683.79,561438.36,6.68,1105.98,0.1,4,2.0,0.01,0,0.0,4.11,110198
112,SELL,ST_FLIP_GREEN,2025-10-24T14:00:00,2025-10-24T20:00:00,short,110198,110998,100,0.1,11019.8,100.0,-80,-84.11,-7065.24,-0.08,0,0.0,800,0.73,6599.68,554373.12,6.6,1101.98,0.1,4,2.0,0.01,0,0.0,4.11,110598
113,BUY,ST_FLIP_RED,2025-10-24T20:00:00,2025-10-27T20:00:00,long,110998,114598,100,0.1,11099.8,100.0,360,355.89,29894.76,0.36,3600,3.24,0,0.0,6955.57,584267.88,6.96,1109.98,0.1,4,2.0,0.01,0,0.0,4.11,110598
114,BUY,ST_FLIP_RED,2025-10-28T12:00:00,2025-10-28T14:00:00,long,114598,114398,100,0.1,11459.8,100.0,-20,-24.11,-2025.24,-0.02,0,0.0,200,0.17,6931.46,582242.64,6.93,1145.98,0.1,4,2.0,0.01,0,0.0,4.11,114198
115,SELL,ST_FLIP_GREEN,2025-10-28T14:00:00,2025-10-28T16:00:00,short,114398,115398,100,0.1,11439.8,100.0,-100,-104.11,-8745.24,-0.1,0,0.0,1000,0.87,6827.35,573497.4,6.83,1143.98,0.1,4,2.0,0.01,0,0.0,4.11,114798
116,BUY,ST_FLIP_RED,2025-10-28T16:00:00,2025-10-28T18:00:00,long,115398,114198,100,0.1,11539.8,100.0,-120,-124.11,-10425.24,-0.12,0,0.0,1200,1.04,6703.24,563072.16,6.7,1153.98,0.1,4,2.0,0.01,0,0.0,4.11,114998
117,BUY,ST_FLIP_RED,2025-10-30T06:00:00,2025-10-30T08:00:00,long,110998,110198,100,0.1,11099.8,100.0,-80,-84.11,-7065.24,-0.08,0,0.0,800,0.72,6619.13,556006.92,6.62,1109.98,0.1,4,2.0,0.01,0,0.0,4.11,110598
118,SELL,ST_FLIP_GREEN,2025-10-30T08:00:00,2025-10-30T20:00:00,short,110198,107598,100,0.1,11019.8,100.0,260,255.89,21494.76,0.26,2600,2.36,0,0.0,6875.02,577501.68,6.88,1101.98,0.1,4,2.0,0.01,0,0.0,4.11,110598
119,BUY,ST_FLIP_RED,2025-10-30T20:00:00,2025-10-31T16:00:00,long,107598,109198,100,0.1,10759.8,100.0,160,155.89,13094.76,0.16,1600,1.49,0,0.0,7030.91,590596.44,7.03,1075.98,0.1,4,2.0,0.01,0,0.0,4.11,107198
120,SELL,ST_FLIP_GREEN,2025-10-31T16:00:00,2025-11-01T02:00:00,short,109198,110198,100,0.1,10919.8,100.0,-100,-104.11,-8745.24,-0.1,0,0.0,1000,0.92,6926.8,581851.2,6.93,1091.98,0.1,4,2.0,0.01,0,0.0,4.11,109598
121,BUY,ST_FLIP_RED,2025-11-01T02:00:00,2025-11-03T00:00:00,long,110198,109798,100,0.1,11019.8,100.0,-40,-44.11,-3705.24,-0.04,0,0.0,400,0.36,6882.69,578145.96,6.88,1101.98,0.1,4,2.0,0.01,0,0.0,4.11,109798
122,SELL,ST_FLIP_GREEN,2025-11-03T00:00:00,2025-11-03T16:00:00,short,109798,106598,100,0.1,10979.8,100.0,320,315.89,26534.76,0.32,3200,2.91,0,0.0,7198.58,604680.72,7.2,1097.98,0.1,4,2.0,0.01,0,0.0,4.11,110198
123,BUY,ST_FLIP_RED,2025-11-03T16:00:00,2025-11-03T22:00:00,long,106598,106598,100,0.1,10659.8,100.0,0,-4.11,-345.24,-0.0,0,0.0,0,0.0,7194.47,604335.48,7.19,1065.98,0.1,4,2.0,0.01,0,0.0,4.11,106198
124,SELL,ST_FLIP_GREEN,2025-11-03T22:00:00,2025-11-04T22:00:00,short,106598,101398,100,0.1,10659.8,100.0,520,515.89,43334.76,0.52,5200,4.88,0,0.0,7710.36,647670.24,7.71,1065.98,0.1,4,2.0,0.01,0,0.0,4.11,106998
125,BUY,ST_FLIP_RED,2025-11-04T22:00:00,2025-11-05T00:00:00,long,101398,100598,100,0.1,10139.8,100.0,-80,-84.11,-7065.24,-0.08,0,0.0,800,0.79,7626.25,640605.0,7.63,1013.98,0.1,4,2.0,0.01,0,0.0,4.11,100998
126,SELL,ST_FLIP_GREEN,2025-11-05T00:00:00,2025-11-05T02:00:00,short,100598,101798,100,0.1,10059.8,100.0,-120,-124.11,-10425.24,-0.12,0,0.0,1200,1.19,7502.14,630179.76,7.5,1005.98,0.1,4,2.0,0.01,0,0.0,4.11,100998
127,SELL,ST_FLIP_GREEN,2025-11-06T08:00:00,2025-11-07T04:00:00,short,102798,102198,100,0.1,10279.8,100.0,60,55.89,4694.76,0.06,600,0.58,0,0.0,7558.03,634874.52,7.56,1027.98,0.1,4,2.0,0.01,0,0.0,4.11,103198
128,BUY,ST_FLIP_RED,2025-11-07T04:00:00,2025-11-07T08:00:00,long,102198,101398,100,0.1,10219.8,100.0,-80,-84.11,-7065.24,-0.08,0,0.0,800,0.78,7473.92,627809.28,7.47,1021.98,0.1,4,2.0,0.01,0,0.0,4.11,101798
129,SELL,ST_FLIP_GREEN,2025-11-07T08:00:00,2025-11-07T16:00:00,short,101398,101398,100,0.1,10139.8,100.0,0,-4.11,-345.24,-0.0,0,0.0,0,0.0,7469.81,627464.04,7.47,1013.98,0.1,4,2.0,0.01,0,0.0,4.11,101798
130,BUY,ST_FLIP_RED,2025-11-07T16:00:00,2025-11-08T02:00:00,long,101398,102798,100,0.1,10139.8,100.0,140,135.89,11414.76,0.14,1400,1.38,0,0.0,7605.7,638878.8,7.61,1013.98,0.1,4,2.0,0.01,0,0.0,4.11,100998
131,SELL,ST_FLIP_GREEN,2025-11-08T02:00:00,2025-11-09T12:00:00,short,102798,102798,100,0.1,10279.8,100.0,0,-4.11,-345.24,-0.0,0,0.0,0,0.0,7601.59,638533.56,7.6,1027.98,0.1,4,2.0,0.01,0,0.0,4.11,103198
132,SELL,ST_FLIP_GREEN,2025-11-10T14:00:00,2025-11-10T16:00:00,short,105398,105998,100,0.1,10539.8,100.0,-60,-64.11,-5385.24,-0.06,0,0.0,600,0.57,7537.48,633148.32,7.54,1053.98,0.1,4,2.0,0.01,0,0.0,4.11,105798
133,BUY,ST_FLIP_RED,2025-11-10T16:00:00,2025-11-11T04:00:00,long,105998,105198,100,0.1,10599.8,100.0,-80,-84.11,-7065.24,-0.08,0,0.0,800,0.75,7453.37,626083.08,7.45,1059.98,0.1,4,2.0,0.01,0,0.0,4.11,105598
134,BUY,ST_FLIP_RED,2025-11-12T08:00:00,2025-11-12T14:00:00,long,103798,103998,100,0.1,10379.8,100.0,20,15.89,1334.76,0.02,200,0.19,0,0.0,7469.26,627417.84,7.47,1037.98,0.1,4,2.0,0.01,0,0.0,4.11,103398
135,SELL,ST_FLIP_GREEN,2025-11-12T14:00:00,2025-11-13T04:00:00,short,103998,102398,100,0.1,10399.8,100.0,160,155.89,13094.76,0.16,1600,1.54,0,0.0,7625.15,640512.6,7.63,1039.98,0.1,4,2.0,0.01,0,0.0,4.11,104398
136,BUY,ST_FLIP_RED,2025-11-13T04:00:00,2025-11-13T12:00:00,long,102398,102398,100,0.1,10239.8,100.0,0,-4.11,-345.24,-0.0,0,0.0,0,0.0,7621.04,640167.36,7.62,1023.98,0.1,4,2.0,0.01,0,0.0,4.11,101998
137,SELL,ST_FLIP_GREEN,2025-11-13T12:00:00,2025-11-13T22:00:00,short,102398,99798,100,0.1,10239.8,100.0,260,255.89,21494.76,0.26,2600,2.54,0,0.0,7876.93,661662.12,7.88,1023.98,0.1,4,2.0,0.01,0,0.0,4.11,102798
138,BUY,ST_FLIP_RED,2025-11-13T22:00:00,2025-11-14T04:00:00,long,99798,98798,100,0.1,9979.8,100.0,-100,-104.11,-8745.24,-0.1,0,0.0,1000,1.0,7772.82,652916.88,7.77,997.98,0.1,4,2.0,0.01,0,0.0,4.11,99398
139,SELL,ST_FLIP_GREEN,2025-11-14T04:00:00,2025-11-14T14:00:00,short,98798,96398,100,0.1,9879.8,100.0,240,235.89,19814.76,0.24,2400,2.43,0,0.0,8008.71,672731.64,8.01,987.98,0.1,4,2.0,0.01,0,0.0,4.11,99198
140,BUY,ST_FLIP_RED,2025-11-14T14:00:00,2025-11-14T16:00:00,long,96398,95798,100,0.1,9639.8,100.0,-60,-64.11,-5385.24,-0.06,0,0.0,600,0.62,7944.6,667346.4,7.94,963.98,0.1,4,2.0,0.01,0,0.0,4.11,95998
141,SELL,ST_FLIP_GREEN,2025-11-14T16:00:00,2025-11-15T00:00:00,short,95798,95598,100,0.1,9579.8,100.0,20,15.89,1334.76,0.02,200,0.21,0,0.0,7960.49,668681.16,7.96,957.98,0.1,4,2.0,0.01,0,0.0,4.11,96198
142,BUY,ST_FLIP_RED,2025-11-15T00:00:00,2025-11-15T20:00:00,long,95598,95398,100,0.1,9559.8,100.0,-20,-24.11,-2025.24,-0.02,0,0.0,200,0.21,7936.38,666655.92,7.94,955.98,0.1,4,2.0,0.01,0,0.0,4.11,95198
143,SELL,ST_FLIP_GREEN,2025-11-15T20:00:00,2025-11-16T08:00:00,short,95398,96598,100,0.1,9539.8,100.0,-120,-124.11,-10425.24,-0.12,0,0.0,1200,1.26,7812.27,656230.68,7.81,953.98,0.1,4,2.0,0.01,0,0.0,4.11,95798
144,BUY,ST_FLIP_RED,2025-11-17T00:00:00,2025-11-17T12:00:00,long,94598,94598,100,0.1,9459.8,100.0,0,-4.11,-345.24,-0.0,0,0.0,0,0.0,7808.16,655885.44,7.81,945.98,0.1,4,2.0,0.01,0,0.0,4.11,94198
145,SELL,ST_FLIP_GREEN,2025-11-17T12:00:00,2025-11-18T08:00:00,short,94598,91198,100,0.1,9459.8,100.0,340,335.89,28214.76,0.34,3400,3.59,0,0.0,8144.05,684100.2,8.14,945.98,0.1,4,2.0,0.01,0,0.0,4.11,94998
146,BUY,ST_FLIP_RED,2025-11-18T08:00:00,2025-11-19T02:00:00,long,91198,92198,100,0.1,9119.8,100.0,100,95.89,8054.76,0.1,1000,1.1,0,0.0,8239.94,692154.96,8.24,911.98,0.1,4,2.0,0.01,0,0.0,4.11,90798
147,SELL,ST_FLIP_GREEN,2025-11-19T02:00:00,2025-11-19T06:00:00,short,92198,91598,100,0.1,9219.8,100.0,60,55.89,4694.76,0.06,600,0.65,0,0.0,8295.83,696849.72,8.3,921.98,0.1,4,2.0,0.01,0,0.0,4.11,92598
148,BUY,ST_FLIP_RED,2025-11-19T06:00:00,2025-11-19T14:00:00,long,91598,90998,100,0.1,9159.8,100.0,-60,-64.11,-5385.24,-0.06,0,0.0,600,0.66,8231.72,691464.48,8.23,915.98,0.1,4,2.0,0.01,0,0.0,4.11,91198
149,SELL,ST_FLIP_GREEN,2025-11-19T14:00:00,2025-11-19T20:00:00,short,90998,89998,100,0.1,9099.8,100.0,100,95.89,8054.76,0.1,1000,1.1,0,0.0,8327.61,699519.24,8.33,909.98,0.1,4,2.0,0.01,0,0.0,4.11,91398
150,BUY,ST_FLIP_RED,2025-11-19T20:00:00,2025-11-20T14:00:00,long,89998,91398,100,0.1,8999.8,100.0,140,135.89,11414.76,0.14,1400,1.56,0,0.0,8463.5,710934.0,8.46,899.98,0.1,4,2.0,0.01,0,0.0,4.11,89598
151,SELL,ST_FLIP_GREEN,2025-11-20T14:00:00,2025-11-21T12:00:00,short,91398,83198,100,0.1,9139.8,100.0,820,815.89,68534.76,0.82,8200,8.97,0,0.0,9279.39,779468.76,9.28,913.98,0.1,4,2.0,0.01,0,0.0,4.11,91798
152,BUY,ST_FLIP_RED,2025-11-21T12:00:00,2025-11-21T14:00:00,long,83198,83198,100,0.1,8319.8,100.0,0,-4.11,-345.24,-0.0,0,0.0,0,0.0,9275.28,779123.52,9.28,831.98,0.1,4,2.0,0.01,0,0.0,4.11,82798
153,SELL,ST_FLIP_GREEN,2025-11-21T14:00:00,2025-11-21T16:00:00,short,83198,83798,100,0.1,8319.8,100.0,-60,-64.11,-5385.24,-0.06,0,0.0,600,0.72,9211.17,773738.28,9.21,831.98,0.1,4,2.0,0.01,0,0.0,4.11,83598
154,BUY,ST_FLIP_RED,2025-11-21T16:00:00,2025-11-21T18:00:00,long,83798,83998,100,0.1,8379.8,100.0,20,15.89,1334.76,0.02,200,0.24,0,0.0,9227.06,775073.04,9.23,837.98,0.1,4,2.0,0.01,0,0.0,4.11,83398
155,SELL,ST_FLIP_GREEN,2025-11-21T18:00:00,2025-11-21T20:00:00,short,83998,84998,100,0.1,8399.8,100.0,-100,-104.11,-8745.24,-0.1,0,0.0,1000,1.19,9122.95,766327.8,9.12,839.98,0.1,4,2.0,0.01,0,0.0,4.11,84398
156,BUY,ST_FLIP_RED,2025-11-21T20:00:00,2025-11-22T08:00:00,long,84998,84198,100,0.1,8499.8,100.0,-80,-84.11,-7065.24,-0.08,0,0.0,800,0.94,9038.84,759262.56,9.04,849.98,0.1,4,2.0,0.01,0,0.0,4.11,84598
157,SELL,ST_FLIP_GREEN,2025-11-22T08:00:00,2025-11-23T00:00:00,short,84198,84998,100,0.1,8419.8,100.0,-80,-84.11,-7065.24,-0.08,0,0.0,800,0.95,8954.73,752197.32,8.95,841.98,0.1,4,2.0,0.01,0,0.0,4.11,84598
158,BUY,ST_FLIP_RED,2025-11-23T00:00:00,2025-11-23T22:00:00,long,84998,86798,100,0.1,8499.8,100.0,180,175.89,14774.76,0.18,1800,2.12,0,0.0,9130.62,766972.08,9.13,849.98,0.1,4,2.0,0.01,0,0.0,4.11,84598
159,SELL,ST_FLIP_GREEN,2025-11-23T22:00:00,2025-11-24T16:00:00,short,86798,86998,100,0.1,8679.8,100.0,-20,-24.11,-2025.24,-0.02,0,0.0,200,0.23,9106.51,764946.84,9.11,867.98,0.1,4,2.0,0.01,0,0.0,4.11,87198
160,BUY,ST_FLIP_RED,2025-11-24T16:00:00,2025-11-25T00:00:00,long,86998,87598,100,0.1,8699.8,100.0,60,55.89,4694.76,0.06,600,0.69,0,0.0,9162.4,769641.6,9.16,869.98,0.1,4,2.0,0.01,0,0.0,4.11,86598
161,SELL,ST_FLIP_GREEN,2025-11-25T00:00:00,2025-11-26T16:00:00,short,87598,87998,100,0.1,8759.8,100.0,-40,-44.11,-3705.24,-0.04,0,0.0,400,0.46,9118.29,765936.36,9.12,875.98,0.1,4,2.0,0.01,0,0.0,4.11,87998
162,BUY,ST_FLIP_RED,2025-12-01T20:00:00,2025-12-03T14:00:00,long,85798,92598,100,0.1,8579.8,100.0,680,675.89,56774.76,0.68,6800,7.93,0,0.0,9794.18,822711.12,9.79,857.98,0.1,4,2.0,0.01,0,0.0,4.11,85398
163,SELL,ST_FLIP_GREEN,2025-12-03T14:00:00,2025-12-03T20:00:00,short,92598,93398,100,0.1,9259.8,100.0,-80,-84.11,-7065.24,-0.08,0,0.0,800,0.86,9710.07,815645.88,9.71,925.98,0.1,4,2.0,0.01,0,0.0,4.11,92998
164,BUY,ST_FLIP_RED,2025-12-03T20:00:00,2025-12-04T12:00:00,long,93398,92598,100,0.1,9339.8,100.0,-80,-84.11,-7065.24,-0.08,0,0.0,800,0.86,9625.96,808580.64,9.63,933.98,0.1,4,2.0,0.01,0,0.0,4.11,92998
165,SELL,ST_FLIP_GREEN,2025-12-04T12:00:00,2025-12-07T16:00:00,short,92598,90198,100,0.1,9259.8,100.0,240,235.89,19814.76,0.24,2400,2.59,0,0.0,9861.85,828395.4,9.86,925.98,0.1,4,2.0,0.01,0,0.0,4.11,92998
166,BUY,ST_FLIP_RED,2025-12-07T16:00:00,2025-12-07T20:00:00,long,90198,90198,100,0.1,9019.8,100.0,0,-4.11,-345.24,-0.0,0,0.0,0,0.0,9857.74,828050.16,9.86,901.98,0.1,4,2.0,0.01,0,0.0,4.11,89798
167,SELL,ST_FLIP_GREEN,2025-12-07T20:00:00,2025-12-08T06:00:00,short,90198,91398,100,0.1,9019.8,100.0,-120,-124.11,-10425.24,-0.12,0,0.0,1200,1.33,9733.63,817624.92,9.73,901.98,0.1,4,2.0,0.01,0,0.0,4.11,90598
168,BUY,ST_FLIP_RED,2025-12-08T06:00:00,2025-12-08T14:00:00,long,91398,90798,100,0.1,9139.8,100.0,-60,-64.11,-5385.24,-0.06,0,0.0,600,0.66,9669.52,812239.68,9.67,913.98,0.1,4,2.0,0.01,0,0.0,4.11,90998
169,SELL,ST_FLIP_GREEN,2025-12-08T14:00:00,2025-12-08T20:00:00,short,90798,90798,100,0.1,9079.8,100.0,0,-4.11,-345.24,-0.0,0,0.0,0,0.0,9665.41,811894.44,9.67,907.98,0.1,4,2.0,0.01,0,0.0,4.11,91198
170,BUY,ST_FLIP_RED,2025-12-08T20:00:00,2025-12-09T00:00:00,long,90798,90198,100,0.1,9079.8,100.0,-60,-64.11,-5385.24,-0.06,0,0.0,600,0.66,9601.3,806509.2,9.6,907.98,0.1,4,2.0,0.01,0,0.0,4.11,90398
171,SELL,ST_FLIP_GREEN,2025-12-09T00:00:00,2025-12-09T14:00:00,short,90198,90998,100,0.1,9019.8,100.0,-80,-84.11,-7065.24,-0.08,0,0.0,800,0.89,9517.19,799443.96,9.52,901.98,0.1,4,2.0,0.01,0,0.0,4.11,90598
172,BUY,ST_FLIP_RED,2025-12-09T14:00:00,2025-12-09T20:00:00,long,90998,92798,100,0.1,9099.8,100.0,180,175.89,14774.76,0.18,1800,1.98,0,0.0,9693.08,814218.72,9.69,909.98,0.1,4,2.0,0.01,0,0.0,4.11,90598
173,SELL,ST_FLIP_GREEN,2025-12-09T20:00:00,2025-12-11T18:00:00,short,92798,90998,100,0.1,9279.8,100.0,180,175.89,14774.76,0.18,1800,1.94,0,0.0,9868.97,828993.48,9.87,927.98,0.1,4,2.0,0.01,0,0.0,4.11,93198
174,BUY,ST_FLIP_RED,2025-12-11T18:00:00,2025-12-12T14:00:00,long,90998,91798,100,0.1,9099.8,100.0,80,75.89,6374.76,0.08,800,0.88,0,0.0,9944.86,835368.24,9.94,909.98,0.1,4,2.0,0.01,0,0.0,4.11,90598
175,SELL,ST_FLIP_GREEN,2025-12-12T14:00:00,2025-12-15T00:00:00,short,91798,89198,100,0.1,9179.8,100.0,260,255.89,21494.76,0.26,2600,2.83,0,0.0,10200.75,856863.0,10.2,917.98,0.1,4,2.0,0.01,0,0.0,4.11,92198
176,BUY,ST_FLIP_RED,2025-12-15T00:00:00,2025-12-15T14:00:00,long,89198,88798,100,0.1,8919.8,100.0,-40,-44.11,-3705.24,-0.04,0,0.0,400,0.45,10156.64,853157.76,10.16,891.98,0.1,4,2.0,0.01,0,0.0,4.11,88798
177,SELL,ST_FLIP_GREEN,2025-12-15T14:00:00,2025-12-16T10:00:00,short,88798,86798,100,0.1,8879.8,100.0,200,195.89,16454.76,0.2,2000,2.25,0,0.0,10352.53,869612.52,10.35,887.98,0.1,4,2.0,0.01,0,0.0,4.11,89198
178,BUY,ST_FLIP_RED,2025-12-16T10:00:00,2025-12-16T16:00:00,long,86798,86998,100,0.1,8679.8,100.0,20,15.89,1334.76,0.02,200,0.23,0,0.0,10368.42,870947.28,10.37,867.98,0.1,4,2.0,0.01,0,0.0,4.11,86398
179,SELL,ST_FLIP_GREEN,2025-12-16T16:00:00,2025-12-17T12:00:00,short,86998,87398,100,0.1,8699.8,100.0,-40,-44.11,-3705.24,-0.04,0,0.0,400,0.46,10324.31,867242.04,10.32,869.98,0.1,4,2.0,0.01,0,0.0,4.11,87398
180,BUY,ST_FLIP_RED,2025-12-17T12:00:00,2025-12-17T16:00:00,long,87398,86198,100,0.1,8739.8,100.0,-120,-124.11,-10425.24,-0.12,0,0.0,1200,1.37,10200.2,856816.8,10.2,873.98,0.1,4,2.0,0.01,0,0.0,4.11,86998
181,SELL,ST_FLIP_GREEN,2025-12-17T16:00:00,2025-12-18T08:00:00,short,86198,86998,100,0.1,8619.8,100.0,-80,-84.11,-7065.24,-0.08,0,0.0,800,0.93,10116.09,849751.56,10.12,861.98,0.1,4,2.0,0.01,0,0.0,4.11,86598
182,BUY,ST_FLIP_RED,2025-12-18T08:00:00,2025-12-18T16:00:00,long,86998,87798,100,0.1,8699.8,100.0,80,75.89,6374.76,0.08,800,0.92,0,0.0,10191.98,856126.32,10.19,869.98,0.1,4,2.0,0.01,0,0.0,4.11,86598
183,SELL,ST_FLIP_GREEN,2025-12-18T16:00:00,2025-12-18T20:00:00,short,87798,85598,100,0.1,8779.8,100.0,220,215.89,18134.76,0.22,2200,2.51,0,0.0,10407.87,874261.08,10.41,877.98,0.1,4,2.0,0.01,0,0.0,4.11,88198
184,BUY,ST_FLIP_RED,2025-12-18T20:00:00,2025-12-19T16:00:00,long,85598,86998,100,0.1,8559.8,100.0,140,135.89,11414.76,0.14,1400,1.64,0,0.0,10543.76,885675.84,10.54,855.98,0.1,4,2.0,0.01,0,0.0,4.11,85198
185,SELL,ST_FLIP_GREEN,2025-12-19T16:00:00,2025-12-19T18:00:00,short,86998,87798,100,0.1,8699.8,100.0,-80,-84.11,-7065.24,-0.08,0,0.0,800,0.92,10459.65,878610.6,10.46,869.98,0.1,4,2.0,0.01,0,0.0,4.11,87398
186,BUY,ST_FLIP_RED,2025-12-19T18:00:00,2025-12-21T12:00:00,long,87798,87798,100,0.1,8779.8,100.0,0,-4.11,-345.24,-0.0,0,0.0,0,0.0,10455.54,878265.36,10.46,877.98,0.1,4,2.0,0.01,0,0.0,4.11,87398
187,SELL,ST_FLIP_GREEN,2025-12-21T12:00:00,2025-12-21T22:00:00,short,87798,88598,100,0.1,8779.8,100.0,-80,-84.11,-7065.24,-0.08,0,0.0,800,0.91,10371.43,871200.12,10.37,877.98,0.1,4,2.0,0.01,0,0.0,4.11,88198
188,BUY,ST_FLIP_RED,2025-12-21T22:00:00,2025-12-22T18:00:00,long,88598,88798,100,0.1,8859.8,100.0,20,15.89,1334.76,0.02,200,0.23,0,0.0,10387.32,872534.88,10.39,885.98,0.1,4,2.0,0.01,0,0.0,4.11,88198
189,SELL,ST_FLIP_GREEN,2025-12-22T18:00:00,2025-12-25T14:00:00,short,88798,87998,100,0.1,8879.8,100.0,80,75.89,6374.76,0.08,800,0.9,0,0.0,10463.21,878909.64,10.46,887.98,0.1,4,2.0,0.01,0,0.0,4.11,89198
190,SELL,ST_FLIP_GREEN,2025-12-25T22:00:00,2025-12-26T02:00:00,short,87198,87998,100,0.1,8719.8,100.0,-80,-84.11,-7065.24,-0.08,0,0.0,800,0.92,10379.1,871844.4,10.38,871.98,0.1,4,2.0,0.01,0,0.0,4.11,87598
191,BUY,ST_FLIP_RED,2025-12-26T02:00:00,2025-12-26T14:00:00,long,87998,87998,100,0.1,8799.8,100.0,0,-4.11,-345.24,-0.0,0,0.0,0,0.0,10374.99,871499.16,10.37,879.98,0.1,4,2.0,0.01,0,0.0,4.11,87598
192,SELL,ST_FLIP_GREEN,2025-12-26T14:00:00,2025-12-29T00:00:00,short,87998,87998,100,0.1,8799.8,100.0,0,-4.11,-345.24,-0.0,0,0.0,0,0.0,10370.88,871153.92,10.37,879.98,0.1,4,2.0,0.01,0,0.0,4.11,88398
193,BUY,ST_FLIP_RED,2025-12-29T00:00:00,2025-12-29T08:00:00,long,87998,88998,100,0.1,8799.8,100.0,100,95.89,8054.76,0.1,1000,1.14,0,0.0,10466.77,879208.68,10.47,879.98,0.1,4,2.0,0.01,0,0.0,4.11,87598
194,SELL,ST_FLIP_GREEN,2025-12-29T08:00:00,2025-12-30T14:00:00,short,88998,88398,100,0.1,8899.8,100.0,60,55.89,4694.76,0.06,600,0.67,0,0.0,10522.66,883903.44,10.52,889.98,0.1,4,2.0,0.01,0,0.0,4.11,89398
195,SELL,ST_FLIP_GREEN,2025-12-31T14:00:00,2026-01-01T22:00:00,short,87798,88798,100,0.1,8779.8,100.0,-100,-104.11,-8745.24,-0.1,0,0.0,1000,1.14,10418.55,875158.2,10.42,877.98,0.1,4,2.0,0.01,0,0.0,4.11,88198
196,SELL,ST_FLIP_GREEN,2026-01-06T16:00:00,2026-01-06T20:00:00,short,93198,92398,100,0.1,9319.8,100.0,80,75.89,6374.76,0.08,800,0.86,0,0.0,10494.44,881532.96,10.49,931.98,0.1,4,2.0,0.01,0,0.0,4.11,93598
197,BUY,ST_FLIP_RED,2026-01-06T20:00:00,2026-01-07T00:00:00,long,92398,92598,100,0.1,9239.8,100.0,20,15.89,1334.76,0.02,200,0.22,0,0.0,10510.33,882867.72,10.51,923.98,0.1,4,2.0,0.01,0,0.0,4.11,91998
198,SELL,ST_FLIP_GREEN,2026-01-07T00:00:00,2026-01-08T16:00:00,short,92598,90998,100,0.1,9259.8,100.0,160,155.89,13094.76,0.16,1600,1.73,0,0.0,10666.22,895962.48,10.67,925.98,0.1,4,2.0,0.01,0,0.0,4.11,92998
199,BUY,ST_FLIP_RED,2026-01-08T16:00:00,2026-01-09T18:00:00,long,90998,90198,100,0.1,9099.8,100.0,-80,-84.11,-7065.24,-0.08,0,0.0,800,0.88,10582.11,888897.24,10.58,909.98,0.1,4,2.0,0.01,0,0.0,4.11,90598
200,SELL,ST_FLIP_GREEN,2026-01-09T18:00:00,2026-01-12T02:00:00,short,90198,91398,100,0.1,9019.8,100.0,-120,-124.11,-10425.24,-0.12,0,0.0,1200,1.33,10458.0,878472.0,10.46,901.98,0.1,4,2.0,0.01,0,0.0,4.11,90598
201,SELL,ST_FLIP_GREEN,2026-01-12T08:00:00,2026-01-12T14:00:00,short,90998,91598,100,0.1,9099.8,100.0,-60,-64.11,-5385.24,-0.06,0,0.0,600,0.66,10393.89,873086.76,10.39,909.98,0.1,4,2.0,0.01,0,0.0,4.11,91398
202,BUY,ST_FLIP_RED,2026-01-12T14:00:00,2026-01-15T02:00:00,long,91598,96398,100,0.1,9159.8,100.0,480,475.89,39974.76,0.48,4800,5.24,0,0.0,10869.78,913061.52,10.87,915.98,0.1,4,2.0,0.01,0,0.0,4.11,91198
203,SELL,ST_FLIP_GREEN,2026-01-15T02:00:00,2026-01-15T08:00:00,short,96398,96998,100,0.1,9639.8,100.0,-60,-64.11,-5385.24,-0.06,0,0.0,600,0.62,10805.67,907676.28,10.81,963.98,0.1,4,2.0,0.01,0,0.0,4.11,96798
204,BUY,ST_FLIP_RED,2026-01-15T08:00:00,2026-01-15T18:00:00,long,96998,95798,100,0.1,9699.8,100.0,-120,-124.11,-10425.24,-0.12,0,0.0,1200,1.24,10681.56,897251.04,10.68,969.98,0.1,4,2.0,0.01,0,0.0,4.11,96598
205,BUY,ST_FLIP_RED,2026-01-21T02:00:00,2026-01-21T10:00:00,long,89598,88798,100,0.1,8959.8,100.0,-80,-84.11,-7065.24,-0.08,0,0.0,800,0.89,10597.45,890185.8,10.6,895.98,0.1,4,2.0,0.01,0,0.0,4.11,89198
206,SELL,ST_FLIP_GREEN,2026-01-21T10:00:00,2026-01-21T14:00:00,short,88798,89998,100,0.1,8879.8,100.0,-120,-124.11,-10425.24,-0.12,0,0.0,1200,1.35,10473.34,879760.56,10.47,887.98,0.1,4,2.0,0.01,0,0.0,4.11,89198
207,SELL,ST_FLIP_GREEN,2026-01-21T16:00:00,2026-01-21T18:00:00,short,89398,88798,100,0.1,8939.8,100.0,60,55.89,4694.76,0.06,600,0.67,0,0.0,10529.23,884455.32,10.53,893.98,0.1,4,2.0,0.01,0,0.0,4.11,89798
208,BUY,ST_FLIP_RED,2026-01-21T18:00:00,2026-01-21T22:00:00,long,88798,89398,100,0.1,8879.8,100.0,60,55.89,4694.76,0.06,600,0.68,0,0.0,10585.12,889150.08,10.59,887.98,0.1,4,2.0,0.01,0,0.0,4.11,88398
209,SELL,ST_FLIP_GREEN,2026-01-21T22:00:00,2026-01-23T16:00:00,short,89398,89998,100,0.1,8939.8,100.0,-60,-64.11,-5385.24,-0.06,0,0.0,600,0.67,10521.01,883764.84,10.52,893.98,0.1,4,2.0,0.01,0,0.0,4.11,89798
210,SELL,ST_FLIP_GREEN,2026-01-23T20:00:00,2026-01-26T00:00:00,short,89398,87598,100,0.1,8939.8,100.0,180,175.89,14774.76,0.18,1800,2.01,0,0.0,10696.9,898539.6,10.7,893.98,0.1,4,2.0,0.01,0,0.0,4.11,89798
211,BUY,ST_FLIP_RED,2026-01-26T00:00:00,2026-01-27T16:00:00,long,87598,87598,100,0.1,8759.8,100.0,0,-4.11,-345.24,-0.0,0,0.0,0,0.0,10692.79,898194.36,10.69,875.98,0.1,4,2.0,0.01,0,0.0,4.11,87198
212,SELL,ST_FLIP_GREEN,2026-01-27T16:00:00,2026-01-27T20:00:00,short,87598,88798,100,0.1,8759.8,100.0,-120,-124.11,-10425.24,-0.12,0,0.0,1200,1.37,10568.68,887769.12,10.57,875.98,0.1,4,2.0,0.01,0,0.0,4.11,87998
213,BUY,ST_FLIP_RED,2026-01-27T20:00:00,2026-01-28T18:00:00,long,88798,89198,100,0.1,8879.8,100.0,40,35.89,3014.76,0.04,400,0.45,0,0.0,10604.57,890783.88,10.6,887.98,0.1,4,2.0,0.01,0,0.0,4.11,88398
214,SELL,ST_FLIP_GREEN,2026-01-28T18:00:00,2026-01-30T18:00:00,short,89198,83398,100,0.1,8919.8,100.0,580,575.89,48374.76,0.58,5800,6.5,0,0.0,11180.46,939158.64,11.18,891.98,0.1,4,2.0,0.01,0,0.0,4.11,89598
215,BUY,ST_FLIP_RED,2026-01-30T18:00:00,2026-01-31T08:00:00,long,83398,83398,100,0.1,8339.8,100.0,0,-4.11,-345.24,-0.0,0,0.0,0,0.0,11176.35,938813.4,11.18,833.98,0.1,4,2.0,0.01,0,0.0,4.11,82998
216,SELL,ST_FLIP_GREEN,2026-01-31T08:00:00,2026-02-01T02:00:00,short,83398,78798,100,0.1,8339.8,100.0,460,455.89,38294.76,0.46,4600,5.52,0,0.0,11632.24,977108.16,11.63,833.98,0.1,4,2.0,0.01,0,0.0,4.11,83798
217,BUY,ST_FLIP_RED,2026-02-01T02:00:00,2026-02-01T14:00:00,long,78798,77998,100,0.1,7879.8,100.0,-80,-84.11,-7065.24,-0.08,0,0.0,800,1.02,11548.13,970042.92,11.55,787.98,0.1,4,2.0,0.01,0,0.0,4.11,78398
218,BUY,ST_FLIP_RED,2026-02-02T00:00:00,2026-02-02T02:00:00,long,77598,76598,100,0.1,7759.8,100.0,-100,-104.11,-8745.24,-0.1,0,0.0,1000,1.29,11444.02,961297.68,11.44,775.98,0.1,4,2.0,0.01,0,0.0,4.11,77198
219,SELL,ST_FLIP_GREEN,2026-02-02T02:00:00,2026-02-02T06:00:00,short,76598,76598,100,0.1,7659.8,100.0,0,-4.11,-345.24,-0.0,0,0.0,0,0.0,11439.91,960952.44,11.44,765.98,0.1,4,2.0,0.01,0,0.0,4.11,76998
220,BUY,ST_FLIP_RED,2026-02-02T06:00:00,2026-02-03T16:00:00,long,76598,77798,100,0.1,7659.8,100.0,120,115.89,9734.76,0.12,1200,1.57,0,0.0,11555.8,970687.2,11.56,765.98,0.1,4,2.0,0.01,0,0.0,4.11,76198
221,SELL,ST_FLIP_GREEN,2026-02-03T16:00:00,2026-02-03T20:00:00,short,77798,75998,100,0.1,7779.8,100.0,180,175.89,14774.76,0.18,1800,2.31,0,0.0,11731.69,985461.96,11.73,777.98,0.1,4,2.0,0.01,0,0.0,4.11,78198
222,BUY,ST_FLIP_RED,2026-02-03T20:00:00,2026-02-04T12:00:00,long,75998,75398,100,0.1,7599.8,100.0,-60,-64.11,-5385.24,-0.06,0,0.0,600,0.79,11667.58,980076.72,11.67,759.98,0.1,4,2.0,0.01,0,0.0,4.11,75598
223,BUY,ST_FLIP_RED,2026-02-04T18:00:00,2026-02-04T20:00:00,long,73598,72998,100,0.1,7359.8,100.0,-60,-64.11,-5385.24,-0.06,0,0.0,600,0.82,11603.47,974691.48,11.6,735.98,0.1,4,2.0,0.01,0,0.0,4.11,73198
224,SELL,ST_FLIP_GREEN,2026-02-04T20:00:00,2026-02-06T00:00:00,short,72998,63998,100,0.1,7299.8,100.0,900,895.89,75254.76,0.9,9000,12.33,0,0.0,12499.36,1049946.24,12.5,729.98,0.1,4,2.0,0.01,0,0.0,4.11,73398
225,BUY,ST_FLIP_RED,2026-02-06T00:00:00,2026-02-06T02:00:00,long,63998,64798,100,0.1,6399.8,100.0,80,75.89,6374.76,0.08,800,1.25,0,0.0,12575.25,1056321.0,12.58,639.98,0.1,4,2.0,0.01,0,0.0,4.11,63598
226,SELL,ST_FLIP_GREEN,2026-02-06T02:00:00,2026-02-06T04:00:00,short,64798,64998,100,0.1,6479.8,100.0,-20,-24.11,-2025.24,-0.02,0,0.0,200,0.31,12551.14,1054295.76,12.55,647.98,0.1,4,2.0,0.01,0,0.0,4.11,65198
227,BUY,ST_FLIP_RED,2026-02-06T04:00:00,2026-02-06T06:00:00,long,64998,65398,100,0.1,6499.8,100.0,40,35.89,3014.76,0.04,400,0.62,0,0.0,12587.03,1057310.52,12.59,649.98,0.1,4,2.0,0.01,0,0.0,4.11,64598
228,SELL,ST_FLIP_GREEN,2026-02-06T06:00:00,2026-02-06T08:00:00,short,65398,65798,100,0.1,6539.8,100.0,-40,-44.11,-3705.24,-0.04,0,0.0,400,0.61,12542.92,1053605.28,12.54,653.98,0.1,4,2.0,0.01,0,0.0,4.11,65798
229,BUY,ST_FLIP_RED,2026-02-06T08:00:00,2026-02-07T06:00:00,long,65798,69798,100,0.1,6579.8,100.0,400,395.89,33254.76,0.4,4000,6.08,0,0.0,12938.81,1086860.04,12.94,657.98,0.1,4,2.0,0.01,0,0.0,4.11,65398
230,SELL,ST_FLIP_GREEN,2026-02-07T06:00:00,2026-02-07T12:00:00,short,69798,68998,100,0.1,6979.8,100.0,80,75.89,6374.76,0.08,800,1.15,0,0.0,13014.7,1093234.8,13.01,697.98,0.1,4,2.0,0.01,0,0.0,4.11,70198
231,BUY,ST_FLIP_RED,2026-02-07T12:00:00,2026-02-08T22:00:00,long,68998,70398,100,0.1,6899.8,100.0,140,135.89,11414.76,0.14,1400,2.03,0,0.0,13150.59,1104649.56,13.15,689.98,0.1,4,2.0,0.01,0,0.0,4.11,68598
232,SELL,ST_FLIP_GREEN,2026-02-08T22:00:00,2026-02-09T14:00:00,short,70398,69598,100,0.1,7039.8,100.0,80,75.89,6374.76,0.08,800,1.14,0,0.0,13226.48,1111024.32,13.23,703.98,0.1,4,2.0,0.01,0,0.0,4.11,70798
233,BUY,ST_FLIP_RED,2026-02-09T14:00:00,2026-02-10T02:00:00,long,69598,69798,100,0.1,6959.8,100.0,20,15.89,1334.76,0.02,200,0.29,0,0.0,13242.37,1112359.08,13.24,695.98,0.1,4,2.0,0.01,0,0.0,4.11,69198
234,SELL,ST_FLIP_GREEN,2026-02-10T02:00:00,2026-02-10T16:00:00,short,69798,69598,100,0.1,6979.8,100.0,20,15.89,1334.76,0.02,200,0.29,0,0.0,13258.26,1113693.84,13.26,697.98,0.1,4,2.0,0.01,0,0.0,4.11,70198
235,BUY,ST_FLIP_RED,2026-02-10T16:00:00,2026-02-10T20:00:00,long,69598,68798,100,0.1,6959.8,100.0,-80,-84.11,-7065.24,-0.08,0,0.0,800,1.15,13174.15,1106628.6,13.17,695.98,0.1,4,2.0,0.01,0,0.0,4.11,69198
236,SELL,ST_FLIP_GREEN,2026-02-10T20:00:00,2026-02-11T18:00:00,short,68798,67598,100,0.1,6879.8,100.0,120,115.89,9734.76,0.12,1200,1.74,0,0.0,13290.04,1116363.36,13.29,687.98,0.1,4,2.0,0.01,0,0.0,4.11,69198
237,BUY,ST_FLIP_RED,2026-02-13T00:00:00,2026-02-14T12:00:00,long,66398,69398,100,0.1,6639.8,100.0,300,295.89,24854.76,0.3,3000,4.52,0,0.0,13585.93,1141218.12,13.59,663.98,0.1,4,2.0,0.01,0,0.0,4.11,65998
238,SELL,ST_FLIP_GREEN,2026-02-14T12:00:00,2026-02-15T06:00:00,short,69398,70398,100,0.1,6939.8,100.0,-100,-104.11,-8745.24,-0.1,0,0.0,1000,1.44,13481.82,1132472.88,13.48,693.98,0.1,4,2.0,0.01,0,0.0,4.11,69798
239,BUY,ST_FLIP_RED,2026-02-15T06:00:00,2026-02-15T12:00:00,long,70398,69598,100,0.1,7039.8,100.0,-80,-84.11,-7065.24,-0.08,0,0.0,800,1.14,13397.71,1125407.64,13.4,703.98,0.1,4,2.0,0.01,0,0.0,4.11,69998
240,SELL,ST_FLIP_GREEN,2026-02-15T12:00:00,2026-02-16T20:00:00,short,69598,68798,100,0.1,6959.8,100.0,80,75.89,6374.76,0.08,800,1.15,0,0.0,13473.6,1131782.4,13.47,695.98,0.1,4,2.0,0.01,0,0.0,4.11,69998
241,SELL,ST_FLIP_GREEN,2026-02-17T10:00:00,2026-02-19T18:00:00,short,67998,67198,100,0.1,6799.8,100.0,80,75.89,6374.76,0.08,800,1.18,0,0.0,13549.49,1138157.16,13.55,679.98,0.1,4,2.0,0.01,0,0.0,4.11,68398
242,SELL,ST_FLIP_GREEN,2026-02-20T12:00:00,2026-02-20T20:00:00,short,66998,67798,100,0.1,6699.8,100.0,-80,-84.11,-7065.24,-0.08,0,0.0,800,1.19,13465.38,1131091.92,13.47,669.98,0.1,4,2.0,0.01,0,0.0,4.11,67398
243,BUY,ST_FLIP_RED,2026-02-20T20:00:00,2026-02-22T16:00:00,long,67798,67398,100,0.1,6779.8,100.0,-40,-44.11,-3705.24,-0.04,0,0.0,400,0.59,13421.27,1127386.68,13.42,677.98,0.1,4,2.0,0.01,0,0.0,4.11,67398
244,SELL,ST_FLIP_GREEN,2026-02-22T16:00:00,2026-02-23T06:00:00,short,67398,65398,100,0.1,6739.8,100.0,200,195.89,16454.76,0.2,2000,2.97,0,0.0,13617.16,1143841.44,13.62,673.98,0.1,4,2.0,0.01,0,0.0,4.11,67798
245,BUY,ST_FLIP_RED,2026-02-23T06:00:00,2026-02-23T16:00:00,long,65398,65198,100,0.1,6539.8,100.0,-20,-24.11,-2025.24,-0.02,0,0.0,200,0.31,13593.05,1141816.2,13.59,653.98,0.1,4,2.0,0.01,0,0.0,4.11,64998
246,SELL,ST_FLIP_GREEN,2026-02-23T16:00:00,2026-02-24T14:00:00,short,65198,63998,100,0.1,6519.8,100.0,120,115.89,9734.76,0.12,1200,1.84,0,0.0,13708.94,1151550.96,13.71,651.98,0.1,4,2.0,0.01,0,0.0,4.11,65598
247,BUY,ST_FLIP_RED,2026-02-24T14:00:00,2026-02-25T22:00:00,long,63998,67998,100,0.1,6399.8,100.0,400,395.89,33254.76,0.4,4000,6.25,0,0.0,14104.83,1184805.72,14.1,639.98,0.1,4,2.0,0.01,0,0.0,4.11,63598
248,SELL,ST_FLIP_GREEN,2026-02-25T22:00:00,2026-02-28T12:00:00,short,67998,64798,100,0.1,6799.8,100.0,320,315.89,26534.76,0.32,3200,4.71,0,0.0,14420.72,1211340.48,14.42,679.98,0.1,4,2.0,0.01,0,0.0,4.11,68398
249,BUY,ST_FLIP_RED,2026-02-28T12:00:00,2026-03-01T08:00:00,long,64798,66398,100,0.1,6479.8,100.0,160,155.89,13094.76,0.16,1600,2.47,0,0.0,14576.61,1224435.24,14.58,647.98,0.1,4,2.0,0.01,0,0.0,4.11,64398
250,SELL,ST_FLIP_GREEN,2026-03-01T08:00:00,2026-03-02T14:00:00,short,66398,66598,100,0.1,6639.8,100.0,-20,-24.11,-2025.24,-0.02,0,0.0,200,0.3,14552.5,1222410.0,14.55,663.98,0.1,4,2.0,0.01,0,0.0,4.11,66798
251,SELL,ST_FLIP_GREEN,2026-03-03T04:00:00,2026-03-03T14:00:00,short,68198,67798,100,0.1,6819.8,100.0,40,35.89,3014.76,0.04,400,0.59,0,0.0,14588.39,1225424.76,14.59,681.98,0.1,4,2.0,0.01,0,0.0,4.11,68598
252,BUY,ST_FLIP_RED,2026-03-03T14:00:00,2026-03-05T04:00:00,long,67798,72398,100,0.1,6779.8,100.0,460,455.89,38294.76,0.46,4600,6.78,0,0.0,15044.28,1263719.52,15.04,677.98,0.1,4,2.0,0.01,0,0.0,4.11,67398
253,SELL,ST_FLIP_GREEN,2026-03-05T04:00:00,2026-03-09T02:00:00,short,72398,66998,100,0.1,7239.8,100.0,540,535.89,45014.76,0.54,5400,7.46,0,0.0,15580.17,1308734.28,15.58,723.98,0.1,4,2.0,0.01,0,0.0,4.11,72798
254,BUY,ST_FLIP_RED,2026-03-09T02:00:00,2026-03-10T12:00:00,long,66998,69998,100,0.1,6699.8,100.0,300,295.89,24854.76,0.3,3000,4.48,0,0.0,15876.06,1333589.04,15.88,669.98,0.1,4,2.0,0.01,0,0.0,4.11,66598
255,SELL,ST_FLIP_GREEN,2026-03-10T12:00:00,2026-03-10T14:00:00,short,69998,70998,100,0.1,6999.8,100.0,-100,-104.11,-8745.24,-0.1,0,0.0,1000,1.43,15771.95,1324843.8,15.77,699.98,0.1,4,2.0,0.01,0,0.0,4.11,70398
256,BUY,ST_FLIP_RED,2026-03-10T14:00:00,2026-03-10T18:00:00,long,70998,70398,100,0.1,7099.8,100.0,-60,-64.11,-5385.24,-0.06,0,0.0,600,0.85,15707.84,1319458.56,15.71,709.98,0.1,4,2.0,0.01,0,0.0,4.11,70598
257,SELL,ST_FLIP_GREEN,2026-03-10T18:00:00,2026-03-11T12:00:00,short,70398,70198,100,0.1,7039.8,100.0,20,15.89,1334.76,0.02,200,0.28,0,0.0,15723.73,1320793.32,15.72,703.98,0.1,4,2.0,0.01,0,0.0,4.11,70798
258,BUY,ST_FLIP_RED,2026-03-11T12:00:00,2026-03-12T02:00:00,long,70198,69598,100,0.1,7019.8,100.0,-60,-64.11,-5385.24,-0.06,0,0.0,600,0.85,15659.62,1315408.08,15.66,701.98,0.1,4,2.0,0.01,0,0.0,4.11,69798
259,SELL,ST_FLIP_GREEN,2026-03-12T02:00:00,2026-03-13T00:00:00,short,69598,70798,100,0.1,6959.8,100.0,-120,-124.11,-10425.24,-0.12,0,0.0,1200,1.72,15535.51,1304982.84,15.54,695.98,0.1,4,2.0,0.01,0,0.0,4.11,69998
260,BUY,ST_FLIP_RED,2026-03-13T00:00:00,2026-03-13T14:00:00,long,70798,72198,100,0.1,7079.8,100.0,140,135.89,11414.76,0.14,1400,1.98,0,0.0,15671.4,1316397.6,15.67,707.98,0.1,4,2.0,0.01,0,0.0,4.11,70398
261,SELL,ST_FLIP_GREEN,2026-03-13T14:00:00,2026-03-15T08:00:00,short,72198,71598,100,0.1,7219.8,100.0,60,55.89,4694.76,0.06,600,0.83,0,0.0,15727.29,1321092.36,15.73,721.98,0.1,4,2.0,0.01,0,0.0,4.11,72598
262,BUY,ST_FLIP_RED,2026-03-15T08:00:00,2026-03-17T02:00:00,long,71598,74398,100,0.1,7159.8,100.0,280,275.89,23174.76,0.28,2800,3.91,0,0.0,16003.18,1344267.12,16.0,715.98,0.1,4,2.0,0.01,0,0.0,4.11,71198
263,SELL,ST_FLIP_GREEN,2026-03-17T02:00:00,2026-03-17T16:00:00,short,74398,74598,100,0.1,7439.8,100.0,-20,-24.11,-2025.24,-0.02,0,0.0,200,0.27,15979.07,1342241.88,15.98,743.98,0.1,4,2.0,0.01,0,0.0,4.11,74798
264,BUY,ST_FLIP_RED,2026-03-17T16:00:00,2026-03-18T10:00:00,long,74598,73598,100,0.1,7459.8,100.0,-100,-104.11,-8745.24,-0.1,0,0.0,1000,1.34,15874.96,1333496.64,15.87,745.98,0.1,4,2.0,0.01,0,0.0,4.11,74198
265,SELL,ST_FLIP_GREEN,2026-03-18T10:00:00,2026-03-20T02:00:00,short,73598,70398,100,0.1,7359.8,100.0,320,315.89,26534.76,0.32,3200,4.35,0,0.0,16190.85,1360031.4,16.19,735.98,0.1,4,2.0,0.01,0,0.0,4.11,73998
266,BUY,ST_FLIP_RED,2026-03-20T02:00:00,2026-03-20T12:00:00,long,70398,69798,100,0.1,7039.8,100.0,-60,-64.11,-5385.24,-0.06,0,0.0,600,0.85,16126.74,1354646.16,16.13,703.98,0.1,4,2.0,0.01,0,0.0,4.11,69998
267,SELL,ST_FLIP_GREEN,2026-03-20T12:00:00,2026-03-23T10:00:00,short,69798,69198,100,0.1,6979.8,100.0,60,55.89,4694.76,0.06,600,0.86,0,0.0,16182.63,1359340.92,16.18,697.98,0.1,4,2.0,0.01,0,0.0,4.11,70198
268,BUY,ST_FLIP_RED,2026-03-23T10:00:00,2026-03-23T14:00:00,long,69198,70398,100,0.1,6919.8,100.0,120,115.89,9734.76,0.12,1200,1.73,0,0.0,16298.52,1369075.68,16.3,691.98,0.1,4,2.0,0.01,0,0.0,4.11,68798
269,SELL,ST_FLIP_GREEN,2026-03-23T14:00:00,2026-03-23T16:00:00,short,70398,70998,100,0.1,7039.8,100.0,-60,-64.11,-5385.24,-0.06,0,0.0,600,0.85,16234.41,1363690.44,16.23,703.98,0.1,4,2.0,0.01,0,0.0,4.11,70798
270,BUY,ST_FLIP_RED,2026-03-23T16:00:00,2026-03-24T12:00:00,long,70998,70198,100,0.1,7099.8,100.0,-80,-84.11,-7065.24,-0.08,0,0.0,800,1.13,16150.3,1356625.2,16.15,709.98,0.1,4,2.0,0.01,0,0.0,4.11,70598
271,BUY,ST_FLIP_RED,2026-03-24T20:00:00,2026-03-26T04:00:00,long,70398,70598,100,0.1,7039.8,100.0,20,15.89,1334.76,0.02,200,0.28,0,0.0,16166.19,1357959.96,16.17,703.98,0.1,4,2.0,0.01,0,0.0,4.11,69998
272,SELL,ST_FLIP_GREEN,2026-03-26T04:00:00,2026-03-28T12:00:00,short,70598,66798,100,0.1,7059.8,100.0,380,375.89,31574.76,0.38,3800,5.38,0,0.0,16542.08,1389534.72,16.54,705.98,0.1,4,2.0,0.01,0,0.0,4.11,70998
273,BUY,ST_FLIP_RED,2026-03-28T12:00:00,2026-03-30T18:00:00,long,66798,66598,100,0.1,6679.8,100.0,-20,-24.11,-2025.24,-0.02,0,0.0,200,0.3,16517.97,1387509.48,16.52,667.98,0.1,4,2.0,0.01,0,0.0,4.11,66398
274,SELL,ST_FLIP_GREEN,2026-03-30T18:00:00,2026-03-31T00:00:00,short,66598,67798,100,0.1,6659.8,100.0,-120,-124.11,-10425.24,-0.12,0,0.0,1200,1.8,16393.86,1377084.24,16.39,665.98,0.1,4,2.0,0.01,0,0.0,4.11,66998
275,BUY,ST_FLIP_RED,2026-03-31T00:00:00,2026-03-31T08:00:00,long,67798,66998,100,0.1,6779.8,100.0,-80,-84.11,-7065.24,-0.08,0,0.0,800,1.18,16309.75,1370019.0,16.31,677.98,0.1,4,2.0,0.01,0,0.0,4.11,67398
276,SELL,ST_FLIP_GREEN,2026-03-31T08:00:00,2026-03-31T12:00:00,short,66998,67198,100,0.1,6699.8,100.0,-20,-24.11,-2025.24,-0.02,0,0.0,200,0.3,16285.64,1367993.76,16.29,669.98,0.1,4,2.0,0.01,0,0.0,4.11,67398
277,BUY,ST_FLIP_RED,2026-03-31T12:00:00,2026-04-02T00:00:00,long,67198,67798,100,0.1,6719.8,100.0,60,55.89,4694.76,0.06,600,0.89,0,0.0,16341.53,1372688.52,16.34,671.98,0.1,4,2.0,0.01,0,0.0,4.11,66798
278,BUY,ST_FLIP_RED,2026-04-03T06:00:00,2026-04-06T22:00:00,long,67198,68798,100,0.1,6719.8,100.0,160,155.89,13094.76,0.16,1600,2.38,0,0.0,16497.42,1385783.28,16.5,671.98,0.1,4,2.0,0.01,0,0.0,4.11,66798
279,SELL,ST_FLIP_GREEN,2026-04-06T22:00:00,2026-04-07T20:00:00,short,68798,69398,100,0.1,6879.8,100.0,-60,-64.11,-5385.24,-0.06,0,0.0,600,0.87,16433.31,1380398.04,16.43,687.98,0.1,4,2.0,0.01,0,0.0,4.11,69198
280,SELL,ST_FLIP_GREEN,2026-04-09T12:00:00,2026-04-09T14:00:00,short,70798,71998,100,0.1,7079.8,100.0,-120,-124.11,-10425.24,-0.12,0,0.0,1200,1.69,16309.2,1369972.8,16.31,707.98,0.1,4,2.0,0.01,0,0.0,4.11,71198
281,SELL,ST_FLIP_GREEN,2026-04-12T00:00:00,2026-04-13T12:00:00,short,72598,71798,100,0.1,7259.8,100.0,80,75.89,6374.76,0.08,800,1.1,0,0.0,16385.09,1376347.56,16.39,725.98,0.1,4,2.0,0.01,0,0.0,4.11,72998
282,BUY,ST_FLIP_RED,2026-04-13T12:00:00,2026-04-14T18:00:00,long,71798,74398,100,0.1,7179.8,100.0,260,255.89,21494.76,0.26,2600,3.62,0,0.0,16640.98,1397842.32,16.64,717.98,0.1,4,2.0,0.01,0,0.0,4.11,71398
283,SELL,ST_FLIP_GREEN,2026-04-14T18:00:00,2026-04-15T18:00:00,short,74398,74798,100,0.1,7439.8,100.0,-40,-44.11,-3705.24,-0.04,0,0.0,400,0.54,16596.87,1394137.08,16.6,743.98,0.1,4,2.0,0.01,0,0.0,4.11,74798
284,BUY,ST_FLIP_RED,2026-04-15T18:00:00,2026-04-16T12:00:00,long,74798,73998,100,0.1,7479.8,100.0,-80,-84.11,-7065.24,-0.08,0,0.0,800,1.07,16512.76,1387071.84,16.51,747.98,0.1,4,2.0,0.01,0,0.0,4.11,74398
285,SELL,ST_FLIP_GREEN,2026-04-16T12:00:00,2026-04-16T14:00:00,short,73998,74798,100,0.1,7399.8,100.0,-80,-84.11,-7065.24,-0.08,0,0.0,800,1.08,16428.65,1380006.6,16.43,739.98,0.1,4,2.0,0.01,0,0.0,4.11,74398
286,BUY,ST_FLIP_RED,2026-04-16T14:00:00,2026-04-18T08:00:00,long,74798,76598,100,0.1,7479.8,100.0,180,175.89,14774.76,0.18,1800,2.41,0,0.0,16604.54,1394781.36,16.6,747.98,0.1,4,2.0,0.01,0,0.0,4.11,74398
287,SELL,ST_FLIP_GREEN,2026-04-18T08:00:00,2026-04-20T08:00:00,short,76598,74798,100,0.1,7659.8,100.0,180,175.89,14774.76,0.18,1800,2.35,0,0.0,16780.43,1409556.12,16.78,765.98,0.1,4,2.0,0.01,0,0.0,4.11,76998
288,BUY,ST_FLIP_RED,2026-04-20T08:00:00,2026-04-21T18:00:00,long,74798,75198,100,0.1,7479.8,100.0,40,35.89,3014.76,0.04,400,0.53,0,0.0,16816.32,1412570.88,16.82,747.98,0.1,4,2.0,0.01,0,0.0,4.11,74398
289,BUY,ST_FLIP_RED,2026-04-21T22:00:00,2026-04-22T22:00:00,long,75998,78198,100,0.1,7599.8,100.0,220,215.89,18134.76,0.22,2200,2.89,0,0.0,17032.21,1430705.64,17.03,759.98,0.1,4,2.0,0.01,0,0.0,4.11,75598
290,SELL,ST_FLIP_GREEN,2026-04-22T22:00:00,2026-04-26T22:00:00,short,78198,78598,100,0.1,7819.8,100.0,-40,-44.11,-3705.24,-0.04,0,0.0,400,0.51,16988.1,1427000.4,16.99,781.98,0.1,4,2.0,0.01,0,0.0,4.11,78598
291,SELL,ST_FLIP_GREEN,2026-04-27T04:00:00,2026-04-29T08:00:00,short,78198,77398,100,0.1,7819.8,100.0,80,75.89,6374.76,0.08,800,1.02,0,0.0,17063.99,1433375.16,17.06,781.98,0.1,4,2.0,0.01,0,0.0,4.11,78598
292,SELL,ST_FLIP_GREEN,2026-04-29T12:00:00,2026-05-01T00:00:00,short,76598,76598,100,0.1,7659.8,100.0,0,-4.11,-345.24,-0.0,0,0.0,0,0.0,17059.88,1433029.92,17.06,765.98,0.1,4,2.0,0.01,0,0.0,4.11,76998
293,SELL,ST_FLIP_GREEN,2026-05-04T10:00:00,2026-05-04T14:00:00,short,79198,79798,100,0.1,7919.8,100.0,-60,-64.11,-5385.24,-0.06,0,0.0,600,0.76,16995.77,1427644.68,17.0,791.98,0.1,4,2.0,0.01,0,0.0,4.11,79598
294,BUY,ST_FLIP_RED,2026-05-04T14:00:00,2026-05-06T22:00:00,long,79798,81398,100,0.1,7979.8,100.0,160,155.89,13094.76,0.16,1600,2.01,0,0.0,17151.66,1440739.44,17.15,797.98,0.1,4,2.0,0.01,0,0.0,4.11,79398
295,SELL,ST_FLIP_GREEN,2026-05-06T22:00:00,2026-05-09T16:00:00,short,81398,80598,100,0.1,8139.8,100.0,80,75.89,6374.76,0.08,800,0.98,0,0.0,17227.55,1447114.2,17.23,813.98,0.1,4,2.0,0.01,0,0.0,4.11,81798
296,BUY,ST_FLIP_RED,2026-05-09T16:00:00,2026-05-11T02:00:00,long,80598,81198,100,0.1,8059.8,100.0,60,55.89,4694.76,0.06,600,0.74,0,0.0,17283.44,1451808.96,17.28,805.98,0.1,4,2.0,0.01,0,0.0,4.11,80198
297,SELL,ST_FLIP_GREEN,2026-05-11T02:00:00,2026-05-11T16:00:00,short,81198,81798,100,0.1,8119.8,100.0,-60,-64.11,-5385.24,-0.06,0,0.0,600,0.74,17219.33,1446423.72,17.22,811.98,0.1,4,2.0,0.01,0,0.0,4.11,81598
298,BUY,ST_FLIP_RED,2026-05-11T16:00:00,2026-05-12T12:00:00,long,81798,80598,100,0.1,8179.8,100.0,-120,-124.11,-10425.24,-0.12,0,0.0,1200,1.47,17095.22,1435998.48,17.1,817.98,0.1,4,2.0,0.01,0,0.0,4.11,81398
299,SELL,ST_FLIP_GREEN,2026-05-12T12:00:00,2026-05-14T04:00:00,short,80598,79798,100,0.1,8059.8,100.0,80,75.89,6374.76,0.08,800,0.99,0,0.0,17171.11,1442373.24,17.17,805.98,0.1,4,2.0,0.01,0,0.0,4.11,80998
300,BUY,ST_FLIP_RED,2026-05-14T04:00:00,2026-05-15T04:00:00,long,79798,80598,100,0.1,7979.8,100.0,80,75.89,6374.76,0.08,800,1.0,0,0.0,17247.0,1448748.0,17.25,797.98,0.1,4,2.0,0.01,0,0.0,4.11,79398
301,SELL,ST_FLIP_GREEN,2026-05-15T04:00:00,2026-05-20T08:00:00,short,80598,77398,100,0.1,8059.8,100.0,320,315.89,26534.76,0.32,3200,3.97,0,0.0,17562.89,1475282.76,17.56,805.98,0.1,4,2.0,0.01,0,0.0,4.11,80998
302,BUY,ST_FLIP_RED,2026-05-20T08:00:00,2026-05-22T14:00:00,long,77398,76798,100,0.1,7739.8,100.0,-60,-64.11,-5385.24,-0.06,0,0.0,600,0.78,17498.78,1469897.52,17.5,773.98,0.1,4,2.0,0.01,0,0.0,4.11,76998
303,BUY,ST_FLIP_RED,2026-05-23T18:00:00,2026-05-24T20:00:00,long,75598,76198,100,0.1,7559.8,100.0,60,55.89,4694.76,0.06,600,0.79,0,0.0,17554.67,1474592.28,17.55,755.98,0.1,4,2.0,0.01,0,0.0,4.11,75198
304,SELL,ST_FLIP_GREEN,2026-05-24T20:00:00,2026-05-24T22:00:00,short,76198,77198,100,0.1,7619.8,100.0,-100,-104.11,-8745.24,-0.1,0,0.0,1000,1.31,17450.56,1465847.04,17.45,761.98,0.1,4,2.0,0.01,0,0.0,4.11,76598
305,BUY,ST_FLIP_RED,2026-05-24T22:00:00,2026-05-26T14:00:00,long,77198,76398,100,0.1,7719.8,100.0,-80,-84.11,-7065.24,-0.08,0,0.0,800,1.04,17366.45,1458781.8,17.37,771.98,0.1,4,2.0,0.01,0,0.0,4.11,76798
306,SELL,ST_FLIP_GREEN,2026-05-26T14:00:00,2026-05-31T00:00:00,short,76398,73998,100,0.1,7639.8,100.0,240,235.89,19814.76,0.24,2400,3.14,0,0.0,17602.34,1478596.56,17.6,763.98,0.1,4,2.0,0.01,0,0.0,4.11,76798
307,BUY,ST_FLIP_RED,2026-05-31T00:00:00,2026-06-01T06:00:00,long,73998,72798,100,0.1,7399.8,100.0,-120,-124.11,-10425.24,-0.12,0,0.0,1200,1.62,17478.23,1468171.32,17.48,739.98,0.1,4,2.0,0.01,0,0.0,4.11,73598
308,SELL,ST_FLIP_GREEN,2026-06-01T06:00:00,2026-06-03T04:00:00,short,72798,66998,100,0.1,7279.8,100.0,580,575.89,48374.76,0.58,5800,7.97,0,0.0,18054.12,1516546.08,18.05,727.98,0.1,4,2.0,0.01,0,0.0,4.11,73198
309,BUY,ST_FLIP_RED,2026-06-03T04:00:00,2026-06-03T14:00:00,long,66998,66398,100,0.1,6699.8,100.0,-60,-64.11,-5385.24,-0.06,0,0.0,600,0.9,17990.01,1511160.84,17.99,669.98,0.1,4,2.0,0.01,0,0.0,4.11,66598
310,SELL,ST_FLIP_GREEN,2026-06-03T14:00:00,2026-06-04T02:00:00,short,66398,63198,100,0.1,6639.8,100.0,320,315.89,26534.76,0.32,3200,4.82,0,0.0,18305.9,1537695.6,18.31,663.98,0.1,4,2.0,0.01,0,0.0,4.11,66798
311,BUY,ST_FLIP_RED,2026-06-04T02:00:00,2026-06-04T08:00:00,long,63198,63398,100,0.1,6319.8,100.0,20,15.89,1334.76,0.02,200,0.32,0,0.0,18321.79,1539030.36,18.32,631.98,0.1,4,2.0,0.01,0,0.0,4.11,62798
312,SELL,ST_FLIP_GREEN,2026-06-04T08:00:00,2026-06-04T12:00:00,short,63398,63598,100,0.1,6339.8,100.0,-20,-24.11,-2025.24,-0.02,0,0.0,200,0.32,18297.68,1537005.12,18.3,633.98,0.1,4,2.0,0.01,0,0.0,4.11,63798
313,BUY,ST_FLIP_RED,2026-06-04T12:00:00,2026-06-04T20:00:00,long,63598,63398,100,0.1,6359.8,100.0,-20,-24.11,-2025.24,-0.02,0,0.0,200,0.31,18273.57,1534979.88,18.27,635.98,0.1,4,2.0,0.01,0,0.0,4.11,63198
314,SELL,ST_FLIP_GREEN,2026-06-04T20:00:00,2026-06-05T20:00:00,short,63398,61398,100,0.1,6339.8,100.0,200,195.89,16454.76,0.2,2000,3.15,0,0.0,18469.46,1551434.64,18.47,633.98,0.1,4,2.0,0.01,0,0.0,4.11,63798
315,BUY,ST_FLIP_RED,2026-06-05T20:00:00,2026-06-06T02:00:00,long,61398,60798,100,0.1,6139.8,100.0,-60,-64.11,-5385.24,-0.06,0,0.0,600,0.98,18405.35,1546049.4,18.41,613.98,0.1,4,2.0,0.01,0,0.0,4.11,60998
